(.../Documents/EAGLE/ulps/pcb-gcode.ulp)
(Copyright 2005 - 2012 by John Johnson)
(See readme.txt for licensing terms.)
(This file generated from the board:)
(.../Downloads/controle_moteur_fat_bjt.brd)
(Current profile is .../EAGLE/ulps/profiles/generic.pp  )
(This file generated 28/11/2019 18:59)
(Settings from pcb-machine.h)
(  Tool Size)
(0.1330 )
(Z Axis Settings)
(  High     Up        Down     Drill)
(40.0000 	20.0000 	-0.3000 	-1.7000 )
(spindle on time = 3.0000)
(milling depth = -0.2540)
(text depth = -0.1270)
(tool change at 0.0000 0.0000 50.0000 )
(feed rate xy = F250.00 )
(feed rate z  = F100.00 )
(Settings from pcb-defaults.h)
(isolate min = 0.0254)
(isolate max = 0.5080)
(isolate step = 0.1270)
(Generated bottom outlines, bottom drill, )
(Unit of measure: mm)
(Metric Mode)
G21
(Absolute Coordinates)
G90
G00 X0.0000 Y0.0000 
M03
G04 P3.000000
G00 Z20.0000 
G00 X-16.7412 Y10.5428 
G01 Z-0.3000 F100.00 
G01 X-16.8928 Y10.3912 F250.00 
G01 X-17.0662 Y10.2652 
G01 X-17.2572 Y10.1679 
G01 X-17.4611 Y10.1016 
G01 X-17.6728 Y10.0681 
G01 X-17.8872 Y10.0681 
G01 X-18.0989 Y10.1016 
G01 X-18.3028 Y10.1679 
G01 X-18.4938 Y10.2652 
G01 X-18.6672 Y10.3912 
G01 X-18.8188 Y10.5428 
G01 X-18.9448 Y10.7162 
G01 X-19.0421 Y10.9072 
G01 X-19.1084 Y11.1111 
G01 X-19.1419 Y11.3228 
G01 X-19.1419 Y11.5626 
G01 X-19.1084 Y11.7743 
G01 X-19.0421 Y11.9782 
G01 X-18.9448 Y12.1692 
G01 X-18.8188 Y12.3426 
G01 X-18.6672 Y12.4942 
G01 X-6.4673 Y24.6941 
G01 X-6.4673 Y36.2913 
G01 X-18.8188 Y48.6428 
G01 X-18.9448 Y48.8162 
G01 X-19.0421 Y49.0072 
G01 X-19.1084 Y49.2111 
G01 X-19.1419 Y49.4228 
G01 X-19.1419 Y49.6372 
G01 X-19.1559 Y49.6583 
G01 X-19.2250 Y49.8253 
G01 X-19.2603 Y50.0025 
G01 X-19.2603 Y50.1832 
G01 X-19.2250 Y50.3605 
G01 X-19.1559 Y50.5274 
G01 X-19.0555 Y50.6777 
G01 X-18.9277 Y50.8055 
G01 X-18.7774 Y50.9059 
G01 X-18.6105 Y50.9750 
G01 X-18.4332 Y51.0103 
G01 X-18.2525 Y51.0103 
G01 X-18.0753 Y50.9750 
G01 X-17.9083 Y50.9059 
G01 X-17.8874 Y50.8919 
G01 X-17.6728 Y50.8919 
G01 X-17.4611 Y50.8584 
G01 X-17.2572 Y50.7921 
G01 X-17.0662 Y50.6948 
G01 X-16.8928 Y50.5688 
G01 X-4.0666 Y37.7426 
G01 X-3.9406 Y37.5692 
G01 X-3.8433 Y37.3782 
G01 X-3.7770 Y37.1743 
G01 X-3.7435 Y36.9626 
G01 X-3.7435 Y24.0228 
G01 X-3.7770 Y23.8111 
G01 X-3.8433 Y23.6072 
G01 X-3.9406 Y23.4162 
G01 X-4.0666 Y23.2428 
G01 X-4.2182 Y23.0912 
G01 X-16.6737 Y10.6357 
G01 X-16.7412 Y10.5428 
G00 Z20.0000 
G00 X-35.0169 Y26.4384 
G01 Z-0.3000 F100.00 
G01 X-35.0169 Y27.8516 F250.00 
G01 X-34.9890 Y27.9920 
G01 X-34.9342 Y28.1243 
G01 X-34.8546 Y28.2434 
G01 X-33.4246 Y29.6734 
G01 X-33.3234 Y29.7746 
G01 X-33.2043 Y29.8542 
G01 X-33.0720 Y29.9090 
G01 X-32.9316 Y29.9369 
G01 X-21.4930 Y29.9369 
G01 X-21.3526 Y29.9090 
G01 X-21.2203 Y29.8542 
G01 X-21.1012 Y29.7746 
G01 X-21.0000 Y29.6734 
G01 X-19.8312 Y28.5046 
G01 X-19.7300 Y28.4034 
G01 X-19.6504 Y28.2843 
G01 X-19.5956 Y28.1520 
G01 X-19.5677 Y28.0116 
G01 X-19.5677 Y27.1946 
G01 X-19.4689 Y27.0958 
G01 X-19.3688 Y26.9580 
G01 X-19.2914 Y26.8061 
G01 X-19.2388 Y26.6441 
G01 X-19.2121 Y26.4758 
G01 X-19.2121 Y26.2271 
G01 X-19.1298 Y26.1138 
G01 X-19.0325 Y25.9228 
G01 X-18.9662 Y25.7189 
G01 X-18.9327 Y25.5072 
G01 X-18.9327 Y22.7528 
G01 X-18.9662 Y22.5411 
G01 X-19.0325 Y22.3372 
G01 X-19.1298 Y22.1462 
G01 X-19.2558 Y21.9728 
G01 X-24.0381 Y17.1905 
G01 X-24.0381 Y13.8628 
G01 X-24.0716 Y13.6511 
G01 X-24.1379 Y13.4472 
G01 X-24.2352 Y13.2562 
G01 X-24.3612 Y13.0828 
G01 X-32.1328 Y5.3112 
G01 X-32.3062 Y5.1852 
G01 X-32.4972 Y5.0879 
G01 X-32.7011 Y5.0216 
G01 X-32.9128 Y4.9881 
G01 X-66.9172 Y4.9881 
G01 X-67.1289 Y5.0216 
G01 X-67.3328 Y5.0879 
G01 X-67.5238 Y5.1852 
G01 X-67.6972 Y5.3112 
G01 X-75.6137 Y13.2277 
G01 X-75.7410 Y13.1831 
G01 X-76.0763 Y13.1066 
G01 X-76.4180 Y13.0681 
G01 X-76.7620 Y13.0681 
G01 X-77.1037 Y13.1066 
G01 X-77.4390 Y13.1831 
G01 X-77.7636 Y13.2967 
G01 X-78.0734 Y13.4459 
G01 X-78.3646 Y13.6289 
G01 X-78.6335 Y13.8433 
G01 X-78.8767 Y14.0865 
G01 X-79.0911 Y14.3554 
G01 X-79.2741 Y14.6466 
G01 X-79.4233 Y14.9564 
G01 X-79.5369 Y15.2810 
G01 X-79.6134 Y15.6163 
G01 X-79.6519 Y15.9580 
G01 X-79.6519 Y16.3020 
G01 X-79.6134 Y16.6437 
G01 X-79.5369 Y16.9790 
G01 X-79.4233 Y17.3036 
G01 X-79.2741 Y17.6134 
G01 X-79.0911 Y17.9046 
G01 X-78.8767 Y18.1735 
G01 X-78.6335 Y18.4167 
G01 X-78.3646 Y18.6311 
G01 X-78.0734 Y18.8141 
G01 X-77.7636 Y18.9633 
G01 X-77.4390 Y19.0769 
G01 X-77.1037 Y19.1534 
G01 X-76.7620 Y19.1919 
G01 X-76.4180 Y19.1919 
G01 X-76.0763 Y19.1534 
G01 X-75.7410 Y19.0769 
G01 X-75.4164 Y18.9633 
G01 X-75.1066 Y18.8141 
G01 X-74.8154 Y18.6311 
G01 X-74.5465 Y18.4167 
G01 X-74.3033 Y18.1735 
G01 X-74.0889 Y17.9046 
G01 X-73.9059 Y17.6134 
G01 X-73.7567 Y17.3036 
G01 X-73.6431 Y16.9790 
G01 X-73.5666 Y16.6437 
G01 X-73.5281 Y16.3020 
G01 X-73.5281 Y15.9580 
G01 X-73.5666 Y15.6163 
G01 X-73.6431 Y15.2810 
G01 X-73.6877 Y15.1537 
G01 X-66.2459 Y7.7119 
G01 X-33.5841 Y7.7119 
G01 X-26.7619 Y14.5341 
G01 X-26.7619 Y17.8618 
G01 X-26.7284 Y18.0735 
G01 X-26.6621 Y18.2774 
G01 X-26.5648 Y18.4684 
G01 X-26.4388 Y18.6418 
G01 X-26.2872 Y18.7934 
G01 X-21.6565 Y23.4241 
G01 X-21.6565 Y25.5072 
G01 X-21.6230 Y25.7189 
G01 X-21.5567 Y25.9228 
G01 X-21.4594 Y26.1138 
G01 X-21.3771 Y26.2271 
G01 X-21.3771 Y26.4758 
G01 X-21.3504 Y26.6441 
G01 X-21.2978 Y26.8061 
G01 X-21.2204 Y26.9580 
G01 X-21.1203 Y27.0958 
G01 X-21.0215 Y27.1946 
G01 X-21.0215 Y27.6389 
G01 X-21.8657 Y28.4831 
G01 X-32.5589 Y28.4831 
G01 X-33.5631 Y27.4789 
G01 X-33.5631 Y26.4384 
G01 X-33.5910 Y26.2980 
G01 X-33.6458 Y26.1657 
G01 X-33.7254 Y26.0466 
G01 X-33.8266 Y25.9454 
G01 X-33.9457 Y25.8658 
G01 X-34.0780 Y25.8110 
G01 X-34.2184 Y25.7831 
G01 X-34.3616 Y25.7831 
G01 X-34.5020 Y25.8110 
G01 X-34.6343 Y25.8658 
G01 X-34.7534 Y25.9454 
G01 X-34.8546 Y26.0466 
G01 X-34.9342 Y26.1657 
G01 X-34.9890 Y26.2980 
G01 X-35.0169 Y26.4384 
G00 Z20.0000 
G00 X-28.4831 Y34.3784 
G01 Z-0.3000 F100.00 
G01 X-28.5110 Y34.2380 F250.00 
G01 X-28.5658 Y34.1057 
G01 X-28.6454 Y33.9866 
G01 X-28.7466 Y33.8854 
G01 X-28.8657 Y33.8058 
G01 X-28.9980 Y33.7510 
G01 X-29.1384 Y33.7231 
G01 X-29.2816 Y33.7231 
G01 X-29.4220 Y33.7510 
G01 X-29.5543 Y33.8058 
G01 X-29.6734 Y33.8854 
G01 X-29.7746 Y33.9866 
G01 X-29.8542 Y34.1057 
G01 X-29.9090 Y34.2380 
G01 X-29.9369 Y34.3784 
G01 X-29.9369 Y37.0616 
G01 X-29.9090 Y37.2020 
G01 X-29.8542 Y37.3343 
G01 X-29.7746 Y37.4534 
G01 X-25.6997 Y41.5283 
G01 X-37.4195 Y53.2481 
G01 X-66.7559 Y53.2481 
G01 X-73.6877 Y46.3163 
G01 X-73.6431 Y46.1890 
G01 X-73.5666 Y45.8537 
G01 X-73.5281 Y45.5120 
G01 X-73.5281 Y45.1680 
G01 X-73.5666 Y44.8263 
G01 X-73.6431 Y44.4910 
G01 X-73.7567 Y44.1664 
G01 X-73.9059 Y43.8566 
G01 X-74.0889 Y43.5654 
G01 X-74.3033 Y43.2965 
G01 X-74.5465 Y43.0533 
G01 X-74.8154 Y42.8389 
G01 X-75.1066 Y42.6559 
G01 X-75.4164 Y42.5067 
G01 X-75.7410 Y42.3931 
G01 X-76.0763 Y42.3166 
G01 X-76.4180 Y42.2781 
G01 X-76.7620 Y42.2781 
G01 X-77.1037 Y42.3166 
G01 X-77.4390 Y42.3931 
G01 X-77.7636 Y42.5067 
G01 X-78.0734 Y42.6559 
G01 X-78.3646 Y42.8389 
G01 X-78.6335 Y43.0533 
G01 X-78.8767 Y43.2965 
G01 X-79.0911 Y43.5654 
G01 X-79.2741 Y43.8566 
G01 X-79.4233 Y44.1664 
G01 X-79.5369 Y44.4910 
G01 X-79.6134 Y44.8263 
G01 X-79.6519 Y45.1680 
G01 X-79.6519 Y45.5120 
G01 X-79.6134 Y45.8537 
G01 X-79.5369 Y46.1890 
G01 X-79.4233 Y46.5136 
G01 X-79.2741 Y46.8234 
G01 X-79.0911 Y47.1146 
G01 X-78.8767 Y47.3835 
G01 X-78.6335 Y47.6267 
G01 X-78.3646 Y47.8411 
G01 X-78.0734 Y48.0241 
G01 X-77.7636 Y48.1733 
G01 X-77.4390 Y48.2869 
G01 X-77.1037 Y48.3634 
G01 X-76.7620 Y48.4019 
G01 X-76.4180 Y48.4019 
G01 X-76.0763 Y48.3634 
G01 X-75.7410 Y48.2869 
G01 X-75.6137 Y48.2423 
G01 X-68.2072 Y55.6488 
G01 X-68.0338 Y55.7748 
G01 X-67.8428 Y55.8721 
G01 X-67.6389 Y55.9384 
G01 X-67.4272 Y55.9719 
G01 X-36.7482 Y55.9719 
G01 X-36.5365 Y55.9384 
G01 X-36.3326 Y55.8721 
G01 X-36.1416 Y55.7748 
G01 X-35.9682 Y55.6488 
G01 X-23.4231 Y43.1037 
G01 X-23.4162 Y43.1002 
G01 X-23.2428 Y42.9742 
G01 X-19.4074 Y39.1388 
G01 X-19.2558 Y38.9872 
G01 X-19.1298 Y38.8138 
G01 X-19.0325 Y38.6228 
G01 X-18.9662 Y38.4189 
G01 X-18.9327 Y38.2072 
G01 X-18.9327 Y35.4528 
G01 X-18.9662 Y35.2411 
G01 X-19.0325 Y35.0372 
G01 X-19.1298 Y34.8462 
G01 X-19.2121 Y34.7329 
G01 X-19.2121 Y34.4842 
G01 X-19.2388 Y34.3159 
G01 X-19.2914 Y34.1539 
G01 X-19.3688 Y34.0020 
G01 X-19.4689 Y33.8642 
G01 X-19.5894 Y33.7437 
G01 X-19.7272 Y33.6436 
G01 X-19.8791 Y33.5662 
G01 X-20.0411 Y33.5136 
G01 X-20.2094 Y33.4869 
G01 X-20.3798 Y33.4869 
G01 X-20.5481 Y33.5136 
G01 X-20.7101 Y33.5662 
G01 X-20.8620 Y33.6436 
G01 X-20.9998 Y33.7437 
G01 X-21.1203 Y33.8642 
G01 X-21.2204 Y34.0020 
G01 X-21.2978 Y34.1539 
G01 X-21.3504 Y34.3159 
G01 X-21.3771 Y34.4842 
G01 X-21.3771 Y34.7329 
G01 X-21.4594 Y34.8462 
G01 X-21.5567 Y35.0372 
G01 X-21.6230 Y35.2411 
G01 X-21.6565 Y35.4528 
G01 X-21.6565 Y37.5359 
G01 X-24.6463 Y40.5257 
G01 X-28.4831 Y36.6889 
G01 X-28.4831 Y34.3784 
G00 Z20.0000 
G00 X-27.3073 Y27.2209 
G01 Z-0.3000 F100.00 
G01 X-26.0327 Y27.2209 F250.00 
G01 X-25.9989 Y27.2069 
G01 X-25.9731 Y27.1811 
G01 X-25.9591 Y27.1473 
G01 X-25.9591 Y25.8727 
G01 X-25.9731 Y25.8389 
G01 X-25.9989 Y25.8131 
G01 X-26.0327 Y25.7991 
G01 X-27.3073 Y25.7991 
G01 X-27.3411 Y25.8131 
G01 X-27.3669 Y25.8389 
G01 X-27.3809 Y25.8727 
G01 X-27.3809 Y27.1473 
G01 X-27.3669 Y27.1811 
G01 X-27.3411 Y27.2069 
G01 X-27.3073 Y27.2209 
G00 Z20.0000 
G00 X-35.0009 Y34.3800 
G01 Z-0.3000 F100.00 
G01 X-35.0009 Y34.5200 F250.00 
G01 X-34.9736 Y34.6574 
G01 X-34.9200 Y34.7867 
G01 X-34.8422 Y34.9032 
G01 X-34.7432 Y35.0022 
G01 X-34.6267 Y35.0800 
G01 X-34.4974 Y35.1336 
G01 X-34.3600 Y35.1609 
G01 X-34.2200 Y35.1609 
G01 X-34.0826 Y35.1336 
G01 X-33.9533 Y35.0800 
G01 X-33.8368 Y35.0022 
G01 X-33.7378 Y34.9032 
G01 X-33.6600 Y34.7867 
G01 X-33.6064 Y34.6574 
G01 X-33.5791 Y34.5200 
G01 X-33.5791 Y34.3800 
G01 X-33.6064 Y34.2426 
G01 X-33.6600 Y34.1133 
G01 X-33.7378 Y33.9968 
G01 X-33.8368 Y33.8978 
G01 X-33.9533 Y33.8200 
G01 X-34.0826 Y33.7664 
G01 X-34.2200 Y33.7391 
G01 X-34.3600 Y33.7391 
G01 X-34.4974 Y33.7664 
G01 X-34.6267 Y33.8200 
G01 X-34.7432 Y33.8978 
G01 X-34.8422 Y33.9968 
G01 X-34.9200 Y34.1133 
G01 X-34.9736 Y34.2426 
G01 X-35.0009 Y34.3800 
G00 Z20.0000 
G00 X-27.3809 Y34.3800 
G01 Z-0.3000 F100.00 
G01 X-27.3809 Y34.5200 F250.00 
G01 X-27.3536 Y34.6574 
G01 X-27.3000 Y34.7867 
G01 X-27.2222 Y34.9032 
G01 X-27.1232 Y35.0022 
G01 X-27.0067 Y35.0800 
G01 X-26.8774 Y35.1336 
G01 X-26.7400 Y35.1609 
G01 X-26.6000 Y35.1609 
G01 X-26.4626 Y35.1336 
G01 X-26.3333 Y35.0800 
G01 X-26.2168 Y35.0022 
G01 X-26.1178 Y34.9032 
G01 X-26.0400 Y34.7867 
G01 X-25.9864 Y34.6574 
G01 X-25.9591 Y34.5200 
G01 X-25.9591 Y34.3800 
G01 X-25.9864 Y34.2426 
G01 X-26.0400 Y34.1133 
G01 X-26.1178 Y33.9968 
G01 X-26.2168 Y33.8978 
G01 X-26.3333 Y33.8200 
G01 X-26.4626 Y33.7664 
G01 X-26.6000 Y33.7391 
G01 X-26.7400 Y33.7391 
G01 X-26.8774 Y33.7664 
G01 X-27.0067 Y33.8200 
G01 X-27.1232 Y33.8978 
G01 X-27.2222 Y33.9968 
G01 X-27.3000 Y34.1133 
G01 X-27.3536 Y34.2426 
G01 X-27.3809 Y34.3800 
G00 Z20.0000 
G00 X-42.7639 Y30.1263 
G01 Z-0.3000 F100.00 
G01 X-42.7639 Y30.8337 F250.00 
G01 X-42.2637 Y31.3339 
G01 X-41.5563 Y31.3339 
G01 X-41.4293 Y31.2069 
G01 X-38.0284 Y31.2069 
G01 X-37.8880 Y31.1790 
G01 X-37.7557 Y31.1242 
G01 X-37.6366 Y31.0446 
G01 X-37.5354 Y30.9434 
G01 X-36.2654 Y29.6734 
G01 X-36.1858 Y29.5543 
G01 X-36.1310 Y29.4220 
G01 X-36.1031 Y29.2816 
G01 X-36.1031 Y25.7011 
G01 X-35.2589 Y24.8569 
G01 X-33.3211 Y24.8569 
G01 X-32.4769 Y25.7011 
G01 X-32.4769 Y26.5816 
G01 X-32.4490 Y26.7220 
G01 X-32.3942 Y26.8543 
G01 X-32.3146 Y26.9734 
G01 X-32.2134 Y27.0746 
G01 X-32.0943 Y27.1542 
G01 X-31.9620 Y27.2090 
G01 X-31.8216 Y27.2369 
G01 X-31.6784 Y27.2369 
G01 X-31.5380 Y27.2090 
G01 X-31.4057 Y27.1542 
G01 X-31.2866 Y27.0746 
G01 X-31.1854 Y26.9734 
G01 X-31.1058 Y26.8543 
G01 X-31.0510 Y26.7220 
G01 X-31.0231 Y26.5816 
G01 X-31.0231 Y25.3284 
G01 X-31.0510 Y25.1880 
G01 X-31.1058 Y25.0557 
G01 X-31.1854 Y24.9366 
G01 X-32.4554 Y23.6666 
G01 X-32.5566 Y23.5654 
G01 X-32.6757 Y23.4858 
G01 X-32.8080 Y23.4310 
G01 X-32.9484 Y23.4031 
G01 X-35.6316 Y23.4031 
G01 X-35.7720 Y23.4310 
G01 X-35.9043 Y23.4858 
G01 X-36.0234 Y23.5654 
G01 X-37.2934 Y24.8354 
G01 X-37.3946 Y24.9366 
G01 X-37.4742 Y25.0557 
G01 X-37.5290 Y25.1880 
G01 X-37.5569 Y25.3284 
G01 X-37.5569 Y28.9089 
G01 X-38.4011 Y29.7531 
G01 X-41.4293 Y29.7531 
G01 X-41.5563 Y29.6261 
G01 X-42.2637 Y29.6261 
G01 X-42.7639 Y30.1263 
G00 Z20.0000 
G00 X-9.0521 Y26.4758 
G01 Z-0.3000 F100.00 
G01 X-9.0521 Y26.2271 F250.00 
G01 X-8.9698 Y26.1138 
G01 X-8.8725 Y25.9228 
G01 X-8.8062 Y25.7189 
G01 X-8.7727 Y25.5072 
G01 X-8.7727 Y25.2928 
G01 X-8.8062 Y25.0811 
G01 X-8.8725 Y24.8772 
G01 X-8.9698 Y24.6862 
G01 X-9.0521 Y24.5729 
G01 X-9.0521 Y24.3242 
G01 X-9.0788 Y24.1559 
G01 X-9.1314 Y23.9939 
G01 X-9.2088 Y23.8420 
G01 X-9.3089 Y23.7042 
G01 X-9.4294 Y23.5837 
G01 X-9.5672 Y23.4836 
G01 X-9.7191 Y23.4062 
G01 X-9.8811 Y23.3536 
G01 X-10.0494 Y23.3269 
G01 X-10.2198 Y23.3269 
G01 X-10.3881 Y23.3536 
G01 X-10.5501 Y23.4062 
G01 X-10.7020 Y23.4836 
G01 X-10.8398 Y23.5837 
G01 X-10.9603 Y23.7042 
G01 X-11.0604 Y23.8420 
G01 X-11.1378 Y23.9939 
G01 X-11.1522 Y24.0381 
G01 X-14.2478 Y24.0381 
G01 X-14.2622 Y23.9939 
G01 X-14.3396 Y23.8420 
G01 X-14.4397 Y23.7042 
G01 X-14.5602 Y23.5837 
G01 X-14.6980 Y23.4836 
G01 X-14.8499 Y23.4062 
G01 X-15.0119 Y23.3536 
G01 X-15.1802 Y23.3269 
G01 X-15.3506 Y23.3269 
G01 X-15.5189 Y23.3536 
G01 X-15.6809 Y23.4062 
G01 X-15.8328 Y23.4836 
G01 X-15.9706 Y23.5837 
G01 X-16.0911 Y23.7042 
G01 X-16.1912 Y23.8420 
G01 X-16.2686 Y23.9939 
G01 X-16.3212 Y24.1559 
G01 X-16.3479 Y24.3242 
G01 X-16.3479 Y24.5729 
G01 X-16.4302 Y24.6862 
G01 X-16.5275 Y24.8772 
G01 X-16.5938 Y25.0811 
G01 X-16.6273 Y25.2928 
G01 X-16.6273 Y25.5072 
G01 X-16.5938 Y25.7189 
G01 X-16.5275 Y25.9228 
G01 X-16.4302 Y26.1138 
G01 X-16.3479 Y26.2271 
G01 X-16.3479 Y26.4758 
G01 X-16.3212 Y26.6441 
G01 X-16.2686 Y26.8061 
G01 X-16.1912 Y26.9580 
G01 X-16.0911 Y27.0958 
G01 X-15.9706 Y27.2163 
G01 X-15.8328 Y27.3164 
G01 X-15.6809 Y27.3938 
G01 X-15.5189 Y27.4464 
G01 X-15.3506 Y27.4731 
G01 X-15.1802 Y27.4731 
G01 X-15.0119 Y27.4464 
G01 X-14.8499 Y27.3938 
G01 X-14.6980 Y27.3164 
G01 X-14.5602 Y27.2163 
G01 X-14.4397 Y27.0958 
G01 X-14.3396 Y26.9580 
G01 X-14.2622 Y26.8061 
G01 X-14.2478 Y26.7619 
G01 X-11.1522 Y26.7619 
G01 X-11.1378 Y26.8061 
G01 X-11.0604 Y26.9580 
G01 X-10.9603 Y27.0958 
G01 X-10.8398 Y27.2163 
G01 X-10.7020 Y27.3164 
G01 X-10.5501 Y27.3938 
G01 X-10.3881 Y27.4464 
G01 X-10.2198 Y27.4731 
G01 X-10.0494 Y27.4731 
G01 X-9.8811 Y27.4464 
G01 X-9.7191 Y27.3938 
G01 X-9.5672 Y27.3164 
G01 X-9.4294 Y27.2163 
G01 X-9.3089 Y27.0958 
G01 X-9.2088 Y26.9580 
G01 X-9.1314 Y26.8061 
G01 X-9.0788 Y26.6441 
G01 X-9.0521 Y26.4758 
G00 Z20.0000 
G00 X-16.3479 Y34.4842 
G01 Z-0.3000 F100.00 
G01 X-16.3479 Y34.7329 F250.00 
G01 X-16.4302 Y34.8462 
G01 X-16.5275 Y35.0372 
G01 X-16.5938 Y35.2411 
G01 X-16.6273 Y35.4528 
G01 X-16.6273 Y35.6672 
G01 X-16.5938 Y35.8789 
G01 X-16.5275 Y36.0828 
G01 X-16.4302 Y36.2738 
G01 X-16.3479 Y36.3871 
G01 X-16.3479 Y36.6358 
G01 X-16.3212 Y36.8041 
G01 X-16.2686 Y36.9661 
G01 X-16.1912 Y37.1180 
G01 X-16.0911 Y37.2558 
G01 X-15.9706 Y37.3763 
G01 X-15.8328 Y37.4764 
G01 X-15.6809 Y37.5538 
G01 X-15.5189 Y37.6064 
G01 X-15.3506 Y37.6331 
G01 X-15.1802 Y37.6331 
G01 X-15.0119 Y37.6064 
G01 X-14.8499 Y37.5538 
G01 X-14.6980 Y37.4764 
G01 X-14.5602 Y37.3763 
G01 X-14.4397 Y37.2558 
G01 X-14.3396 Y37.1180 
G01 X-14.2622 Y36.9661 
G01 X-14.2478 Y36.9219 
G01 X-11.1522 Y36.9219 
G01 X-11.1378 Y36.9661 
G01 X-11.0604 Y37.1180 
G01 X-10.9603 Y37.2558 
G01 X-10.8398 Y37.3763 
G01 X-10.7020 Y37.4764 
G01 X-10.5501 Y37.5538 
G01 X-10.3881 Y37.6064 
G01 X-10.2198 Y37.6331 
G01 X-10.0494 Y37.6331 
G01 X-9.8811 Y37.6064 
G01 X-9.7191 Y37.5538 
G01 X-9.5672 Y37.4764 
G01 X-9.4294 Y37.3763 
G01 X-9.3089 Y37.2558 
G01 X-9.2088 Y37.1180 
G01 X-9.1314 Y36.9661 
G01 X-9.0788 Y36.8041 
G01 X-9.0521 Y36.6358 
G01 X-9.0521 Y36.3871 
G01 X-8.9698 Y36.2738 
G01 X-8.8725 Y36.0828 
G01 X-8.8062 Y35.8789 
G01 X-8.7727 Y35.6672 
G01 X-8.7727 Y35.4528 
G01 X-8.8062 Y35.2411 
G01 X-8.8725 Y35.0372 
G01 X-8.9698 Y34.8462 
G01 X-9.0521 Y34.7329 
G01 X-9.0521 Y34.4842 
G01 X-9.0788 Y34.3159 
G01 X-9.1314 Y34.1539 
G01 X-9.2088 Y34.0020 
G01 X-9.3089 Y33.8642 
G01 X-9.4294 Y33.7437 
G01 X-9.5672 Y33.6436 
G01 X-9.7191 Y33.5662 
G01 X-9.8811 Y33.5136 
G01 X-10.0494 Y33.4869 
G01 X-10.2198 Y33.4869 
G01 X-10.3881 Y33.5136 
G01 X-10.5501 Y33.5662 
G01 X-10.7020 Y33.6436 
G01 X-10.8398 Y33.7437 
G01 X-10.9603 Y33.8642 
G01 X-11.0604 Y34.0020 
G01 X-11.1378 Y34.1539 
G01 X-11.1522 Y34.1981 
G01 X-14.2478 Y34.1981 
G01 X-14.2622 Y34.1539 
G01 X-14.3396 Y34.0020 
G01 X-14.4397 Y33.8642 
G01 X-14.5602 Y33.7437 
G01 X-14.6980 Y33.6436 
G01 X-14.8499 Y33.5662 
G01 X-15.0119 Y33.5136 
G01 X-15.1802 Y33.4869 
G01 X-15.3506 Y33.4869 
G01 X-15.5189 Y33.5136 
G01 X-15.6809 Y33.5662 
G01 X-15.8328 Y33.6436 
G01 X-15.9706 Y33.7437 
G01 X-16.0911 Y33.8642 
G01 X-16.1912 Y34.0020 
G01 X-16.2686 Y34.1539 
G01 X-16.3212 Y34.3159 
G01 X-16.3479 Y34.4842 
G00 Z20.0000 
G00 X-60.6969 Y49.8667 
G01 Z-0.3000 F100.00 
G01 X-60.6969 Y51.7333 F250.00 
G01 X-60.6829 Y51.7671 
G01 X-60.6571 Y51.7929 
G01 X-60.6233 Y51.8069 
G01 X-58.7567 Y51.8069 
G01 X-58.7229 Y51.7929 
G01 X-58.6971 Y51.7671 
G01 X-58.6831 Y51.7333 
G01 X-58.6831 Y51.5269 
G01 X-38.0284 Y51.5269 
G01 X-37.8880 Y51.4990 
G01 X-37.7557 Y51.4442 
G01 X-37.6366 Y51.3646 
G01 X-37.5354 Y51.2634 
G01 X-35.2203 Y48.9483 
G01 X-35.1972 Y48.9387 
G01 X-35.0718 Y48.8549 
G01 X-34.9651 Y48.7482 
G01 X-34.8813 Y48.6228 
G01 X-34.8717 Y48.5997 
G01 X-32.6803 Y46.4083 
G01 X-32.6572 Y46.3987 
G01 X-32.5318 Y46.3149 
G01 X-32.4251 Y46.2082 
G01 X-32.3413 Y46.0828 
G01 X-32.2835 Y45.9434 
G01 X-32.2541 Y45.7954 
G01 X-32.2541 Y45.6446 
G01 X-32.2835 Y45.4966 
G01 X-32.3413 Y45.3572 
G01 X-32.4251 Y45.2318 
G01 X-32.5318 Y45.1251 
G01 X-32.6572 Y45.0413 
G01 X-32.7966 Y44.9835 
G01 X-32.9446 Y44.9541 
G01 X-33.0954 Y44.9541 
G01 X-33.2434 Y44.9835 
G01 X-33.3828 Y45.0413 
G01 X-33.5082 Y45.1251 
G01 X-33.6149 Y45.2318 
G01 X-33.6987 Y45.3572 
G01 X-33.7083 Y45.3803 
G01 X-35.8997 Y47.5717 
G01 X-35.9228 Y47.5813 
G01 X-36.0482 Y47.6651 
G01 X-36.1549 Y47.7718 
G01 X-36.2387 Y47.8972 
G01 X-36.2483 Y47.9203 
G01 X-38.4011 Y50.0731 
G01 X-58.6831 Y50.0731 
G01 X-58.6831 Y49.8667 
G01 X-58.6971 Y49.8329 
G01 X-58.7229 Y49.8071 
G01 X-58.7567 Y49.7931 
G01 X-60.6233 Y49.7931 
G01 X-60.6571 Y49.8071 
G01 X-60.6829 Y49.8329 
G01 X-60.6969 Y49.8667 
G00 Z20.0000 
G00 X-49.4919 Y45.1680 
G01 Z-0.3000 F100.00 
G01 X-49.4919 Y45.5120 F250.00 
G01 X-49.4534 Y45.8537 
G01 X-49.3769 Y46.1890 
G01 X-49.2633 Y46.5136 
G01 X-49.1141 Y46.8234 
G01 X-48.9311 Y47.1146 
G01 X-48.7167 Y47.3835 
G01 X-48.4735 Y47.6267 
G01 X-48.2046 Y47.8411 
G01 X-47.9134 Y48.0241 
G01 X-47.6036 Y48.1733 
G01 X-47.2790 Y48.2869 
G01 X-46.9437 Y48.3634 
G01 X-46.6020 Y48.4019 
G01 X-46.2580 Y48.4019 
G01 X-45.9163 Y48.3634 
G01 X-45.5810 Y48.2869 
G01 X-45.2564 Y48.1733 
G01 X-44.9466 Y48.0241 
G01 X-44.6554 Y47.8411 
G01 X-44.3865 Y47.6267 
G01 X-44.1433 Y47.3835 
G01 X-43.9289 Y47.1146 
G01 X-43.7459 Y46.8234 
G01 X-43.5967 Y46.5136 
G01 X-43.4831 Y46.1890 
G01 X-43.4066 Y45.8537 
G01 X-43.3681 Y45.5120 
G01 X-43.3681 Y45.1680 
G01 X-43.4066 Y44.8263 
G01 X-43.4831 Y44.4910 
G01 X-43.5967 Y44.1664 
G01 X-43.7459 Y43.8566 
G01 X-43.9289 Y43.5654 
G01 X-44.1433 Y43.2965 
G01 X-44.3865 Y43.0533 
G01 X-44.6554 Y42.8389 
G01 X-44.9466 Y42.6559 
G01 X-45.2564 Y42.5067 
G01 X-45.5810 Y42.3931 
G01 X-45.9163 Y42.3166 
G01 X-46.2580 Y42.2781 
G01 X-46.6020 Y42.2781 
G01 X-46.9437 Y42.3166 
G01 X-47.2790 Y42.3931 
G01 X-47.6036 Y42.5067 
G01 X-47.9134 Y42.6559 
G01 X-48.2046 Y42.8389 
G01 X-48.4735 Y43.0533 
G01 X-48.7167 Y43.2965 
G01 X-48.9311 Y43.5654 
G01 X-49.1141 Y43.8566 
G01 X-49.2633 Y44.1664 
G01 X-49.3769 Y44.4910 
G01 X-49.4534 Y44.8263 
G01 X-49.4919 Y45.1680 
G00 Z20.0000 
G00 X-49.4919 Y15.9580 
G01 Z-0.3000 F100.00 
G01 X-49.4919 Y16.3020 F250.00 
G01 X-49.4534 Y16.6437 
G01 X-49.3769 Y16.9790 
G01 X-49.2633 Y17.3036 
G01 X-49.1141 Y17.6134 
G01 X-48.9311 Y17.9046 
G01 X-48.7167 Y18.1735 
G01 X-48.4735 Y18.4167 
G01 X-48.2046 Y18.6311 
G01 X-47.9134 Y18.8141 
G01 X-47.6036 Y18.9633 
G01 X-47.2790 Y19.0769 
G01 X-46.9437 Y19.1534 
G01 X-46.6020 Y19.1919 
G01 X-46.2580 Y19.1919 
G01 X-45.9163 Y19.1534 
G01 X-45.5810 Y19.0769 
G01 X-45.2564 Y18.9633 
G01 X-44.9466 Y18.8141 
G01 X-44.6554 Y18.6311 
G01 X-44.3865 Y18.4167 
G01 X-44.1433 Y18.1735 
G01 X-43.9289 Y17.9046 
G01 X-43.7459 Y17.6134 
G01 X-43.5967 Y17.3036 
G01 X-43.4831 Y16.9790 
G01 X-43.4066 Y16.6437 
G01 X-43.3681 Y16.3020 
G01 X-43.3681 Y15.9580 
G01 X-43.4066 Y15.6163 
G01 X-43.4831 Y15.2810 
G01 X-43.5967 Y14.9564 
G01 X-43.7459 Y14.6466 
G01 X-43.9289 Y14.3554 
G01 X-44.1433 Y14.0865 
G01 X-44.3865 Y13.8433 
G01 X-44.6554 Y13.6289 
G01 X-44.9466 Y13.4459 
G01 X-45.2564 Y13.2967 
G01 X-45.5810 Y13.1831 
G01 X-45.9163 Y13.1066 
G01 X-46.2580 Y13.0681 
G01 X-46.6020 Y13.0681 
G01 X-46.9437 Y13.1066 
G01 X-47.2790 Y13.1831 
G01 X-47.6036 Y13.2967 
G01 X-47.9134 Y13.4459 
G01 X-48.2046 Y13.6289 
G01 X-48.4735 Y13.8433 
G01 X-48.7167 Y14.0865 
G01 X-48.9311 Y14.3554 
G01 X-49.1141 Y14.6466 
G01 X-49.2633 Y14.9564 
G01 X-49.3769 Y15.2810 
G01 X-49.4534 Y15.6163 
G01 X-49.4919 Y15.9580 
G00 Z20.0000 
G00 X-35.1972 Y19.7287 
G01 Z-0.3000 F100.00 
G01 X-35.0718 Y19.6449 F250.00 
G01 X-34.9651 Y19.5382 
G01 X-34.8813 Y19.4128 
G01 X-34.8235 Y19.2734 
G01 X-34.7941 Y19.1254 
G01 X-34.7941 Y18.9746 
G01 X-34.8235 Y18.8266 
G01 X-34.8813 Y18.6872 
G01 X-34.9651 Y18.5618 
G01 X-35.0718 Y18.4551 
G01 X-35.1972 Y18.3713 
G01 X-35.3366 Y18.3135 
G01 X-35.4846 Y18.2841 
G01 X-35.6354 Y18.2841 
G01 X-35.7834 Y18.3135 
G01 X-35.9228 Y18.3713 
G01 X-36.0482 Y18.4551 
G01 X-36.1549 Y18.5618 
G01 X-36.2387 Y18.6872 
G01 X-36.2483 Y18.7103 
G01 X-46.1834 Y28.6454 
G01 X-46.2846 Y28.7466 
G01 X-46.3642 Y28.8657 
G01 X-46.4190 Y28.9980 
G01 X-46.4469 Y29.1384 
G01 X-46.4469 Y33.0916 
G01 X-46.4190 Y33.2320 
G01 X-46.3642 Y33.3643 
G01 X-46.2846 Y33.4834 
G01 X-46.1834 Y33.5846 
G01 X-36.2483 Y43.5197 
G01 X-36.2387 Y43.5428 
G01 X-36.1549 Y43.6682 
G01 X-36.0482 Y43.7749 
G01 X-35.9228 Y43.8587 
G01 X-35.7834 Y43.9165 
G01 X-35.6354 Y43.9459 
G01 X-35.4846 Y43.9459 
G01 X-35.3366 Y43.9165 
G01 X-35.3135 Y43.9069 
G01 X-34.0584 Y43.9069 
G01 X-33.9180 Y43.8790 
G01 X-33.7857 Y43.8242 
G01 X-33.6666 Y43.7446 
G01 X-31.1854 Y41.2634 
G01 X-31.1058 Y41.1443 
G01 X-31.0510 Y41.0120 
G01 X-31.0231 Y40.8716 
G01 X-31.0231 Y34.3784 
G01 X-31.0510 Y34.2380 
G01 X-31.1058 Y34.1057 
G01 X-31.1854 Y33.9866 
G01 X-31.2866 Y33.8854 
G01 X-31.4057 Y33.8058 
G01 X-31.5380 Y33.7510 
G01 X-31.6784 Y33.7231 
G01 X-31.8216 Y33.7231 
G01 X-31.9620 Y33.7510 
G01 X-32.0943 Y33.8058 
G01 X-32.2134 Y33.8854 
G01 X-32.3146 Y33.9866 
G01 X-32.3942 Y34.1057 
G01 X-32.4490 Y34.2380 
G01 X-32.4769 Y34.3784 
G01 X-32.4769 Y40.4989 
G01 X-34.4311 Y42.4531 
G01 X-35.2589 Y42.4531 
G01 X-44.9931 Y32.7189 
G01 X-44.9931 Y29.5111 
G01 X-35.2203 Y19.7383 
G01 X-35.1972 Y19.7287 
G00 Z20.0000 
G00 X-37.7372 Y17.1887 
G01 Z-0.3000 F100.00 
G01 X-37.6118 Y17.1049 F250.00 
G01 X-37.5051 Y16.9982 
G01 X-37.4213 Y16.8728 
G01 X-37.4117 Y16.8497 
G01 X-35.2203 Y14.6583 
G01 X-35.1972 Y14.6487 
G01 X-35.0718 Y14.5649 
G01 X-34.9651 Y14.4582 
G01 X-34.8813 Y14.3328 
G01 X-34.8235 Y14.1934 
G01 X-34.7941 Y14.0454 
G01 X-34.7941 Y13.8946 
G01 X-34.8235 Y13.7466 
G01 X-34.8813 Y13.6072 
G01 X-34.9651 Y13.4818 
G01 X-35.0718 Y13.3751 
G01 X-35.1972 Y13.2913 
G01 X-35.3366 Y13.2335 
G01 X-35.4846 Y13.2041 
G01 X-35.6354 Y13.2041 
G01 X-35.7834 Y13.2335 
G01 X-35.9228 Y13.2913 
G01 X-36.0482 Y13.3751 
G01 X-36.1549 Y13.4818 
G01 X-36.2387 Y13.6072 
G01 X-36.2483 Y13.6303 
G01 X-38.4397 Y15.8217 
G01 X-38.4628 Y15.8313 
G01 X-38.5882 Y15.9151 
G01 X-38.6949 Y16.0218 
G01 X-38.7787 Y16.1472 
G01 X-38.7883 Y16.1703 
G01 X-43.4811 Y20.8631 
G01 X-58.6831 Y20.8631 
G01 X-58.6831 Y20.6567 
G01 X-58.6971 Y20.6229 
G01 X-58.7229 Y20.5971 
G01 X-58.7567 Y20.5831 
G01 X-60.6233 Y20.5831 
G01 X-60.6571 Y20.5971 
G01 X-60.6829 Y20.6229 
G01 X-60.6969 Y20.6567 
G01 X-60.6969 Y22.5233 
G01 X-60.6829 Y22.5571 
G01 X-60.6571 Y22.5829 
G01 X-60.6233 Y22.5969 
G01 X-58.7567 Y22.5969 
G01 X-58.7229 Y22.5829 
G01 X-58.6971 Y22.5571 
G01 X-58.6831 Y22.5233 
G01 X-58.6831 Y22.3169 
G01 X-43.1084 Y22.3169 
G01 X-42.9680 Y22.2890 
G01 X-42.8357 Y22.2342 
G01 X-42.7166 Y22.1546 
G01 X-42.6154 Y22.0534 
G01 X-37.7603 Y17.1983 
G01 X-37.7372 Y17.1887 
G00 Z20.0000 
G00 X-18.9441 Y51.9417 
G01 Z-0.3000 F100.00 
G01 X-18.8750 Y51.7747 F250.00 
G01 X-18.8397 Y51.5975 
G01 X-18.8397 Y51.4167 
G01 X-18.8750 Y51.2395 
G01 X-18.9441 Y51.0726 
G01 X-19.0445 Y50.9223 
G01 X-19.1723 Y50.7945 
G01 X-19.3226 Y50.6941 
G01 X-19.4895 Y50.6250 
G01 X-19.6667 Y50.5897 
G01 X-19.8475 Y50.5897 
G01 X-20.0247 Y50.6250 
G01 X-20.1917 Y50.6941 
G01 X-20.2126 Y50.7081 
G01 X-20.4272 Y50.7081 
G01 X-20.6389 Y50.7416 
G01 X-20.8428 Y50.8079 
G01 X-21.0338 Y50.9052 
G01 X-21.2072 Y51.0312 
G01 X-27.2341 Y57.0581 
G01 X-74.3659 Y57.0581 
G01 X-82.4581 Y48.9659 
G01 X-82.4581 Y41.2041 
G01 X-77.4159 Y36.1619 
G01 X-65.3341 Y36.1619 
G01 X-60.5772 Y40.9188 
G01 X-60.4038 Y41.0448 
G01 X-60.2128 Y41.1421 
G01 X-60.0089 Y41.2084 
G01 X-59.7972 Y41.2419 
G01 X-59.5828 Y41.2419 
G01 X-59.3711 Y41.2084 
G01 X-59.1672 Y41.1421 
G01 X-58.9762 Y41.0448 
G01 X-58.8028 Y40.9188 
G01 X-58.6512 Y40.7672 
G01 X-58.5252 Y40.5938 
G01 X-58.4279 Y40.4028 
G01 X-58.3616 Y40.1989 
G01 X-58.3281 Y39.9872 
G01 X-58.3281 Y39.7728 
G01 X-58.3616 Y39.5611 
G01 X-58.4279 Y39.3572 
G01 X-58.5252 Y39.1662 
G01 X-58.6512 Y38.9928 
G01 X-63.4081 Y34.2359 
G01 X-63.4081 Y16.3141 
G01 X-59.1259 Y12.0319 
G01 X-34.3441 Y12.0319 
G01 X-30.5719 Y15.8041 
G01 X-30.5719 Y26.6172 
G01 X-30.5384 Y26.8289 
G01 X-30.4721 Y27.0328 
G01 X-30.3748 Y27.2238 
G01 X-30.2488 Y27.3972 
G01 X-30.0972 Y27.5488 
G01 X-29.9238 Y27.6748 
G01 X-29.7328 Y27.7721 
G01 X-29.5289 Y27.8384 
G01 X-29.3172 Y27.8719 
G01 X-29.1028 Y27.8719 
G01 X-28.8911 Y27.8384 
G01 X-28.6872 Y27.7721 
G01 X-28.4962 Y27.6748 
G01 X-28.3228 Y27.5488 
G01 X-28.1712 Y27.3972 
G01 X-28.0452 Y27.2238 
G01 X-27.9479 Y27.0328 
G01 X-27.8816 Y26.8289 
G01 X-27.8481 Y26.6172 
G01 X-27.8481 Y15.1328 
G01 X-27.8816 Y14.9211 
G01 X-27.9479 Y14.7172 
G01 X-28.0452 Y14.5262 
G01 X-28.1712 Y14.3528 
G01 X-32.8928 Y9.6312 
G01 X-33.0662 Y9.5052 
G01 X-33.2572 Y9.4079 
G01 X-33.4611 Y9.3416 
G01 X-33.6728 Y9.3081 
G01 X-59.7972 Y9.3081 
G01 X-60.0089 Y9.3416 
G01 X-60.2128 Y9.4079 
G01 X-60.4038 Y9.5052 
G01 X-60.5772 Y9.6312 
G01 X-60.7288 Y9.7828 
G01 X-65.6572 Y14.7112 
G01 X-65.8088 Y14.8628 
G01 X-65.9348 Y15.0362 
G01 X-66.0321 Y15.2272 
G01 X-66.0984 Y15.4311 
G01 X-66.1319 Y15.6428 
G01 X-66.1319 Y33.4381 
G01 X-78.0872 Y33.4381 
G01 X-78.2989 Y33.4716 
G01 X-78.5028 Y33.5379 
G01 X-78.6938 Y33.6352 
G01 X-78.8672 Y33.7612 
G01 X-79.0188 Y33.9128 
G01 X-84.8588 Y39.7528 
G01 X-84.9848 Y39.9262 
G01 X-85.0821 Y40.1172 
G01 X-85.1484 Y40.3211 
G01 X-85.1819 Y40.5328 
G01 X-85.1819 Y49.6372 
G01 X-85.1484 Y49.8489 
G01 X-85.0821 Y50.0528 
G01 X-84.9848 Y50.2438 
G01 X-84.8588 Y50.4172 
G01 X-84.7072 Y50.5688 
G01 X-75.9688 Y59.3072 
G01 X-75.8172 Y59.4588 
G01 X-75.6438 Y59.5848 
G01 X-75.4528 Y59.6821 
G01 X-75.2489 Y59.7484 
G01 X-75.0372 Y59.7819 
G01 X-26.5628 Y59.7819 
G01 X-26.3511 Y59.7484 
G01 X-26.1472 Y59.6821 
G01 X-25.9562 Y59.5848 
G01 X-25.7828 Y59.4588 
G01 X-19.2812 Y52.9572 
G01 X-19.1552 Y52.7838 
G01 X-19.0579 Y52.5928 
G01 X-18.9916 Y52.3889 
G01 X-18.9581 Y52.1772 
G01 X-18.9581 Y51.9628 
G01 X-18.9441 Y51.9417 
G00 Z20.0000 
G00 Z40.0000 
M05
M02
