(.../Documents/EAGLE/ulps/pcb-gcode.ulp)
(Copyright 2005 - 2012 by John Johnson)
(See readme.txt for licensing terms.)
(This file generated from the board:)
(.../Downloads/controle_moteur_fat_bjt.brd)
(Current profile is .../EAGLE/ulps/profiles/generic.pp  )
(This file generated 28/11/2019 19:00)
(Settings from pcb-machine.h)
(  Tool Size)
(0.1330 )
(Z Axis Settings)
(  High     Up        Down     Drill)
(40.0000 	20.0000 	-0.3000 	-1.7000 )
(spindle on time = 3.0000)
(milling depth = -0.2540)
(text depth = -0.1270)
(tool change at 0.0000 0.0000 50.0000 )
(feed rate xy = F250.00 )
(feed rate z  = F100.00 )
(Settings from pcb-defaults.h)
(isolate min = 0.0254)
(isolate max = 0.5080)
(isolate step = 0.1270)
(Generated bottom outlines, bottom drill, )
(Unit of measure: mm)
( Tool|       Size       |  Min Sub |  Max Sub |   Count )
( T01  3.960mm 0.1559in 0.0000in 0.0000in )
( T02  0.730mm 0.0287in 0.0000in 0.0000in )
( T03  0.800mm 0.0315in 0.0000in 0.0000in )
( T04  0.840mm 0.0331in 0.0000in 0.0000in )
( T05  1.016mm 0.0400in 0.0000in 0.0000in )
( T06  1.220mm 0.0480in 0.0000in 0.0000in )
( T07  1.321mm 0.0520in 0.0000in 0.0000in )
(Metric Mode)
G21
(Absolute Coordinates)
G90
M05
G00 Z50.0000 
G00 X0.0000 Y0.0000 
M06 T01  ; 3.9600 
G01 Z0.0000 F100.00 
M06 T01  ; 3.9600 
G00 Z20.0000 
M03
G04 P3.000000
G00 Z20.000000
G00 X-46.4300 Y45.3400 
G01 Z-1.7000 F100.00 
G01 Z20.000000
(R20.0000  P0.500000)
(G00 Z20.000000)
G00 X-46.4300 Y16.1300 
G01 Z-1.700000
G01 Z20.000000
(G00 Z20.000000)
G00 X-76.5900 Y45.3400 
G01 Z-1.700000
G01 Z20.000000
(G00 Z20.000000)
G00 X-76.5900 Y16.1300 
G01 Z-1.700000
G01 Z20.000000
M05
G00 Z50.0000 
M06 T02  ; 0.7300 
G01 Z0.0000 F100.00 
M06 T02  ; 0.7300 
G00 Z20.0000 
M03
G04 P3.000000
G00 Z20.000000
G00 X-31.7500 Y34.4500 
G01 Z-1.7000 F100.00 
G01 Z20.000000
(R20.0000  P0.500000)
(G00 Z20.000000)
G00 X-31.7500 Y26.5100 
G01 Z-1.700000
G01 Z20.000000
(G00 Z20.000000)
G00 X-34.2900 Y34.4500 
G01 Z-1.700000
G01 Z20.000000
(G00 Z20.000000)
G00 X-34.2900 Y26.5100 
G01 Z-1.700000
G01 Z20.000000
(G00 Z20.000000)
G00 X-26.6700 Y34.4500 
G01 Z-1.700000
G01 Z20.000000
(G00 Z20.000000)
G00 X-26.6700 Y26.5100 
G01 Z-1.700000
G01 Z20.000000
(G00 Z20.000000)
G00 X-29.2100 Y34.4500 
G01 Z-1.700000
G01 Z20.000000
(G00 Z20.000000)
G00 X-29.2100 Y26.5100 
G01 Z-1.700000
G01 Z20.000000
M05
G00 Z50.0000 
M06 T03  ; 0.8000 
G01 Z0.0000 F100.00 
M06 T03  ; 0.8000 
G00 Z20.0000 
M03
G04 P3.000000
G00 Z20.000000
G00 X-18.3429 Y50.0929 
G01 Z-1.7000 F100.00 
G01 Z20.000000
(R20.0000  P0.500000)
(G00 Z20.000000)
G00 X-19.7571 Y51.5071 
G01 Z-1.700000
G01 Z20.000000
M05
G00 Z50.0000 
M06 T04  ; 0.8400 
G01 Z0.0000 F100.00 
M06 T04  ; 0.8400 
G00 Z20.0000 
M03
G04 P3.000000
G00 Z20.000000
G00 X-33.0200 Y45.7200 
G01 Z-1.7000 F100.00 
G01 Z20.000000
(R20.0000  P0.500000)
(G00 Z20.000000)
G00 X-35.5600 Y43.1800 
G01 Z-1.700000
G01 Z20.000000
(G00 Z20.000000)
G00 X-35.5600 Y48.2600 
G01 Z-1.700000
G01 Z20.000000
(G00 Z20.000000)
G00 X-35.5600 Y13.9700 
G01 Z-1.700000
G01 Z20.000000
(G00 Z20.000000)
G00 X-35.5600 Y19.0500 
G01 Z-1.700000
G01 Z20.000000
(G00 Z20.000000)
G00 X-38.1000 Y16.5100 
G01 Z-1.700000
G01 Z20.000000
M05
G00 Z50.0000 
M06 T05  ; 1.0160 
G01 Z0.0000 F100.00 
M06 T05  ; 1.0160 
G00 Z20.0000 
M03
G04 P3.000000
G00 Z20.000000
G00 X-41.9100 Y30.4800 
G01 Z-1.7000 F100.00 
G01 Z20.000000
(R20.0000  P0.500000)
(G00 Z20.000000)
G00 X-17.7800 Y11.4300 
G01 Z-1.700000
G01 Z20.000000
M05
G00 Z50.0000 
M06 T06  ; 1.2200 
G01 Z0.0000 F100.00 
M06 T06  ; 1.2200 
G00 Z20.0000 
M03
G04 P3.000000
G00 Z20.000000
G00 X-59.6900 Y39.8800 
G01 Z-1.7000 F100.00 
G01 Z20.000000
(R20.0000  P0.500000)
(G00 Z20.000000)
G00 X-59.6900 Y50.8000 
G01 Z-1.700000
G01 Z20.000000
(G00 Z20.000000)
G00 X-59.6900 Y10.6700 
G01 Z-1.700000
G01 Z20.000000
(G00 Z20.000000)
G00 X-59.6900 Y21.5900 
G01 Z-1.700000
G01 Z20.000000
M05
G00 Z50.0000 
M06 T07  ; 1.3208 
G01 Z0.0000 F100.00 
M06 T07  ; 1.3208 
G00 Z20.0000 
M03
G04 P3.000000
G00 Z20.000000
G00 X-5.1054 Y35.5600 
G01 Z-1.7000 F100.00 
G01 Z20.000000
(R20.0000  P0.500000)
(G00 Z20.000000)
G00 X-5.1054 Y25.4000 
G01 Z-1.700000
G01 Z20.000000
(G00 Z20.000000)
G00 X-10.1346 Y35.5600 
G01 Z-1.700000
G01 Z20.000000
(G00 Z20.000000)
G00 X-10.1346 Y25.4000 
G01 Z-1.700000
G01 Z20.000000
(G00 Z20.000000)
G00 X-15.2654 Y35.5600 
G01 Z-1.700000
G01 Z20.000000
(G00 Z20.000000)
G00 X-15.2654 Y25.4000 
G01 Z-1.700000
G01 Z20.000000
(G00 Z20.000000)
G00 X-20.2946 Y35.5600 
G01 Z-1.700000
G01 Z20.000000
(G00 Z20.000000)
G00 X-20.2946 Y25.4000 
G01 Z-1.700000
G01 Z20.000000
T01 
G00 Z40.0000 
M05
M02
