(.../Documents/EAGLE/ulps/pcb-gcode.ulp)
(Copyright 2005 - 2012 by John Johnson)
(See readme.txt for licensing terms.)
(This file generated from the board:)
(.../Downloads/controle_moteur_fat_bjt.brd)
(Current profile is .../EAGLE/ulps/profiles/generic.pp  )
(This file generated 28/11/2019 20:00)
(Settings from pcb-machine.h)
(  Tool Size)
(0.0500 )
(Z Axis Settings)
(  High     Up        Down     Drill)
(40.0000 	5.0000 	-0.3000 	-1.7000 )
(spindle on time = 3.0000)
(milling depth = -1.7000)
(text depth = -0.1270)
(tool change at 0.0000 0.0000 50.0000 )
(feed rate xy = F250.00 )
(feed rate z  = F100.00 )
(Settings from pcb-defaults.h)
(isolate min = 0.0254)
(isolate max = 0.5080)
(isolate step = 0.1270)
(Generated bottom outlines, bottom drill, )
(Unit of measure: mm)
(Metric Mode)
G21
(Absolute Coordinates)
G90
G00 X0.0000 Y0.0000 
M03
G04 P3.000000
G00 Z5.0000 
G00 X21.5900 Y60.9600 
G01 Z-1.7000 F100.00 
G01 X1.2700 Y40.6400 F250.00 
G01 X1.2700 Y20.3200 
G01 X20.3200 Y1.2700 
G01 X86.3600 Y1.2700 
G01 X86.3600 Y60.9600 
G01 X21.5900 Y60.9600 
G00 Z40.0000 
M05
M02
