(.../Documents/EAGLE/ulps/pcb-gcode.ulp)
(Copyright 2005 - 2012 by John Johnson)
(See readme.txt for licensing terms.)
(This file generated from the board:)
(.../Downloads/controle_moteur_fat_bjt.brd)
(Current profile is .../EAGLE/ulps/profiles/generic.pp  )
(This file generated 28/11/2019 20:00)
(Settings from pcb-machine.h)
(  Tool Size)
(0.0500 )
(Z Axis Settings)
(  High     Up        Down     Drill)
(40.0000 	5.0000 	-0.3000 	-1.7000 )
(spindle on time = 3.0000)
(milling depth = -1.7000)
(text depth = -0.1270)
(tool change at 0.0000 0.0000 50.0000 )
(feed rate xy = F250.00 )
(feed rate z  = F100.00 )
(Settings from pcb-defaults.h)
(isolate min = 0.0254)
(isolate max = 0.5080)
(isolate step = 0.1270)
(Generated bottom outlines, bottom drill, )
(Unit of measure: mm)
(Metric Mode)
G21
(Absolute Coordinates)
G90
G00 X0.0000 Y0.0000 
M03
G04 P3.000000
G00 Z5.0000 
G00 X-16.7729 Y10.5698 
G01 Z-0.3000 F100.00 
G01 X-16.9198 Y10.4229 F250.00 
G01 X-17.0880 Y10.3007 
G01 X-17.2731 Y10.2063 
G01 X-17.4708 Y10.1421 
G01 X-17.6761 Y10.1096 
G01 X-17.8839 Y10.1096 
G01 X-18.0892 Y10.1421 
G01 X-18.2869 Y10.2063 
G01 X-18.4720 Y10.3007 
G01 X-18.6402 Y10.4229 
G01 X-18.7871 Y10.5698 
G01 X-18.9093 Y10.7380 
G01 X-19.0037 Y10.9231 
G01 X-19.0679 Y11.1208 
G01 X-19.1004 Y11.3261 
G01 X-19.1004 Y11.5593 
G01 X-19.0679 Y11.7646 
G01 X-19.0037 Y11.9623 
G01 X-18.9093 Y12.1474 
G01 X-18.7871 Y12.3156 
G01 X-18.6402 Y12.4625 
G01 X-6.4258 Y24.6769 
G01 X-6.4258 Y36.3085 
G01 X-18.7871 Y48.6698 
G01 X-18.9093 Y48.8380 
G01 X-19.0037 Y49.0231 
G01 X-19.0679 Y49.2208 
G01 X-19.1004 Y49.4261 
G01 X-19.1004 Y49.6339 
G01 X-19.0983 Y49.6469 
G01 X-19.1191 Y49.6780 
G01 X-19.1851 Y49.8374 
G01 X-19.2188 Y50.0066 
G01 X-19.2188 Y50.1792 
G01 X-19.1851 Y50.3484 
G01 X-19.1191 Y50.5078 
G01 X-19.0232 Y50.6512 
G01 X-18.9012 Y50.7732 
G01 X-18.7578 Y50.8691 
G01 X-18.5984 Y50.9351 
G01 X-18.4292 Y50.9688 
G01 X-18.2566 Y50.9688 
G01 X-18.0874 Y50.9351 
G01 X-17.9280 Y50.8691 
G01 X-17.8969 Y50.8483 
G01 X-17.8839 Y50.8504 
G01 X-17.6761 Y50.8504 
G01 X-17.4708 Y50.8179 
G01 X-17.2731 Y50.7537 
G01 X-17.0880 Y50.6593 
G01 X-16.9198 Y50.5371 
G01 X-4.0983 Y37.7156 
G01 X-3.9761 Y37.5474 
G01 X-3.8817 Y37.3623 
G01 X-3.8175 Y37.1646 
G01 X-3.7850 Y36.9593 
G01 X-3.7850 Y24.0261 
G01 X-3.8175 Y23.8208 
G01 X-3.8817 Y23.6231 
G01 X-3.9761 Y23.4380 
G01 X-4.0983 Y23.2698 
G01 X-4.2452 Y23.1229 
G01 X-16.7054 Y10.6627 
G01 X-16.7729 Y10.5698 
G00 Z5.0000 
G00 X-34.9754 Y26.4425 
G01 Z-0.3000 F100.00 
G01 X-34.9754 Y27.8475 F250.00 
G01 X-34.9491 Y27.9799 
G01 X-34.8974 Y28.1047 
G01 X-34.8224 Y28.2169 
G01 X-33.3924 Y29.6469 
G01 X-33.2969 Y29.7424 
G01 X-33.1847 Y29.8174 
G01 X-33.0599 Y29.8691 
G01 X-32.9275 Y29.8954 
G01 X-21.4971 Y29.8954 
G01 X-21.3647 Y29.8691 
G01 X-21.2399 Y29.8174 
G01 X-21.1277 Y29.7424 
G01 X-21.0322 Y29.6469 
G01 X-19.8577 Y28.4724 
G01 X-19.7622 Y28.3769 
G01 X-19.6872 Y28.2647 
G01 X-19.6355 Y28.1399 
G01 X-19.6092 Y28.0075 
G01 X-19.6092 Y27.1774 
G01 X-19.5006 Y27.0688 
G01 X-19.4043 Y26.9362 
G01 X-19.3299 Y26.7902 
G01 X-19.2792 Y26.6344 
G01 X-19.2536 Y26.4725 
G01 X-19.2536 Y26.2136 
G01 X-19.1653 Y26.0920 
G01 X-19.0709 Y25.9069 
G01 X-19.0067 Y25.7092 
G01 X-18.9742 Y25.5039 
G01 X-18.9742 Y22.7561 
G01 X-19.0067 Y22.5508 
G01 X-19.0709 Y22.3531 
G01 X-19.1653 Y22.1680 
G01 X-19.2875 Y21.9998 
G01 X-24.0796 Y17.2077 
G01 X-24.0796 Y13.8661 
G01 X-24.1121 Y13.6608 
G01 X-24.1763 Y13.4631 
G01 X-24.2707 Y13.2780 
G01 X-24.3929 Y13.1098 
G01 X-32.1598 Y5.3429 
G01 X-32.3280 Y5.2207 
G01 X-32.5131 Y5.1263 
G01 X-32.7108 Y5.0621 
G01 X-32.9161 Y5.0296 
G01 X-66.9139 Y5.0296 
G01 X-67.1192 Y5.0621 
G01 X-67.3169 Y5.1263 
G01 X-67.5020 Y5.2207 
G01 X-67.6702 Y5.3429 
G01 X-75.6028 Y13.2755 
G01 X-75.7525 Y13.2231 
G01 X-76.0833 Y13.1476 
G01 X-76.4204 Y13.1096 
G01 X-76.7596 Y13.1096 
G01 X-77.0967 Y13.1476 
G01 X-77.4275 Y13.2231 
G01 X-77.7477 Y13.3351 
G01 X-78.0533 Y13.4823 
G01 X-78.3406 Y13.6628 
G01 X-78.6058 Y13.8743 
G01 X-78.8457 Y14.1142 
G01 X-79.0572 Y14.3794 
G01 X-79.2377 Y14.6667 
G01 X-79.3849 Y14.9723 
G01 X-79.4969 Y15.2925 
G01 X-79.5724 Y15.6233 
G01 X-79.6104 Y15.9604 
G01 X-79.6104 Y16.2996 
G01 X-79.5724 Y16.6367 
G01 X-79.4969 Y16.9675 
G01 X-79.3849 Y17.2877 
G01 X-79.2377 Y17.5933 
G01 X-79.0572 Y17.8806 
G01 X-78.8457 Y18.1458 
G01 X-78.6058 Y18.3857 
G01 X-78.3406 Y18.5972 
G01 X-78.0533 Y18.7777 
G01 X-77.7477 Y18.9249 
G01 X-77.4275 Y19.0369 
G01 X-77.0967 Y19.1124 
G01 X-76.7596 Y19.1504 
G01 X-76.4204 Y19.1504 
G01 X-76.0833 Y19.1124 
G01 X-75.7525 Y19.0369 
G01 X-75.4323 Y18.9249 
G01 X-75.1267 Y18.7777 
G01 X-74.8394 Y18.5972 
G01 X-74.5742 Y18.3857 
G01 X-74.3343 Y18.1458 
G01 X-74.1228 Y17.8806 
G01 X-73.9423 Y17.5933 
G01 X-73.7951 Y17.2877 
G01 X-73.6831 Y16.9675 
G01 X-73.6076 Y16.6367 
G01 X-73.5696 Y16.2996 
G01 X-73.5696 Y15.9604 
G01 X-73.6076 Y15.6233 
G01 X-73.6831 Y15.2925 
G01 X-73.7355 Y15.1428 
G01 X-66.2631 Y7.6704 
G01 X-33.5669 Y7.6704 
G01 X-26.7204 Y14.5169 
G01 X-26.7204 Y17.8585 
G01 X-26.6879 Y18.0638 
G01 X-26.6237 Y18.2615 
G01 X-26.5293 Y18.4466 
G01 X-26.4071 Y18.6148 
G01 X-26.2602 Y18.7617 
G01 X-21.6150 Y23.4069 
G01 X-21.6150 Y25.5039 
G01 X-21.5825 Y25.7092 
G01 X-21.5183 Y25.9069 
G01 X-21.4239 Y26.0920 
G01 X-21.3356 Y26.2136 
G01 X-21.3356 Y26.4725 
G01 X-21.3100 Y26.6344 
G01 X-21.2593 Y26.7902 
G01 X-21.1849 Y26.9362 
G01 X-21.0886 Y27.0688 
G01 X-20.9800 Y27.1774 
G01 X-20.9800 Y27.6561 
G01 X-21.8485 Y28.5246 
G01 X-32.5761 Y28.5246 
G01 X-33.6046 Y27.4961 
G01 X-33.6046 Y26.4425 
G01 X-33.6309 Y26.3101 
G01 X-33.6826 Y26.1853 
G01 X-33.7576 Y26.0731 
G01 X-33.8531 Y25.9776 
G01 X-33.9653 Y25.9026 
G01 X-34.0901 Y25.8509 
G01 X-34.2225 Y25.8246 
G01 X-34.3575 Y25.8246 
G01 X-34.4899 Y25.8509 
G01 X-34.6147 Y25.9026 
G01 X-34.7269 Y25.9776 
G01 X-34.8224 Y26.0731 
G01 X-34.8974 Y26.1853 
G01 X-34.9491 Y26.3101 
G01 X-34.9754 Y26.4425 
G00 Z5.0000 
G00 X-28.5246 Y34.3825 
G01 Z-0.3000 F100.00 
G01 X-28.5509 Y34.2501 F250.00 
G01 X-28.6026 Y34.1253 
G01 X-28.6776 Y34.0131 
G01 X-28.7731 Y33.9176 
G01 X-28.8853 Y33.8426 
G01 X-29.0101 Y33.7909 
G01 X-29.1425 Y33.7646 
G01 X-29.2775 Y33.7646 
G01 X-29.4099 Y33.7909 
G01 X-29.5347 Y33.8426 
G01 X-29.6469 Y33.9176 
G01 X-29.7424 Y34.0131 
G01 X-29.8174 Y34.1253 
G01 X-29.8691 Y34.2501 
G01 X-29.8954 Y34.3825 
G01 X-29.8954 Y37.0575 
G01 X-29.8691 Y37.1899 
G01 X-29.8174 Y37.3147 
G01 X-29.7424 Y37.4269 
G01 X-25.6410 Y41.5283 
G01 X-37.4023 Y53.2896 
G01 X-66.7731 Y53.2896 
G01 X-73.7355 Y46.3272 
G01 X-73.6831 Y46.1775 
G01 X-73.6076 Y45.8467 
G01 X-73.5696 Y45.5096 
G01 X-73.5696 Y45.1704 
G01 X-73.6076 Y44.8333 
G01 X-73.6831 Y44.5025 
G01 X-73.7951 Y44.1823 
G01 X-73.9423 Y43.8767 
G01 X-74.1228 Y43.5894 
G01 X-74.3343 Y43.3242 
G01 X-74.5742 Y43.0843 
G01 X-74.8394 Y42.8728 
G01 X-75.1267 Y42.6923 
G01 X-75.4323 Y42.5451 
G01 X-75.7525 Y42.4331 
G01 X-76.0833 Y42.3576 
G01 X-76.4204 Y42.3196 
G01 X-76.7596 Y42.3196 
G01 X-77.0967 Y42.3576 
G01 X-77.4275 Y42.4331 
G01 X-77.7477 Y42.5451 
G01 X-78.0533 Y42.6923 
G01 X-78.3406 Y42.8728 
G01 X-78.6058 Y43.0843 
G01 X-78.8457 Y43.3242 
G01 X-79.0572 Y43.5894 
G01 X-79.2377 Y43.8767 
G01 X-79.3849 Y44.1823 
G01 X-79.4969 Y44.5025 
G01 X-79.5724 Y44.8333 
G01 X-79.6104 Y45.1704 
G01 X-79.6104 Y45.5096 
G01 X-79.5724 Y45.8467 
G01 X-79.4969 Y46.1775 
G01 X-79.3849 Y46.4977 
G01 X-79.2377 Y46.8033 
G01 X-79.0572 Y47.0906 
G01 X-78.8457 Y47.3558 
G01 X-78.6058 Y47.5957 
G01 X-78.3406 Y47.8072 
G01 X-78.0533 Y47.9877 
G01 X-77.7477 Y48.1349 
G01 X-77.4275 Y48.2469 
G01 X-77.0967 Y48.3224 
G01 X-76.7596 Y48.3604 
G01 X-76.4204 Y48.3604 
G01 X-76.0833 Y48.3224 
G01 X-75.7525 Y48.2469 
G01 X-75.6028 Y48.1945 
G01 X-68.1802 Y55.6171 
G01 X-68.0120 Y55.7393 
G01 X-67.8269 Y55.8337 
G01 X-67.6292 Y55.8979 
G01 X-67.4239 Y55.9304 
G01 X-36.7515 Y55.9304 
G01 X-36.5462 Y55.8979 
G01 X-36.3485 Y55.8337 
G01 X-36.1634 Y55.7393 
G01 X-35.9952 Y55.6171 
G01 X-23.4478 Y43.0697 
G01 X-23.4380 Y43.0647 
G01 X-23.2698 Y42.9425 
G01 X-19.4344 Y39.1071 
G01 X-19.2875 Y38.9602 
G01 X-19.1653 Y38.7920 
G01 X-19.0709 Y38.6069 
G01 X-19.0067 Y38.4092 
G01 X-18.9742 Y38.2039 
G01 X-18.9742 Y35.4561 
G01 X-19.0067 Y35.2508 
G01 X-19.0709 Y35.0531 
G01 X-19.1653 Y34.8680 
G01 X-19.2536 Y34.7464 
G01 X-19.2536 Y34.4875 
G01 X-19.2792 Y34.3256 
G01 X-19.3299 Y34.1698 
G01 X-19.4043 Y34.0238 
G01 X-19.5006 Y33.8912 
G01 X-19.6164 Y33.7754 
G01 X-19.7490 Y33.6791 
G01 X-19.8950 Y33.6047 
G01 X-20.0508 Y33.5540 
G01 X-20.2127 Y33.5284 
G01 X-20.3765 Y33.5284 
G01 X-20.5384 Y33.5540 
G01 X-20.6942 Y33.6047 
G01 X-20.8402 Y33.6791 
G01 X-20.9728 Y33.7754 
G01 X-21.0886 Y33.8912 
G01 X-21.1849 Y34.0238 
G01 X-21.2593 Y34.1698 
G01 X-21.3100 Y34.3256 
G01 X-21.3356 Y34.4875 
G01 X-21.3356 Y34.7464 
G01 X-21.4239 Y34.8680 
G01 X-21.5183 Y35.0531 
G01 X-21.5825 Y35.2508 
G01 X-21.6150 Y35.4561 
G01 X-21.6150 Y37.5531 
G01 X-24.6463 Y40.5844 
G01 X-28.5246 Y36.7061 
G01 X-28.5246 Y34.3825 
G00 Z5.0000 
G00 X-27.3099 Y27.1794 
G01 Z-0.3000 F100.00 
G01 X-26.0301 Y27.1794 F250.00 
G01 X-26.0006 Y27.1499 
G01 X-26.0006 Y25.8701 
G01 X-26.0301 Y25.8406 
G01 X-27.3099 Y25.8406 
G01 X-27.3394 Y25.8701 
G01 X-27.3394 Y27.1499 
G01 X-27.3099 Y27.1794 
G00 Z5.0000 
G00 X-34.9594 Y34.3841 
G01 Z-0.3000 F100.00 
G01 X-34.9594 Y34.5159 F250.00 
G01 X-34.9337 Y34.6453 
G01 X-34.8832 Y34.7671 
G01 X-34.8100 Y34.8767 
G01 X-34.7167 Y34.9700 
G01 X-34.6071 Y35.0432 
G01 X-34.4853 Y35.0937 
G01 X-34.3559 Y35.1194 
G01 X-34.2241 Y35.1194 
G01 X-34.0947 Y35.0937 
G01 X-33.9729 Y35.0432 
G01 X-33.8633 Y34.9700 
G01 X-33.7700 Y34.8767 
G01 X-33.6968 Y34.7671 
G01 X-33.6463 Y34.6453 
G01 X-33.6206 Y34.5159 
G01 X-33.6206 Y34.3841 
G01 X-33.6463 Y34.2547 
G01 X-33.6968 Y34.1329 
G01 X-33.7700 Y34.0233 
G01 X-33.8633 Y33.9300 
G01 X-33.9729 Y33.8568 
G01 X-34.0947 Y33.8063 
G01 X-34.2241 Y33.7806 
G01 X-34.3559 Y33.7806 
G01 X-34.4853 Y33.8063 
G01 X-34.6071 Y33.8568 
G01 X-34.7167 Y33.9300 
G01 X-34.8100 Y34.0233 
G01 X-34.8832 Y34.1329 
G01 X-34.9337 Y34.2547 
G01 X-34.9594 Y34.3841 
G00 Z5.0000 
G00 X-27.3394 Y34.3841 
G01 Z-0.3000 F100.00 
G01 X-27.3394 Y34.5159 F250.00 
G01 X-27.3137 Y34.6453 
G01 X-27.2632 Y34.7671 
G01 X-27.1900 Y34.8767 
G01 X-27.0967 Y34.9700 
G01 X-26.9871 Y35.0432 
G01 X-26.8653 Y35.0937 
G01 X-26.7359 Y35.1194 
G01 X-26.6041 Y35.1194 
G01 X-26.4747 Y35.0937 
G01 X-26.3529 Y35.0432 
G01 X-26.2433 Y34.9700 
G01 X-26.1500 Y34.8767 
G01 X-26.0768 Y34.7671 
G01 X-26.0263 Y34.6453 
G01 X-26.0006 Y34.5159 
G01 X-26.0006 Y34.3841 
G01 X-26.0263 Y34.2547 
G01 X-26.0768 Y34.1329 
G01 X-26.1500 Y34.0233 
G01 X-26.2433 Y33.9300 
G01 X-26.3529 Y33.8568 
G01 X-26.4747 Y33.8063 
G01 X-26.6041 Y33.7806 
G01 X-26.7359 Y33.7806 
G01 X-26.8653 Y33.8063 
G01 X-26.9871 Y33.8568 
G01 X-27.0967 Y33.9300 
G01 X-27.1900 Y34.0233 
G01 X-27.2632 Y34.1329 
G01 X-27.3137 Y34.2547 
G01 X-27.3394 Y34.3841 
G00 Z5.0000 
G00 X-42.7224 Y30.1435 
G01 Z-0.3000 F100.00 
G01 X-42.7224 Y30.8165 F250.00 
G01 X-42.2465 Y31.2924 
G01 X-41.5735 Y31.2924 
G01 X-41.4465 Y31.1654 
G01 X-38.0325 Y31.1654 
G01 X-37.9001 Y31.1391 
G01 X-37.7753 Y31.0874 
G01 X-37.6631 Y31.0124 
G01 X-37.5676 Y30.9169 
G01 X-36.2976 Y29.6469 
G01 X-36.2226 Y29.5347 
G01 X-36.1709 Y29.4099 
G01 X-36.1446 Y29.2775 
G01 X-36.1446 Y25.6839 
G01 X-35.2761 Y24.8154 
G01 X-33.3039 Y24.8154 
G01 X-32.4354 Y25.6839 
G01 X-32.4354 Y26.5775 
G01 X-32.4091 Y26.7099 
G01 X-32.3574 Y26.8347 
G01 X-32.2824 Y26.9469 
G01 X-32.1869 Y27.0424 
G01 X-32.0747 Y27.1174 
G01 X-31.9499 Y27.1691 
G01 X-31.8175 Y27.1954 
G01 X-31.6825 Y27.1954 
G01 X-31.5501 Y27.1691 
G01 X-31.4253 Y27.1174 
G01 X-31.3131 Y27.0424 
G01 X-31.2176 Y26.9469 
G01 X-31.1426 Y26.8347 
G01 X-31.0909 Y26.7099 
G01 X-31.0646 Y26.5775 
G01 X-31.0646 Y25.3325 
G01 X-31.0909 Y25.2001 
G01 X-31.1426 Y25.0753 
G01 X-31.2176 Y24.9631 
G01 X-32.4876 Y23.6931 
G01 X-32.5831 Y23.5976 
G01 X-32.6953 Y23.5226 
G01 X-32.8201 Y23.4709 
G01 X-32.9525 Y23.4446 
G01 X-35.6275 Y23.4446 
G01 X-35.7599 Y23.4709 
G01 X-35.8847 Y23.5226 
G01 X-35.9969 Y23.5976 
G01 X-37.2669 Y24.8676 
G01 X-37.3624 Y24.9631 
G01 X-37.4374 Y25.0753 
G01 X-37.4891 Y25.2001 
G01 X-37.5154 Y25.3325 
G01 X-37.5154 Y28.9261 
G01 X-38.3839 Y29.7946 
G01 X-41.4465 Y29.7946 
G01 X-41.5735 Y29.6676 
G01 X-42.2465 Y29.6676 
G01 X-42.7224 Y30.1435 
G00 Z5.0000 
G00 X-9.0936 Y26.4725 
G01 Z-0.3000 F100.00 
G01 X-9.0936 Y26.2136 F250.00 
G01 X-9.0053 Y26.0920 
G01 X-8.9109 Y25.9069 
G01 X-8.8467 Y25.7092 
G01 X-8.8142 Y25.5039 
G01 X-8.8142 Y25.2961 
G01 X-8.8467 Y25.0908 
G01 X-8.9109 Y24.8931 
G01 X-9.0053 Y24.7080 
G01 X-9.0936 Y24.5864 
G01 X-9.0936 Y24.3275 
G01 X-9.1192 Y24.1656 
G01 X-9.1699 Y24.0098 
G01 X-9.2443 Y23.8638 
G01 X-9.3406 Y23.7312 
G01 X-9.4564 Y23.6154 
G01 X-9.5890 Y23.5191 
G01 X-9.7350 Y23.4447 
G01 X-9.8908 Y23.3940 
G01 X-10.0527 Y23.3684 
G01 X-10.2165 Y23.3684 
G01 X-10.3784 Y23.3940 
G01 X-10.5342 Y23.4447 
G01 X-10.6802 Y23.5191 
G01 X-10.8128 Y23.6154 
G01 X-10.9286 Y23.7312 
G01 X-11.0249 Y23.8638 
G01 X-11.0993 Y24.0098 
G01 X-11.1220 Y24.0796 
G01 X-14.2780 Y24.0796 
G01 X-14.3007 Y24.0098 
G01 X-14.3751 Y23.8638 
G01 X-14.4714 Y23.7312 
G01 X-14.5872 Y23.6154 
G01 X-14.7198 Y23.5191 
G01 X-14.8658 Y23.4447 
G01 X-15.0216 Y23.3940 
G01 X-15.1835 Y23.3684 
G01 X-15.3473 Y23.3684 
G01 X-15.5092 Y23.3940 
G01 X-15.6650 Y23.4447 
G01 X-15.8110 Y23.5191 
G01 X-15.9436 Y23.6154 
G01 X-16.0594 Y23.7312 
G01 X-16.1557 Y23.8638 
G01 X-16.2301 Y24.0098 
G01 X-16.2808 Y24.1656 
G01 X-16.3064 Y24.3275 
G01 X-16.3064 Y24.5864 
G01 X-16.3947 Y24.7080 
G01 X-16.4891 Y24.8931 
G01 X-16.5533 Y25.0908 
G01 X-16.5858 Y25.2961 
G01 X-16.5858 Y25.5039 
G01 X-16.5533 Y25.7092 
G01 X-16.4891 Y25.9069 
G01 X-16.3947 Y26.0920 
G01 X-16.3064 Y26.2136 
G01 X-16.3064 Y26.4725 
G01 X-16.2808 Y26.6344 
G01 X-16.2301 Y26.7902 
G01 X-16.1557 Y26.9362 
G01 X-16.0594 Y27.0688 
G01 X-15.9436 Y27.1846 
G01 X-15.8110 Y27.2809 
G01 X-15.6650 Y27.3553 
G01 X-15.5092 Y27.4060 
G01 X-15.3473 Y27.4316 
G01 X-15.1835 Y27.4316 
G01 X-15.0216 Y27.4060 
G01 X-14.8658 Y27.3553 
G01 X-14.7198 Y27.2809 
G01 X-14.5872 Y27.1846 
G01 X-14.4714 Y27.0688 
G01 X-14.3751 Y26.9362 
G01 X-14.3007 Y26.7902 
G01 X-14.2780 Y26.7204 
G01 X-11.1220 Y26.7204 
G01 X-11.0993 Y26.7902 
G01 X-11.0249 Y26.9362 
G01 X-10.9286 Y27.0688 
G01 X-10.8128 Y27.1846 
G01 X-10.6802 Y27.2809 
G01 X-10.5342 Y27.3553 
G01 X-10.3784 Y27.4060 
G01 X-10.2165 Y27.4316 
G01 X-10.0527 Y27.4316 
G01 X-9.8908 Y27.4060 
G01 X-9.7350 Y27.3553 
G01 X-9.5890 Y27.2809 
G01 X-9.4564 Y27.1846 
G01 X-9.3406 Y27.0688 
G01 X-9.2443 Y26.9362 
G01 X-9.1699 Y26.7902 
G01 X-9.1192 Y26.6344 
G01 X-9.0936 Y26.4725 
G00 Z5.0000 
G00 X-16.3064 Y34.4875 
G01 Z-0.3000 F100.00 
G01 X-16.3064 Y34.7464 F250.00 
G01 X-16.3947 Y34.8680 
G01 X-16.4891 Y35.0531 
G01 X-16.5533 Y35.2508 
G01 X-16.5858 Y35.4561 
G01 X-16.5858 Y35.6639 
G01 X-16.5533 Y35.8692 
G01 X-16.4891 Y36.0669 
G01 X-16.3947 Y36.2520 
G01 X-16.3064 Y36.3736 
G01 X-16.3064 Y36.6325 
G01 X-16.2808 Y36.7944 
G01 X-16.2301 Y36.9502 
G01 X-16.1557 Y37.0962 
G01 X-16.0594 Y37.2288 
G01 X-15.9436 Y37.3446 
G01 X-15.8110 Y37.4409 
G01 X-15.6650 Y37.5153 
G01 X-15.5092 Y37.5660 
G01 X-15.3473 Y37.5916 
G01 X-15.1835 Y37.5916 
G01 X-15.0216 Y37.5660 
G01 X-14.8658 Y37.5153 
G01 X-14.7198 Y37.4409 
G01 X-14.5872 Y37.3446 
G01 X-14.4714 Y37.2288 
G01 X-14.3751 Y37.0962 
G01 X-14.3007 Y36.9502 
G01 X-14.2780 Y36.8804 
G01 X-11.1220 Y36.8804 
G01 X-11.0993 Y36.9502 
G01 X-11.0249 Y37.0962 
G01 X-10.9286 Y37.2288 
G01 X-10.8128 Y37.3446 
G01 X-10.6802 Y37.4409 
G01 X-10.5342 Y37.5153 
G01 X-10.3784 Y37.5660 
G01 X-10.2165 Y37.5916 
G01 X-10.0527 Y37.5916 
G01 X-9.8908 Y37.5660 
G01 X-9.7350 Y37.5153 
G01 X-9.5890 Y37.4409 
G01 X-9.4564 Y37.3446 
G01 X-9.3406 Y37.2288 
G01 X-9.2443 Y37.0962 
G01 X-9.1699 Y36.9502 
G01 X-9.1192 Y36.7944 
G01 X-9.0936 Y36.6325 
G01 X-9.0936 Y36.3736 
G01 X-9.0053 Y36.2520 
G01 X-8.9109 Y36.0669 
G01 X-8.8467 Y35.8692 
G01 X-8.8142 Y35.6639 
G01 X-8.8142 Y35.4561 
G01 X-8.8467 Y35.2508 
G01 X-8.9109 Y35.0531 
G01 X-9.0053 Y34.8680 
G01 X-9.0936 Y34.7464 
G01 X-9.0936 Y34.4875 
G01 X-9.1192 Y34.3256 
G01 X-9.1699 Y34.1698 
G01 X-9.2443 Y34.0238 
G01 X-9.3406 Y33.8912 
G01 X-9.4564 Y33.7754 
G01 X-9.5890 Y33.6791 
G01 X-9.7350 Y33.6047 
G01 X-9.8908 Y33.5540 
G01 X-10.0527 Y33.5284 
G01 X-10.2165 Y33.5284 
G01 X-10.3784 Y33.5540 
G01 X-10.5342 Y33.6047 
G01 X-10.6802 Y33.6791 
G01 X-10.8128 Y33.7754 
G01 X-10.9286 Y33.8912 
G01 X-11.0249 Y34.0238 
G01 X-11.0993 Y34.1698 
G01 X-11.1220 Y34.2396 
G01 X-14.2780 Y34.2396 
G01 X-14.3007 Y34.1698 
G01 X-14.3751 Y34.0238 
G01 X-14.4714 Y33.8912 
G01 X-14.5872 Y33.7754 
G01 X-14.7198 Y33.6791 
G01 X-14.8658 Y33.6047 
G01 X-15.0216 Y33.5540 
G01 X-15.1835 Y33.5284 
G01 X-15.3473 Y33.5284 
G01 X-15.5092 Y33.5540 
G01 X-15.6650 Y33.6047 
G01 X-15.8110 Y33.6791 
G01 X-15.9436 Y33.7754 
G01 X-16.0594 Y33.8912 
G01 X-16.1557 Y34.0238 
G01 X-16.2301 Y34.1698 
G01 X-16.2808 Y34.3256 
G01 X-16.3064 Y34.4875 
G00 Z5.0000 
G00 X-60.6554 Y49.8641 
G01 Z-0.3000 F100.00 
G01 X-60.6554 Y51.7359 F250.00 
G01 X-60.6259 Y51.7654 
G01 X-58.7541 Y51.7654 
G01 X-58.7246 Y51.7359 
G01 X-58.7246 Y51.4854 
G01 X-38.0325 Y51.4854 
G01 X-37.9001 Y51.4591 
G01 X-37.7753 Y51.4074 
G01 X-37.6631 Y51.3324 
G01 X-37.5676 Y51.2369 
G01 X-35.2438 Y48.9131 
G01 X-35.2169 Y48.9020 
G01 X-35.0982 Y48.8227 
G01 X-34.9973 Y48.7218 
G01 X-34.9180 Y48.6031 
G01 X-34.9069 Y48.5762 
G01 X-32.7038 Y46.3731 
G01 X-32.6769 Y46.3620 
G01 X-32.5582 Y46.2827 
G01 X-32.4573 Y46.1818 
G01 X-32.3780 Y46.0631 
G01 X-32.3234 Y45.9313 
G01 X-32.2956 Y45.7913 
G01 X-32.2956 Y45.6487 
G01 X-32.3234 Y45.5087 
G01 X-32.3780 Y45.3769 
G01 X-32.4573 Y45.2582 
G01 X-32.5582 Y45.1573 
G01 X-32.6769 Y45.0780 
G01 X-32.8087 Y45.0234 
G01 X-32.9487 Y44.9956 
G01 X-33.0913 Y44.9956 
G01 X-33.2313 Y45.0234 
G01 X-33.3631 Y45.0780 
G01 X-33.4818 Y45.1573 
G01 X-33.5827 Y45.2582 
G01 X-33.6620 Y45.3769 
G01 X-33.6731 Y45.4038 
G01 X-35.8762 Y47.6069 
G01 X-35.9031 Y47.6180 
G01 X-36.0218 Y47.6973 
G01 X-36.1227 Y47.7982 
G01 X-36.2020 Y47.9169 
G01 X-36.2131 Y47.9438 
G01 X-38.3839 Y50.1146 
G01 X-58.7246 Y50.1146 
G01 X-58.7246 Y49.8641 
G01 X-58.7541 Y49.8346 
G01 X-60.6259 Y49.8346 
G01 X-60.6554 Y49.8641 
G00 Z5.0000 
G00 X-49.4504 Y45.1704 
G01 Z-0.3000 F100.00 
G01 X-49.4504 Y45.5096 F250.00 
G01 X-49.4124 Y45.8467 
G01 X-49.3369 Y46.1775 
G01 X-49.2249 Y46.4977 
G01 X-49.0777 Y46.8033 
G01 X-48.8972 Y47.0906 
G01 X-48.6857 Y47.3558 
G01 X-48.4458 Y47.5957 
G01 X-48.1806 Y47.8072 
G01 X-47.8933 Y47.9877 
G01 X-47.5877 Y48.1349 
G01 X-47.2675 Y48.2469 
G01 X-46.9367 Y48.3224 
G01 X-46.5996 Y48.3604 
G01 X-46.2604 Y48.3604 
G01 X-45.9233 Y48.3224 
G01 X-45.5925 Y48.2469 
G01 X-45.2723 Y48.1349 
G01 X-44.9667 Y47.9877 
G01 X-44.6794 Y47.8072 
G01 X-44.4142 Y47.5957 
G01 X-44.1743 Y47.3558 
G01 X-43.9628 Y47.0906 
G01 X-43.7823 Y46.8033 
G01 X-43.6351 Y46.4977 
G01 X-43.5231 Y46.1775 
G01 X-43.4476 Y45.8467 
G01 X-43.4096 Y45.5096 
G01 X-43.4096 Y45.1704 
G01 X-43.4476 Y44.8333 
G01 X-43.5231 Y44.5025 
G01 X-43.6351 Y44.1823 
G01 X-43.7823 Y43.8767 
G01 X-43.9628 Y43.5894 
G01 X-44.1743 Y43.3242 
G01 X-44.4142 Y43.0843 
G01 X-44.6794 Y42.8728 
G01 X-44.9667 Y42.6923 
G01 X-45.2723 Y42.5451 
G01 X-45.5925 Y42.4331 
G01 X-45.9233 Y42.3576 
G01 X-46.2604 Y42.3196 
G01 X-46.5996 Y42.3196 
G01 X-46.9367 Y42.3576 
G01 X-47.2675 Y42.4331 
G01 X-47.5877 Y42.5451 
G01 X-47.8933 Y42.6923 
G01 X-48.1806 Y42.8728 
G01 X-48.4458 Y43.0843 
G01 X-48.6857 Y43.3242 
G01 X-48.8972 Y43.5894 
G01 X-49.0777 Y43.8767 
G01 X-49.2249 Y44.1823 
G01 X-49.3369 Y44.5025 
G01 X-49.4124 Y44.8333 
G01 X-49.4504 Y45.1704 
G00 Z5.0000 
G00 X-49.4504 Y15.9604 
G01 Z-0.3000 F100.00 
G01 X-49.4504 Y16.2996 F250.00 
G01 X-49.4124 Y16.6367 
G01 X-49.3369 Y16.9675 
G01 X-49.2249 Y17.2877 
G01 X-49.0777 Y17.5933 
G01 X-48.8972 Y17.8806 
G01 X-48.6857 Y18.1458 
G01 X-48.4458 Y18.3857 
G01 X-48.1806 Y18.5972 
G01 X-47.8933 Y18.7777 
G01 X-47.5877 Y18.9249 
G01 X-47.2675 Y19.0369 
G01 X-46.9367 Y19.1124 
G01 X-46.5996 Y19.1504 
G01 X-46.2604 Y19.1504 
G01 X-45.9233 Y19.1124 
G01 X-45.5925 Y19.0369 
G01 X-45.2723 Y18.9249 
G01 X-44.9667 Y18.7777 
G01 X-44.6794 Y18.5972 
G01 X-44.4142 Y18.3857 
G01 X-44.1743 Y18.1458 
G01 X-43.9628 Y17.8806 
G01 X-43.7823 Y17.5933 
G01 X-43.6351 Y17.2877 
G01 X-43.5231 Y16.9675 
G01 X-43.4476 Y16.6367 
G01 X-43.4096 Y16.2996 
G01 X-43.4096 Y15.9604 
G01 X-43.4476 Y15.6233 
G01 X-43.5231 Y15.2925 
G01 X-43.6351 Y14.9723 
G01 X-43.7823 Y14.6667 
G01 X-43.9628 Y14.3794 
G01 X-44.1743 Y14.1142 
G01 X-44.4142 Y13.8743 
G01 X-44.6794 Y13.6628 
G01 X-44.9667 Y13.4823 
G01 X-45.2723 Y13.3351 
G01 X-45.5925 Y13.2231 
G01 X-45.9233 Y13.1476 
G01 X-46.2604 Y13.1096 
G01 X-46.5996 Y13.1096 
G01 X-46.9367 Y13.1476 
G01 X-47.2675 Y13.2231 
G01 X-47.5877 Y13.3351 
G01 X-47.8933 Y13.4823 
G01 X-48.1806 Y13.6628 
G01 X-48.4458 Y13.8743 
G01 X-48.6857 Y14.1142 
G01 X-48.8972 Y14.3794 
G01 X-49.0777 Y14.6667 
G01 X-49.2249 Y14.9723 
G01 X-49.3369 Y15.2925 
G01 X-49.4124 Y15.6233 
G01 X-49.4504 Y15.9604 
G00 Z5.0000 
G00 X-35.2169 Y19.6920 
G01 Z-0.3000 F100.00 
G01 X-35.0982 Y19.6127 F250.00 
G01 X-34.9973 Y19.5118 
G01 X-34.9180 Y19.3931 
G01 X-34.8634 Y19.2613 
G01 X-34.8356 Y19.1213 
G01 X-34.8356 Y18.9787 
G01 X-34.8634 Y18.8387 
G01 X-34.9180 Y18.7069 
G01 X-34.9973 Y18.5882 
G01 X-35.0982 Y18.4873 
G01 X-35.2169 Y18.4080 
G01 X-35.3487 Y18.3534 
G01 X-35.4886 Y18.3256 
G01 X-35.6313 Y18.3256 
G01 X-35.7713 Y18.3534 
G01 X-35.9031 Y18.4080 
G01 X-36.0218 Y18.4873 
G01 X-36.1227 Y18.5882 
G01 X-36.2020 Y18.7069 
G01 X-36.2131 Y18.7338 
G01 X-46.1569 Y28.6776 
G01 X-46.2524 Y28.7731 
G01 X-46.3274 Y28.8853 
G01 X-46.3791 Y29.0101 
G01 X-46.4054 Y29.1425 
G01 X-46.4054 Y33.0875 
G01 X-46.3791 Y33.2199 
G01 X-46.3274 Y33.3447 
G01 X-46.2524 Y33.4569 
G01 X-46.1569 Y33.5524 
G01 X-36.2131 Y43.4962 
G01 X-36.2020 Y43.5231 
G01 X-36.1227 Y43.6418 
G01 X-36.0218 Y43.7427 
G01 X-35.9031 Y43.8220 
G01 X-35.7713 Y43.8766 
G01 X-35.6313 Y43.9044 
G01 X-35.4886 Y43.9044 
G01 X-35.3487 Y43.8766 
G01 X-35.3218 Y43.8654 
G01 X-34.0625 Y43.8654 
G01 X-33.9301 Y43.8391 
G01 X-33.8053 Y43.7874 
G01 X-33.6931 Y43.7124 
G01 X-31.2176 Y41.2369 
G01 X-31.1426 Y41.1247 
G01 X-31.0909 Y40.9999 
G01 X-31.0646 Y40.8675 
G01 X-31.0646 Y34.3825 
G01 X-31.0909 Y34.2501 
G01 X-31.1426 Y34.1253 
G01 X-31.2176 Y34.0131 
G01 X-31.3131 Y33.9176 
G01 X-31.4253 Y33.8426 
G01 X-31.5501 Y33.7909 
G01 X-31.6825 Y33.7646 
G01 X-31.8175 Y33.7646 
G01 X-31.9499 Y33.7909 
G01 X-32.0747 Y33.8426 
G01 X-32.1869 Y33.9176 
G01 X-32.2824 Y34.0131 
G01 X-32.3574 Y34.1253 
G01 X-32.4091 Y34.2501 
G01 X-32.4354 Y34.3825 
G01 X-32.4354 Y40.5161 
G01 X-34.4139 Y42.4946 
G01 X-35.2761 Y42.4946 
G01 X-45.0346 Y32.7361 
G01 X-45.0346 Y29.4939 
G01 X-35.2438 Y19.7031 
G01 X-35.2169 Y19.6920 
G00 Z5.0000 
G00 X-37.7569 Y17.1520 
G01 Z-0.3000 F100.00 
G01 X-37.6382 Y17.0727 F250.00 
G01 X-37.5373 Y16.9718 
G01 X-37.4580 Y16.8531 
G01 X-37.4469 Y16.8262 
G01 X-35.2438 Y14.6231 
G01 X-35.2169 Y14.6120 
G01 X-35.0982 Y14.5327 
G01 X-34.9973 Y14.4318 
G01 X-34.9180 Y14.3131 
G01 X-34.8634 Y14.1813 
G01 X-34.8356 Y14.0413 
G01 X-34.8356 Y13.8986 
G01 X-34.8634 Y13.7587 
G01 X-34.9180 Y13.6269 
G01 X-34.9973 Y13.5082 
G01 X-35.0982 Y13.4073 
G01 X-35.2169 Y13.3280 
G01 X-35.3487 Y13.2734 
G01 X-35.4886 Y13.2456 
G01 X-35.6313 Y13.2456 
G01 X-35.7713 Y13.2734 
G01 X-35.9031 Y13.3280 
G01 X-36.0218 Y13.4073 
G01 X-36.1227 Y13.5082 
G01 X-36.2020 Y13.6269 
G01 X-36.2131 Y13.6538 
G01 X-38.4162 Y15.8569 
G01 X-38.4431 Y15.8680 
G01 X-38.5618 Y15.9473 
G01 X-38.6627 Y16.0482 
G01 X-38.7420 Y16.1669 
G01 X-38.7531 Y16.1938 
G01 X-43.4639 Y20.9046 
G01 X-58.7246 Y20.9046 
G01 X-58.7246 Y20.6541 
G01 X-58.7541 Y20.6246 
G01 X-60.6259 Y20.6246 
G01 X-60.6554 Y20.6541 
G01 X-60.6554 Y22.5259 
G01 X-60.6259 Y22.5554 
G01 X-58.7541 Y22.5554 
G01 X-58.7246 Y22.5259 
G01 X-58.7246 Y22.2754 
G01 X-43.1125 Y22.2754 
G01 X-42.9801 Y22.2491 
G01 X-42.8553 Y22.1974 
G01 X-42.7431 Y22.1224 
G01 X-42.6476 Y22.0269 
G01 X-37.7838 Y17.1631 
G01 X-37.7569 Y17.1520 
G00 Z5.0000 
G00 X-18.9809 Y51.9220 
G01 Z-0.3000 F100.00 
G01 X-18.9149 Y51.7626 F250.00 
G01 X-18.8812 Y51.5934 
G01 X-18.8812 Y51.4208 
G01 X-18.9149 Y51.2516 
G01 X-18.9809 Y51.0922 
G01 X-19.0768 Y50.9488 
G01 X-19.1988 Y50.8268 
G01 X-19.3422 Y50.7309 
G01 X-19.5016 Y50.6649 
G01 X-19.6708 Y50.6312 
G01 X-19.8434 Y50.6312 
G01 X-20.0126 Y50.6649 
G01 X-20.1720 Y50.7309 
G01 X-20.2031 Y50.7517 
G01 X-20.2161 Y50.7496 
G01 X-20.4239 Y50.7496 
G01 X-20.6292 Y50.7821 
G01 X-20.8269 Y50.8463 
G01 X-21.0120 Y50.9407 
G01 X-21.1802 Y51.0629 
G01 X-27.2169 Y57.0996 
G01 X-74.3831 Y57.0996 
G01 X-82.4996 Y48.9831 
G01 X-82.4996 Y41.1869 
G01 X-77.4331 Y36.1204 
G01 X-65.3169 Y36.1204 
G01 X-60.5502 Y40.8871 
G01 X-60.3820 Y41.0093 
G01 X-60.1969 Y41.1037 
G01 X-59.9992 Y41.1679 
G01 X-59.7939 Y41.2004 
G01 X-59.5861 Y41.2004 
G01 X-59.3808 Y41.1679 
G01 X-59.1831 Y41.1037 
G01 X-58.9980 Y41.0093 
G01 X-58.8298 Y40.8871 
G01 X-58.6829 Y40.7402 
G01 X-58.5607 Y40.5720 
G01 X-58.4663 Y40.3869 
G01 X-58.4021 Y40.1892 
G01 X-58.3696 Y39.9839 
G01 X-58.3696 Y39.7761 
G01 X-58.4021 Y39.5708 
G01 X-58.4663 Y39.3731 
G01 X-58.5607 Y39.1880 
G01 X-58.6829 Y39.0198 
G01 X-63.4496 Y34.2531 
G01 X-63.4496 Y16.2969 
G01 X-59.1431 Y11.9904 
G01 X-34.3269 Y11.9904 
G01 X-30.5304 Y15.7869 
G01 X-30.5304 Y26.6139 
G01 X-30.4979 Y26.8192 
G01 X-30.4337 Y27.0169 
G01 X-30.3393 Y27.2020 
G01 X-30.2171 Y27.3702 
G01 X-30.0702 Y27.5171 
G01 X-29.9020 Y27.6393 
G01 X-29.7169 Y27.7337 
G01 X-29.5192 Y27.7979 
G01 X-29.3139 Y27.8304 
G01 X-29.1061 Y27.8304 
G01 X-28.9008 Y27.7979 
G01 X-28.7031 Y27.7337 
G01 X-28.5180 Y27.6393 
G01 X-28.3498 Y27.5171 
G01 X-28.2029 Y27.3702 
G01 X-28.0807 Y27.2020 
G01 X-27.9863 Y27.0169 
G01 X-27.9221 Y26.8192 
G01 X-27.8896 Y26.6139 
G01 X-27.8896 Y15.1361 
G01 X-27.9221 Y14.9308 
G01 X-27.9863 Y14.7331 
G01 X-28.0807 Y14.5480 
G01 X-28.2029 Y14.3798 
G01 X-32.9198 Y9.6629 
G01 X-33.0880 Y9.5407 
G01 X-33.2731 Y9.4463 
G01 X-33.4708 Y9.3821 
G01 X-33.6761 Y9.3496 
G01 X-59.7939 Y9.3496 
G01 X-59.9992 Y9.3821 
G01 X-60.1969 Y9.4463 
G01 X-60.3820 Y9.5407 
G01 X-60.5502 Y9.6629 
G01 X-60.6971 Y9.8098 
G01 X-65.6302 Y14.7429 
G01 X-65.7771 Y14.8898 
G01 X-65.8993 Y15.0580 
G01 X-65.9937 Y15.2431 
G01 X-66.0579 Y15.4408 
G01 X-66.0904 Y15.6461 
G01 X-66.0904 Y33.4796 
G01 X-78.0839 Y33.4796 
G01 X-78.2892 Y33.5121 
G01 X-78.4869 Y33.5763 
G01 X-78.6720 Y33.6707 
G01 X-78.8402 Y33.7929 
G01 X-78.9871 Y33.9398 
G01 X-84.8271 Y39.7798 
G01 X-84.9493 Y39.9480 
G01 X-85.0437 Y40.1331 
G01 X-85.1079 Y40.3308 
G01 X-85.1404 Y40.5361 
G01 X-85.1404 Y49.6339 
G01 X-85.1079 Y49.8392 
G01 X-85.0437 Y50.0369 
G01 X-84.9493 Y50.2220 
G01 X-84.8271 Y50.3902 
G01 X-84.6802 Y50.5371 
G01 X-75.9371 Y59.2802 
G01 X-75.7902 Y59.4271 
G01 X-75.6220 Y59.5493 
G01 X-75.4369 Y59.6437 
G01 X-75.2392 Y59.7079 
G01 X-75.0339 Y59.7404 
G01 X-26.5661 Y59.7404 
G01 X-26.3608 Y59.7079 
G01 X-26.1631 Y59.6437 
G01 X-25.9780 Y59.5493 
G01 X-25.8098 Y59.4271 
G01 X-19.3129 Y52.9302 
G01 X-19.1907 Y52.7620 
G01 X-19.0963 Y52.5769 
G01 X-19.0321 Y52.3792 
G01 X-18.9996 Y52.1739 
G01 X-18.9996 Y51.9661 
G01 X-19.0017 Y51.9531 
G01 X-18.9809 Y51.9220 
G00 Z5.0000 
G00 Z40.0000 
M05
M02
