(.../Documents/EAGLE/ulps/pcb-gcode.ulp)
(Copyright 2005 - 2012 by John Johnson)
(See readme.txt for licensing terms.)
(This file generated from the board:)
(.../Documents/EAGLE/projects/PFE/PID.brd)
(Current profile is .../EAGLE/ulps/profiles/generic.pp  )
(This file generated 12/12/2019 20:18)
(Settings from pcb-machine.h)
(  Tool Size)
(1.9000 )
(Z Axis Settings)
(  High     Up        Down     Drill)
(5.0000 	2.0000 	-0.3000 	-1.9000 )
(spindle on time = 0.0000)
(milling depth = -1.9000)
(text depth = -0.1000)
(tool change at 0.0000 0.0000 5.0000 )
(feed rate xy = F250.00 )
(feed rate z  = F100.00 )
(Settings from pcb-defaults.h)
(isolate min = 0.0000)
(isolate max = 0.5000)
(isolate step = 0.2500)
(Generated top outlines, top drill, bottom outlines, bottom drill, )
(Unit of measure: mm)
(Metric Mode)
G21
(Absolute Coordinates)
G90
G00 X0.0000 Y0.0000 
M03
G04 P0.000000
G00 Z2.0000 
G00 X-2.0000 Y-2.0000 
G01 Z-1.9000 F100.00 
G01 X-60.0000 Y-2.0000 F250.00 
G01 X-66.0000 Y4.0000 
G01 X-66.0000 Y36.0000 
G01 X-60.0000 Y42.0000 
G01 X-2.0000 Y42.0000 
G01 X4.0000 Y36.0000 
G01 X4.0000 Y4.0000 
G01 X-2.0000 Y-2.0000 
G00 Z5.0000 
M05
M02
