(.../Documents/EAGLE/ulps/pcb-gcode.ulp)
(Copyright 2005 - 2012 by John Johnson)
(See readme.txt for licensing terms.)
(This file generated from the board:)
(.../Documents/EAGLE/projects/PFE/PID.brd)
(Current profile is .../EAGLE/ulps/profiles/generic.pp  )
(This file generated 12/12/2019 20:18)
(Settings from pcb-machine.h)
(  Tool Size)
(0.0500 )
(Z Axis Settings)
(  High     Up        Down     Drill)
(5.0000 	2.0000 	-0.3000 	-1.9000 )
(spindle on time = 0.0000)
(milling depth = -1.9000)
(text depth = -0.1000)
(tool change at 0.0000 0.0000 5.0000 )
(feed rate xy = F250.00 )
(feed rate z  = F100.00 )
(Settings from pcb-defaults.h)
(isolate min = 0.0000)
(isolate max = 0.5000)
(isolate step = 0.2500)
(Generated top outlines, top drill, bottom outlines, bottom drill, )
(Unit of measure: mm)
( Tool|       Size       |  Min Sub |  Max Sub |   Count )
( T01  0.350mm 0.0138in 0.0000in 0.0000in )
( T02  0.730mm 0.0287in 0.0000in 0.0000in )
( T03  0.813mm 0.0320in 0.0000in 0.0000in )
( T04  0.840mm 0.0331in 0.0000in 0.0000in )
( T05  1.016mm 0.0400in 0.0000in 0.0000in )
(Metric Mode)
G21
(Absolute Coordinates)
G90
M05
G00 Z5.0000 
G00 X0.0000 Y0.0000 
M06 T01  ; 0.3500 
G01 Z0.0000 F100.00 
M06 T01  ; 0.3500 
G00 Z2.0000 
M03
G04 P0.000000
G00 Z2.000000
G00 X-60.0000 Y36.0000 
G01 Z-1.9000 F100.00 
G01 Z2.000000
(R2.0000  P0.000000)
(G00 Z2.000000)
G00 X-60.0000 Y4.0000 
G01 Z-1.900000
G01 Z2.000000
(G00 Z2.000000)
G00 X-2.0000 Y36.0000 
G01 Z-1.900000
G01 Z2.000000
(G00 Z2.000000)
G00 X-2.0000 Y4.0000 
G01 Z-1.900000
G01 Z2.000000
M05
G00 Z5.0000 
M06 T02  ; 0.7300 
G01 Z0.0000 F100.00 
M06 T02  ; 0.7300 
G00 Z2.0000 
M03
G04 P0.000000
G00 Z2.000000
G00 X-32.8600 Y33.0200 
G01 Z-1.9000 F100.00 
G01 Z2.000000
(R2.0000  P0.000000)
(G00 Z2.000000)
G00 X-32.8600 Y35.5600 
G01 Z-1.900000
G01 Z2.000000
(G00 Z2.000000)
G00 X-32.8600 Y5.0800 
G01 Z-1.900000
G01 Z2.000000
(G00 Z2.000000)
G00 X-32.8600 Y7.6200 
G01 Z-1.900000
G01 Z2.000000
(G00 Z2.000000)
G00 X-32.8600 Y10.1600 
G01 Z-1.900000
G01 Z2.000000
(G00 Z2.000000)
G00 X-32.8600 Y12.7000 
G01 Z-1.900000
G01 Z2.000000
(G00 Z2.000000)
G00 X-32.8600 Y16.5100 
G01 Z-1.900000
G01 Z2.000000
(G00 Z2.000000)
G00 X-32.8600 Y19.0500 
G01 Z-1.900000
G01 Z2.000000
(G00 Z2.000000)
G00 X-32.8600 Y21.5900 
G01 Z-1.900000
G01 Z2.000000
(G00 Z2.000000)
G00 X-32.8600 Y24.1300 
G01 Z-1.900000
G01 Z2.000000
(G00 Z2.000000)
G00 X-32.8600 Y27.9400 
G01 Z-1.900000
G01 Z2.000000
(G00 Z2.000000)
G00 X-32.8600 Y30.4800 
G01 Z-1.900000
G01 Z2.000000
(G00 Z2.000000)
G00 X-3.6500 Y12.7000 
G01 Z-1.900000
G01 Z2.000000
(G00 Z2.000000)
G00 X-3.6500 Y15.2400 
G01 Z-1.900000
G01 Z2.000000
(G00 Z2.000000)
G00 X-3.6500 Y17.7800 
G01 Z-1.900000
G01 Z2.000000
(G00 Z2.000000)
G00 X-3.6500 Y20.3200 
G01 Z-1.900000
G01 Z2.000000
(G00 Z2.000000)
G00 X-40.8000 Y33.0200 
G01 Z-1.900000
G01 Z2.000000
(G00 Z2.000000)
G00 X-40.8000 Y35.5600 
G01 Z-1.900000
G01 Z2.000000
(G00 Z2.000000)
G00 X-40.8000 Y5.0800 
G01 Z-1.900000
G01 Z2.000000
(G00 Z2.000000)
G00 X-40.8000 Y7.6200 
G01 Z-1.900000
G01 Z2.000000
(G00 Z2.000000)
G00 X-40.8000 Y10.1600 
G01 Z-1.900000
G01 Z2.000000
(G00 Z2.000000)
G00 X-40.8000 Y12.7000 
G01 Z-1.900000
G01 Z2.000000
(G00 Z2.000000)
G00 X-40.8000 Y16.5100 
G01 Z-1.900000
G01 Z2.000000
(G00 Z2.000000)
G00 X-40.8000 Y19.0500 
G01 Z-1.900000
G01 Z2.000000
(G00 Z2.000000)
G00 X-40.8000 Y21.5900 
G01 Z-1.900000
G01 Z2.000000
(G00 Z2.000000)
G00 X-40.8000 Y24.1300 
G01 Z-1.900000
G01 Z2.000000
(G00 Z2.000000)
G00 X-40.8000 Y27.9400 
G01 Z-1.900000
G01 Z2.000000
(G00 Z2.000000)
G00 X-40.8000 Y30.4800 
G01 Z-1.900000
G01 Z2.000000
(G00 Z2.000000)
G00 X-53.1800 Y15.2400 
G01 Z-1.900000
G01 Z2.000000
(G00 Z2.000000)
G00 X-53.1800 Y17.7800 
G01 Z-1.900000
G01 Z2.000000
(G00 Z2.000000)
G00 X-53.1800 Y20.3200 
G01 Z-1.900000
G01 Z2.000000
(G00 Z2.000000)
G00 X-53.1800 Y22.8600 
G01 Z-1.900000
G01 Z2.000000
(G00 Z2.000000)
G00 X-61.1200 Y15.2400 
G01 Z-1.900000
G01 Z2.000000
(G00 Z2.000000)
G00 X-61.1200 Y17.7800 
G01 Z-1.900000
G01 Z2.000000
(G00 Z2.000000)
G00 X-61.1200 Y20.3200 
G01 Z-1.900000
G01 Z2.000000
(G00 Z2.000000)
G00 X-61.1200 Y22.8600 
G01 Z-1.900000
G01 Z2.000000
(G00 Z2.000000)
G00 X-11.5900 Y12.7000 
G01 Z-1.900000
G01 Z2.000000
(G00 Z2.000000)
G00 X-11.5900 Y15.2400 
G01 Z-1.900000
G01 Z2.000000
(G00 Z2.000000)
G00 X-11.5900 Y17.7800 
G01 Z-1.900000
G01 Z2.000000
(G00 Z2.000000)
G00 X-11.5900 Y20.3200 
G01 Z-1.900000
G01 Z2.000000
M05
G00 Z5.0000 
M06 T03  ; 0.8128 
G01 Z0.0000 F100.00 
M06 T03  ; 0.8128 
G00 Z2.0000 
M03
G04 P0.000000
G00 Z2.000000
G00 X-3.8100 Y6.3500 
G01 Z-1.9000 F100.00 
G01 Z2.000000
(R2.0000  P0.000000)
(G00 Z2.000000)
G00 X-3.8100 Y8.8900 
G01 Z-1.900000
G01 Z2.000000
(G00 Z2.000000)
G00 X-3.8100 Y24.1300 
G01 Z-1.900000
G01 Z2.000000
(G00 Z2.000000)
G00 X-3.8100 Y26.6700 
G01 Z-1.900000
G01 Z2.000000
(G00 Z2.000000)
G00 X-3.8100 Y29.2100 
G01 Z-1.900000
G01 Z2.000000
(G00 Z2.000000)
G00 X-49.5300 Y34.2900 
G01 Z-1.900000
G01 Z2.000000
(G00 Z2.000000)
G00 X-49.5300 Y6.3500 
G01 Z-1.900000
G01 Z2.000000
(G00 Z2.000000)
G00 X-49.5300 Y13.9700 
G01 Z-1.900000
G01 Z2.000000
(G00 Z2.000000)
G00 X-49.5300 Y16.5100 
G01 Z-1.900000
G01 Z2.000000
(G00 Z2.000000)
G00 X-49.5300 Y24.1300 
G01 Z-1.900000
G01 Z2.000000
(G00 Z2.000000)
G00 X-49.5300 Y26.6700 
G01 Z-1.900000
G01 Z2.000000
(G00 Z2.000000)
G00 X-53.3400 Y10.1600 
G01 Z-1.900000
G01 Z2.000000
(G00 Z2.000000)
G00 X-53.3400 Y26.6700 
G01 Z-1.900000
G01 Z2.000000
(G00 Z2.000000)
G00 X-60.9600 Y10.1600 
G01 Z-1.900000
G01 Z2.000000
(G00 Z2.000000)
G00 X-60.9600 Y26.6700 
G01 Z-1.900000
G01 Z2.000000
(G00 Z2.000000)
G00 X-11.4300 Y6.3500 
G01 Z-1.900000
G01 Z2.000000
(G00 Z2.000000)
G00 X-11.4300 Y8.8900 
G01 Z-1.900000
G01 Z2.000000
(G00 Z2.000000)
G00 X-11.4300 Y24.1300 
G01 Z-1.900000
G01 Z2.000000
(G00 Z2.000000)
G00 X-11.4300 Y26.6700 
G01 Z-1.900000
G01 Z2.000000
(G00 Z2.000000)
G00 X-11.4300 Y29.2100 
G01 Z-1.900000
G01 Z2.000000
(G00 Z2.000000)
G00 X-12.7000 Y33.0200 
G01 Z-1.900000
G01 Z2.000000
(G00 Z2.000000)
G00 X-20.3200 Y33.0200 
G01 Z-1.900000
G01 Z2.000000
(G00 Z2.000000)
G00 X-21.5900 Y30.4800 
G01 Z-1.900000
G01 Z2.000000
(G00 Z2.000000)
G00 X-26.6700 Y5.0800 
G01 Z-1.900000
G01 Z2.000000
(G00 Z2.000000)
G00 X-26.6700 Y7.6200 
G01 Z-1.900000
G01 Z2.000000
(G00 Z2.000000)
G00 X-26.6700 Y11.4300 
G01 Z-1.900000
G01 Z2.000000
(G00 Z2.000000)
G00 X-26.6700 Y13.9700 
G01 Z-1.900000
G01 Z2.000000
(G00 Z2.000000)
G00 X-26.6700 Y17.7800 
G01 Z-1.900000
G01 Z2.000000
(G00 Z2.000000)
G00 X-26.6700 Y20.3200 
G01 Z-1.900000
G01 Z2.000000
(G00 Z2.000000)
G00 X-26.6700 Y24.1300 
G01 Z-1.900000
G01 Z2.000000
(G00 Z2.000000)
G00 X-26.6700 Y26.6700 
G01 Z-1.900000
G01 Z2.000000
(G00 Z2.000000)
G00 X-29.2100 Y30.4800 
G01 Z-1.900000
G01 Z2.000000
M05
G00 Z5.0000 
M06 T04  ; 0.8400 
G01 Z0.0000 F100.00 
M06 T04  ; 0.8400 
G00 Z2.0000 
M03
G04 P0.000000
G00 Z2.000000
G00 X-16.5100 Y8.8900 
G01 Z-1.9000 F100.00 
G01 Z2.000000
(R2.0000  P0.000000)
(G00 Z2.000000)
G00 X-16.5100 Y17.7800 
G01 Z-1.900000
G01 Z2.000000
(G00 Z2.000000)
G00 X-16.5100 Y26.6700 
G01 Z-1.900000
G01 Z2.000000
(G00 Z2.000000)
G00 X-19.0500 Y11.4300 
G01 Z-1.900000
G01 Z2.000000
(G00 Z2.000000)
G00 X-19.0500 Y20.3200 
G01 Z-1.900000
G01 Z2.000000
(G00 Z2.000000)
G00 X-19.0500 Y29.2100 
G01 Z-1.900000
G01 Z2.000000
(G00 Z2.000000)
G00 X-21.5900 Y8.8900 
G01 Z-1.900000
G01 Z2.000000
(G00 Z2.000000)
G00 X-21.5900 Y17.7800 
G01 Z-1.900000
G01 Z2.000000
(G00 Z2.000000)
G00 X-21.5900 Y26.6700 
G01 Z-1.900000
G01 Z2.000000
M05
G00 Z5.0000 
M06 T05  ; 1.0160 
G01 Z0.0000 F100.00 
M06 T05  ; 1.0160 
G00 Z2.0000 
M03
G04 P0.000000
G00 Z2.000000
G00 X-44.4500 Y33.0200 
G01 Z-1.9000 F100.00 
G01 Z2.000000
(R2.0000  P0.000000)
(G00 Z2.000000)
G00 X-44.4500 Y6.3500 
G01 Z-1.900000
G01 Z2.000000
(G00 Z2.000000)
G00 X-44.4500 Y8.8900 
G01 Z-1.900000
G01 Z2.000000
(G00 Z2.000000)
G00 X-44.4500 Y19.0500 
G01 Z-1.900000
G01 Z2.000000
(G00 Z2.000000)
G00 X-44.4500 Y21.5900 
G01 Z-1.900000
G01 Z2.000000
(G00 Z2.000000)
G00 X-44.4500 Y30.4800 
G01 Z-1.900000
G01 Z2.000000
(G00 Z2.000000)
G00 X-53.3400 Y35.5600 
G01 Z-1.900000
G01 Z2.000000
(G00 Z2.000000)
G00 X-55.8800 Y33.0200 
G01 Z-1.900000
G01 Z2.000000
(G00 Z2.000000)
G00 X-55.8800 Y6.3500 
G01 Z-1.900000
G01 Z2.000000
(G00 Z2.000000)
G00 X-58.4200 Y30.4800 
G01 Z-1.900000
G01 Z2.000000
(G00 Z2.000000)
G00 X-6.3500 Y33.0200 
G01 Z-1.900000
G01 Z2.000000
(G00 Z2.000000)
G00 X-8.8900 Y33.0200 
G01 Z-1.900000
G01 Z2.000000
T01 
G00 Z5.0000 
M05
M02
