(.../Documents/EAGLE/ulps/pcb-gcode.ulp)
(Copyright 2005 - 2012 by John Johnson)
(See readme.txt for licensing terms.)
(This file generated from the board:)
(.../Documents/EAGLE/projects/PFE/PID.brd)
(Current profile is .../EAGLE/ulps/profiles/generic.pp  )
(This file generated 12/12/2019 20:18)
(Settings from pcb-machine.h)
(  Tool Size)
(0.0500 )
(Z Axis Settings)
(  High     Up        Down     Drill)
(5.0000 	2.0000 	-0.3000 	-1.9000 )
(spindle on time = 0.0000)
(milling depth = -1.9000)
(text depth = -0.1000)
(tool change at 0.0000 0.0000 5.0000 )
(feed rate xy = F250.00 )
(feed rate z  = F100.00 )
(Settings from pcb-defaults.h)
(isolate min = 0.0000)
(isolate max = 0.5000)
(isolate step = 0.2500)
(Generated top outlines, top drill, bottom outlines, bottom drill, )
(Unit of measure: mm)
(Metric Mode)
G21
(Absolute Coordinates)
G90
G00 X0.0000 Y0.0000 
M03
G04 P0.000000
G00 Z2.0000 
G00 X-41.4600 Y10.0950 
G01 Z-0.3000 F100.00 
G01 X-41.4600 Y10.2650 F250.00 
G01 X-41.4346 Y10.3925 
G01 X-41.3849 Y10.5126 
G01 X-41.3127 Y10.6207 
G01 X-39.6980 Y12.2354 
G01 X-39.6980 Y19.5146 
G01 X-41.3127 Y21.1293 
G01 X-41.3849 Y21.2374 
G01 X-41.4346 Y21.3575 
G01 X-41.4600 Y21.4850 
G01 X-41.4600 Y21.6550 
G01 X-41.4346 Y21.7825 
G01 X-41.3849 Y21.9026 
G01 X-41.3127 Y22.0107 
G01 X-39.6980 Y23.6254 
G01 X-39.6980 Y30.9846 
G01 X-41.3127 Y32.5993 
G01 X-41.3849 Y32.7074 
G01 X-41.4346 Y32.8275 
G01 X-41.4600 Y32.9550 
G01 X-41.4600 Y33.0850 
G01 X-41.4346 Y33.2125 
G01 X-41.3849 Y33.3326 
G01 X-41.3127 Y33.4407 
G01 X-41.2207 Y33.5327 
G01 X-41.1126 Y33.6049 
G01 X-40.9925 Y33.6546 
G01 X-40.8650 Y33.6800 
G01 X-40.7350 Y33.6800 
G01 X-40.6075 Y33.6546 
G01 X-40.4874 Y33.6049 
G01 X-40.3793 Y33.5327 
G01 X-38.6173 Y31.7707 
G01 X-38.5253 Y31.6787 
G01 X-38.4531 Y31.5706 
G01 X-38.4034 Y31.4505 
G01 X-38.3780 Y31.3230 
G01 X-38.3780 Y23.2870 
G01 X-38.4034 Y23.1595 
G01 X-38.4531 Y23.0394 
G01 X-38.5253 Y22.9313 
G01 X-39.8866 Y21.5700 
G01 X-38.6173 Y20.3007 
G01 X-38.5253 Y20.2087 
G01 X-38.4531 Y20.1006 
G01 X-38.4034 Y19.9805 
G01 X-38.3780 Y19.8530 
G01 X-38.3780 Y11.8970 
G01 X-38.4034 Y11.7695 
G01 X-38.4531 Y11.6494 
G01 X-38.5253 Y11.5413 
G01 X-40.2122 Y9.8544 
G01 X-40.2151 Y9.8474 
G01 X-40.2873 Y9.7393 
G01 X-40.3793 Y9.6473 
G01 X-40.4874 Y9.5751 
G01 X-40.6075 Y9.5254 
G01 X-40.7350 Y9.5000 
G01 X-40.8650 Y9.5000 
G01 X-40.9925 Y9.5254 
G01 X-41.1126 Y9.5751 
G01 X-41.2207 Y9.6473 
G01 X-41.3127 Y9.7393 
G01 X-41.3849 Y9.8474 
G01 X-41.4346 Y9.9675 
G01 X-41.4600 Y10.0950 
G00 Z2.0000 
G00 X-32.2000 Y5.0150 
G01 Z-0.3000 F100.00 
G01 X-32.2254 Y4.8875 F250.00 
G01 X-32.2751 Y4.7674 
G01 X-32.3473 Y4.6593 
G01 X-32.4393 Y4.5673 
G01 X-32.5474 Y4.4951 
G01 X-32.6675 Y4.4454 
G01 X-32.7950 Y4.4200 
G01 X-32.9250 Y4.4200 
G01 X-33.0525 Y4.4454 
G01 X-33.1726 Y4.4951 
G01 X-33.2807 Y4.5673 
G01 X-33.3727 Y4.6593 
G01 X-33.4331 Y4.7497 
G01 X-35.0427 Y6.3593 
G01 X-35.1347 Y6.4513 
G01 X-35.2069 Y6.5594 
G01 X-35.2566 Y6.6795 
G01 X-35.2820 Y6.8070 
G01 X-35.2820 Y14.8130 
G01 X-35.2566 Y14.9405 
G01 X-35.2069 Y15.0606 
G01 X-35.1347 Y15.1687 
G01 X-33.3727 Y16.9307 
G01 X-31.7420 Y18.5614 
G01 X-31.7420 Y25.8886 
G01 X-33.3727 Y27.5193 
G01 X-33.4449 Y27.6274 
G01 X-33.4946 Y27.7475 
G01 X-33.5200 Y27.8750 
G01 X-33.5200 Y28.0050 
G01 X-33.4946 Y28.1325 
G01 X-33.4449 Y28.2526 
G01 X-33.3727 Y28.3607 
G01 X-33.2807 Y28.4527 
G01 X-33.1726 Y28.5249 
G01 X-33.0525 Y28.5746 
G01 X-32.9250 Y28.6000 
G01 X-32.7950 Y28.6000 
G01 X-32.6675 Y28.5746 
G01 X-32.5474 Y28.5249 
G01 X-32.4393 Y28.4527 
G01 X-30.5693 Y26.5827 
G01 X-30.4971 Y26.4746 
G01 X-30.4474 Y26.3545 
G01 X-30.4220 Y26.2270 
G01 X-30.4220 Y18.2230 
G01 X-30.4474 Y18.0955 
G01 X-30.4971 Y17.9754 
G01 X-30.5693 Y17.8673 
G01 X-30.6613 Y17.7753 
G01 X-32.4393 Y15.9973 
G01 X-33.9620 Y14.4746 
G01 X-33.9620 Y7.1454 
G01 X-32.3473 Y5.5307 
G01 X-32.2751 Y5.4226 
G01 X-32.2254 Y5.3025 
G01 X-32.2000 Y5.1750 
G01 X-32.2000 Y5.0450 
G01 X-32.2000 Y5.0150 
G00 Z2.0000 
G00 X-53.2090 Y14.5774 
G01 Z-0.3000 F100.00 
G01 X-53.2969 Y14.5900 F250.00 
G01 X-53.3150 Y14.5900 
G01 X-53.3611 Y14.5992 
G01 X-53.4077 Y14.6058 
G01 X-53.4248 Y14.6118 
G01 X-53.4425 Y14.6154 
G01 X-53.4859 Y14.6334 
G01 X-53.5303 Y14.6490 
G01 X-53.5459 Y14.6582 
G01 X-53.5626 Y14.6651 
G01 X-53.6017 Y14.6912 
G01 X-53.6422 Y14.7152 
G01 X-53.6557 Y14.7273 
G01 X-53.6707 Y14.7373 
G01 X-53.7040 Y14.7706 
G01 X-53.7390 Y14.8020 
G01 X-53.7498 Y14.8165 
G01 X-55.6561 Y16.7227 
G01 X-55.7283 Y16.8308 
G01 X-55.7780 Y16.9509 
G01 X-55.8034 Y17.0784 
G01 X-55.8034 Y29.1416 
G01 X-55.7780 Y29.2691 
G01 X-55.7283 Y29.3892 
G01 X-55.6561 Y29.4973 
G01 X-55.5641 Y29.5893 
G01 X-54.0350 Y31.1184 
G01 X-54.0350 Y35.1420 
G01 X-54.1270 Y35.2340 
G01 X-54.1270 Y35.8860 
G01 X-53.6660 Y36.3470 
G01 X-53.0140 Y36.3470 
G01 X-52.5530 Y35.8860 
G01 X-52.5530 Y35.2340 
G01 X-52.7150 Y35.0720 
G01 X-52.7150 Y30.7800 
G01 X-52.7404 Y30.6525 
G01 X-52.7901 Y30.5324 
G01 X-52.8623 Y30.4243 
G01 X-54.4834 Y28.8032 
G01 X-54.4834 Y17.4168 
G01 X-52.9120 Y15.8454 
G01 X-52.8997 Y15.8410 
G01 X-52.7878 Y15.7748 
G01 X-52.6910 Y15.6880 
G01 X-52.6130 Y15.5840 
G01 X-52.5568 Y15.4668 
G01 X-52.5245 Y15.3408 
G01 X-52.5174 Y15.2110 
G01 X-52.5358 Y15.0823 
G01 X-52.5790 Y14.9597 
G01 X-52.6452 Y14.8478 
G01 X-52.7320 Y14.7510 
G01 X-52.8360 Y14.6730 
G01 X-52.9532 Y14.6168 
G01 X-53.0792 Y14.5845 
G01 X-53.2090 Y14.5774 
G00 Z2.0000 
G00 X-32.5474 Y19.6349 
G01 Z-0.3000 F100.00 
G01 X-32.4393 Y19.5627 F250.00 
G01 X-32.3473 Y19.4707 
G01 X-32.2751 Y19.3626 
G01 X-32.2254 Y19.2425 
G01 X-32.2000 Y19.1150 
G01 X-32.2000 Y18.9850 
G01 X-32.2254 Y18.8575 
G01 X-32.2751 Y18.7374 
G01 X-32.3473 Y18.6293 
G01 X-32.4393 Y18.5373 
G01 X-32.5474 Y18.4651 
G01 X-32.6675 Y18.4154 
G01 X-32.7950 Y18.3900 
G01 X-32.9900 Y18.3900 
G01 X-33.1175 Y18.4154 
G01 X-33.2376 Y18.4651 
G01 X-33.3457 Y18.5373 
G01 X-35.1707 Y20.3623 
G01 X-35.2627 Y20.4543 
G01 X-35.3349 Y20.5624 
G01 X-35.3846 Y20.6825 
G01 X-35.4100 Y20.8100 
G01 X-35.4100 Y28.8096 
G01 X-35.3846 Y28.9371 
G01 X-35.3349 Y29.0573 
G01 X-35.2627 Y29.1654 
G01 X-33.6323 Y30.7957 
G01 X-33.5404 Y30.8877 
G01 X-33.4323 Y30.9599 
G01 X-33.3121 Y31.0096 
G01 X-33.2312 Y31.0257 
G01 X-33.1726 Y31.0649 
G01 X-33.0525 Y31.1146 
G01 X-32.9250 Y31.1400 
G01 X-32.7950 Y31.1400 
G01 X-32.6675 Y31.1146 
G01 X-32.5474 Y31.0649 
G01 X-32.4393 Y30.9927 
G01 X-32.3473 Y30.9007 
G01 X-32.2751 Y30.7926 
G01 X-32.2254 Y30.6725 
G01 X-32.2000 Y30.5450 
G01 X-32.2000 Y30.4150 
G01 X-32.2254 Y30.2875 
G01 X-32.2751 Y30.1674 
G01 X-32.3473 Y30.0593 
G01 X-32.4523 Y29.9543 
G01 X-32.5443 Y29.8623 
G01 X-32.6524 Y29.7901 
G01 X-32.7725 Y29.7404 
G01 X-32.8329 Y29.7283 
G01 X-34.0900 Y28.4713 
G01 X-34.0900 Y21.1484 
G01 X-32.5971 Y19.6555 
G01 X-32.5474 Y19.6349 
G00 Z2.0000 
G00 X-22.2754 Y30.1961 
G01 Z-0.3000 F100.00 
G01 X-22.2754 Y30.7639 F250.00 
G01 X-21.8739 Y31.1654 
G01 X-21.3061 Y31.1654 
G01 X-20.9046 Y30.7639 
G01 X-20.9046 Y30.1961 
G01 X-21.3061 Y29.7946 
G01 X-21.8739 Y29.7946 
G01 X-22.2754 Y30.1961 
G00 Z2.0000 
G00 X-45.2895 Y7.1370 
G01 Z-0.3000 F100.00 
G01 X-43.6105 Y7.1370 F250.00 
G01 X-43.4584 Y7.1068 
G01 X-43.3152 Y7.0474 
G01 X-43.1863 Y6.9613 
G01 X-43.0767 Y6.8517 
G01 X-42.9906 Y6.7228 
G01 X-42.9312 Y6.5796 
G01 X-42.9010 Y6.4275 
G01 X-42.9010 Y6.2725 
G01 X-42.9312 Y6.1204 
G01 X-42.9906 Y5.9772 
G01 X-43.0767 Y5.8483 
G01 X-43.1863 Y5.7387 
G01 X-43.3152 Y5.6526 
G01 X-43.4584 Y5.5932 
G01 X-43.6105 Y5.5630 
G01 X-45.2895 Y5.5630 
G01 X-45.4416 Y5.5932 
G01 X-45.5848 Y5.6526 
G01 X-45.7137 Y5.7387 
G01 X-45.8233 Y5.8483 
G01 X-45.9094 Y5.9772 
G01 X-45.9688 Y6.1204 
G01 X-45.9990 Y6.2725 
G01 X-45.9990 Y6.4275 
G01 X-45.9688 Y6.5796 
G01 X-45.9094 Y6.7228 
G01 X-45.8233 Y6.8517 
G01 X-45.7137 Y6.9613 
G01 X-45.5848 Y7.0474 
G01 X-45.4416 Y7.1068 
G01 X-45.2895 Y7.1370 
G00 Z2.0000 
G00 X-45.2895 Y9.6770 
G01 Z-0.3000 F100.00 
G01 X-43.6105 Y9.6770 F250.00 
G01 X-43.4584 Y9.6468 
G01 X-43.3152 Y9.5874 
G01 X-43.1863 Y9.5013 
G01 X-43.0767 Y9.3917 
G01 X-42.9906 Y9.2628 
G01 X-42.9312 Y9.1196 
G01 X-42.9010 Y8.9675 
G01 X-42.9010 Y8.8125 
G01 X-42.9312 Y8.6604 
G01 X-42.9906 Y8.5172 
G01 X-43.0767 Y8.3883 
G01 X-43.1863 Y8.2787 
G01 X-43.3152 Y8.1926 
G01 X-43.4584 Y8.1332 
G01 X-43.6105 Y8.1030 
G01 X-45.2895 Y8.1030 
G01 X-45.4416 Y8.1332 
G01 X-45.5848 Y8.1926 
G01 X-45.7137 Y8.2787 
G01 X-45.8233 Y8.3883 
G01 X-45.9094 Y8.5172 
G01 X-45.9688 Y8.6604 
G01 X-45.9990 Y8.8125 
G01 X-45.9990 Y8.9675 
G01 X-45.9688 Y9.1196 
G01 X-45.9094 Y9.2628 
G01 X-45.8233 Y9.3917 
G01 X-45.7137 Y9.5013 
G01 X-45.5848 Y9.5874 
G01 X-45.4416 Y9.6468 
G01 X-45.2895 Y9.6770 
G00 Z2.0000 
G00 X-45.2895 Y19.8370 
G01 Z-0.3000 F100.00 
G01 X-43.6105 Y19.8370 F250.00 
G01 X-43.4584 Y19.8068 
G01 X-43.3152 Y19.7474 
G01 X-43.1863 Y19.6613 
G01 X-43.0767 Y19.5517 
G01 X-42.9906 Y19.4228 
G01 X-42.9312 Y19.2796 
G01 X-42.9010 Y19.1275 
G01 X-42.9010 Y18.9725 
G01 X-42.9312 Y18.8204 
G01 X-42.9906 Y18.6772 
G01 X-43.0767 Y18.5483 
G01 X-43.1863 Y18.4387 
G01 X-43.3152 Y18.3526 
G01 X-43.4584 Y18.2932 
G01 X-43.6105 Y18.2630 
G01 X-44.3036 Y18.2630 
G01 X-46.4543 Y16.1123 
G01 X-46.5624 Y16.0401 
G01 X-46.6825 Y15.9904 
G01 X-46.8100 Y15.9650 
G01 X-49.1057 Y15.9650 
G01 X-49.2461 Y15.8246 
G01 X-49.8139 Y15.8246 
G01 X-50.2154 Y16.2261 
G01 X-50.2154 Y16.7939 
G01 X-49.8139 Y17.1954 
G01 X-49.7493 Y17.1954 
G01 X-49.7276 Y17.2099 
G01 X-49.6075 Y17.2596 
G01 X-49.4800 Y17.2850 
G01 X-47.1484 Y17.2850 
G01 X-45.8480 Y18.5853 
G01 X-45.9094 Y18.6772 
G01 X-45.9688 Y18.8204 
G01 X-45.9990 Y18.9725 
G01 X-45.9990 Y19.1275 
G01 X-45.9688 Y19.2796 
G01 X-45.9094 Y19.4228 
G01 X-45.8233 Y19.5517 
G01 X-45.7137 Y19.6613 
G01 X-45.5848 Y19.7474 
G01 X-45.4416 Y19.8068 
G01 X-45.2895 Y19.8370 
G00 Z2.0000 
G00 X-45.2895 Y22.3770 
G01 Z-0.3000 F100.00 
G01 X-43.6105 Y22.3770 F250.00 
G01 X-43.4584 Y22.3468 
G01 X-43.3152 Y22.2874 
G01 X-43.1863 Y22.2013 
G01 X-43.0767 Y22.0917 
G01 X-42.9906 Y21.9628 
G01 X-42.9312 Y21.8196 
G01 X-42.9010 Y21.6675 
G01 X-42.9010 Y21.5125 
G01 X-42.9312 Y21.3604 
G01 X-42.9906 Y21.2172 
G01 X-43.0767 Y21.0883 
G01 X-43.1863 Y20.9787 
G01 X-43.3152 Y20.8926 
G01 X-43.4584 Y20.8332 
G01 X-43.6105 Y20.8030 
G01 X-45.2895 Y20.8030 
G01 X-45.4416 Y20.8332 
G01 X-45.5848 Y20.8926 
G01 X-45.7137 Y20.9787 
G01 X-45.8233 Y21.0883 
G01 X-45.9094 Y21.2172 
G01 X-45.9688 Y21.3604 
G01 X-45.9990 Y21.5125 
G01 X-45.9990 Y21.6675 
G01 X-45.9688 Y21.8196 
G01 X-45.9094 Y21.9628 
G01 X-45.8233 Y22.0917 
G01 X-45.7137 Y22.2013 
G01 X-45.5848 Y22.2874 
G01 X-45.4416 Y22.3468 
G01 X-45.2895 Y22.3770 
G00 Z2.0000 
G00 X-45.2895 Y31.2670 
G01 Z-0.3000 F100.00 
G01 X-43.6105 Y31.2670 F250.00 
G01 X-43.4584 Y31.2368 
G01 X-43.3152 Y31.1774 
G01 X-43.1863 Y31.0913 
G01 X-43.0767 Y30.9817 
G01 X-42.9906 Y30.8528 
G01 X-42.9312 Y30.7096 
G01 X-42.9010 Y30.5575 
G01 X-42.9010 Y30.4025 
G01 X-42.9312 Y30.2504 
G01 X-42.9906 Y30.1072 
G01 X-43.0767 Y29.9783 
G01 X-43.1863 Y29.8687 
G01 X-43.3152 Y29.7826 
G01 X-43.4584 Y29.7232 
G01 X-43.6105 Y29.6930 
G01 X-45.2895 Y29.6930 
G01 X-45.4416 Y29.7232 
G01 X-45.5848 Y29.7826 
G01 X-45.6707 Y29.8400 
G01 X-45.8050 Y29.8400 
G01 X-45.9325 Y29.8654 
G01 X-46.0526 Y29.9151 
G01 X-46.1607 Y29.9873 
G01 X-49.7780 Y33.6046 
G01 X-49.8139 Y33.6046 
G01 X-50.2154 Y34.0061 
G01 X-50.2154 Y34.5739 
G01 X-49.8139 Y34.9754 
G01 X-49.2461 Y34.9754 
G01 X-48.8446 Y34.5739 
G01 X-48.8446 Y34.5380 
G01 X-45.5136 Y31.2069 
G01 X-45.4416 Y31.2368 
G01 X-45.2895 Y31.2670 
G00 Z2.0000 
G00 X-56.2060 Y33.8070 
G01 Z-0.3000 F100.00 
G01 X-55.5540 Y33.8070 F250.00 
G01 X-55.0930 Y33.3460 
G01 X-55.0930 Y32.6940 
G01 X-55.5540 Y32.2330 
G01 X-56.2060 Y32.2330 
G01 X-56.3130 Y32.3400 
G01 X-58.3207 Y32.3400 
G01 X-59.6650 Y30.9957 
G01 X-59.6650 Y28.9734 
G01 X-56.6123 Y25.9207 
G01 X-56.5401 Y25.8126 
G01 X-56.4904 Y25.6925 
G01 X-56.4650 Y25.5650 
G01 X-56.4650 Y14.2734 
G01 X-52.8273 Y10.6357 
G01 X-52.7889 Y10.5782 
G01 X-52.6546 Y10.4439 
G01 X-52.6546 Y9.8761 
G01 X-53.0561 Y9.4746 
G01 X-53.6239 Y9.4746 
G01 X-54.0254 Y9.8761 
G01 X-54.0254 Y9.9670 
G01 X-57.6377 Y13.5793 
G01 X-57.7099 Y13.6874 
G01 X-57.7596 Y13.8075 
G01 X-57.7850 Y13.9350 
G01 X-57.7850 Y25.2266 
G01 X-60.7457 Y28.1873 
G01 X-60.8377 Y28.2793 
G01 X-60.9099 Y28.3874 
G01 X-60.9596 Y28.5075 
G01 X-60.9850 Y28.6350 
G01 X-60.9850 Y31.3341 
G01 X-60.9596 Y31.4616 
G01 X-60.9099 Y31.5817 
G01 X-60.8377 Y31.6898 
G01 X-59.0148 Y33.5127 
G01 X-58.9067 Y33.5849 
G01 X-58.7866 Y33.6346 
G01 X-58.6591 Y33.6600 
G01 X-56.3530 Y33.6600 
G01 X-56.2060 Y33.8070 
G00 Z2.0000 
G00 X-59.2070 Y30.1540 
G01 Z-0.3000 F100.00 
G01 X-59.2070 Y30.8060 F250.00 
G01 X-58.7460 Y31.2670 
G01 X-58.0940 Y31.2670 
G01 X-57.6330 Y30.8060 
G01 X-57.6330 Y30.1540 
G01 X-58.0940 Y29.6930 
G01 X-58.7460 Y29.6930 
G01 X-59.2070 Y30.1540 
G00 Z2.0000 
G00 X-61.6454 Y9.8761 
G01 Z-0.3000 F100.00 
G01 X-61.6454 Y10.4439 F250.00 
G01 X-61.2439 Y10.8454 
G01 X-60.6761 Y10.8454 
G01 X-60.2746 Y10.4439 
G01 X-60.2746 Y9.8761 
G01 X-60.6761 Y9.4746 
G01 X-61.2439 Y9.4746 
G01 X-61.6454 Y9.8761 
G00 Z2.0000 
G00 X-61.6454 Y26.3861 
G01 Z-0.3000 F100.00 
G01 X-61.6454 Y26.9539 F250.00 
G01 X-61.2439 Y27.3554 
G01 X-60.6761 Y27.3554 
G01 X-60.2746 Y26.9539 
G01 X-60.2746 Y26.9180 
G01 X-58.7043 Y25.3477 
G01 X-58.6123 Y25.2557 
G01 X-58.5401 Y25.1476 
G01 X-58.4904 Y25.0275 
G01 X-58.4650 Y24.9000 
G01 X-58.4650 Y9.8684 
G01 X-55.7336 Y7.1370 
G01 X-55.5540 Y7.1370 
G01 X-55.0930 Y6.6760 
G01 X-55.0930 Y6.0240 
G01 X-55.5540 Y5.5630 
G01 X-56.2060 Y5.5630 
G01 X-56.6670 Y6.0240 
G01 X-56.6670 Y6.2036 
G01 X-59.5457 Y9.0823 
G01 X-59.6377 Y9.1743 
G01 X-59.7099 Y9.2824 
G01 X-59.7596 Y9.4025 
G01 X-59.7850 Y9.5300 
G01 X-59.7850 Y17.1200 
G01 X-61.1850 Y17.1200 
G01 X-61.3125 Y17.1454 
G01 X-61.4326 Y17.1951 
G01 X-61.5407 Y17.2673 
G01 X-61.6327 Y17.3593 
G01 X-61.7049 Y17.4674 
G01 X-61.7546 Y17.5875 
G01 X-61.7800 Y17.7150 
G01 X-61.7800 Y17.8450 
G01 X-61.7546 Y17.9725 
G01 X-61.7049 Y18.0926 
G01 X-61.6327 Y18.2007 
G01 X-61.5407 Y18.2927 
G01 X-61.4326 Y18.3649 
G01 X-61.3125 Y18.4146 
G01 X-61.1850 Y18.4400 
G01 X-59.7850 Y18.4400 
G01 X-59.7850 Y24.5616 
G01 X-61.2080 Y25.9846 
G01 X-61.2439 Y25.9846 
G01 X-61.6454 Y26.3861 
G00 Z2.0000 
G00 X-61.7640 Y22.7966 
G01 Z-0.3000 F100.00 
G01 X-61.7640 Y22.9234 F250.00 
G01 X-61.7392 Y23.0478 
G01 X-61.6907 Y23.1650 
G01 X-61.6202 Y23.2705 
G01 X-61.5305 Y23.3602 
G01 X-61.4250 Y23.4307 
G01 X-61.3078 Y23.4792 
G01 X-61.1834 Y23.5040 
G01 X-61.0566 Y23.5040 
G01 X-60.9322 Y23.4792 
G01 X-60.8150 Y23.4307 
G01 X-60.7095 Y23.3602 
G01 X-60.6198 Y23.2705 
G01 X-60.5493 Y23.1650 
G01 X-60.5008 Y23.0478 
G01 X-60.4760 Y22.9234 
G01 X-60.4760 Y22.7966 
G01 X-60.5008 Y22.6722 
G01 X-60.5493 Y22.5550 
G01 X-60.6198 Y22.4495 
G01 X-60.7095 Y22.3598 
G01 X-60.8150 Y22.2893 
G01 X-60.9322 Y22.2408 
G01 X-61.0566 Y22.2160 
G01 X-61.1834 Y22.2160 
G01 X-61.3078 Y22.2408 
G01 X-61.4250 Y22.2893 
G01 X-61.5305 Y22.3598 
G01 X-61.6202 Y22.4495 
G01 X-61.6907 Y22.5550 
G01 X-61.7392 Y22.6722 
G01 X-61.7640 Y22.7966 
G00 Z2.0000 
G00 X-61.7640 Y20.2566 
G01 Z-0.3000 F100.00 
G01 X-61.7640 Y20.3834 F250.00 
G01 X-61.7392 Y20.5078 
G01 X-61.6907 Y20.6250 
G01 X-61.6202 Y20.7305 
G01 X-61.5305 Y20.8202 
G01 X-61.4250 Y20.8907 
G01 X-61.3078 Y20.9392 
G01 X-61.1834 Y20.9640 
G01 X-61.0566 Y20.9640 
G01 X-60.9322 Y20.9392 
G01 X-60.8150 Y20.8907 
G01 X-60.7095 Y20.8202 
G01 X-60.6198 Y20.7305 
G01 X-60.5493 Y20.6250 
G01 X-60.5008 Y20.5078 
G01 X-60.4760 Y20.3834 
G01 X-60.4760 Y20.2566 
G01 X-60.5008 Y20.1321 
G01 X-60.5493 Y20.0150 
G01 X-60.6198 Y19.9095 
G01 X-60.7095 Y19.8198 
G01 X-60.8150 Y19.7493 
G01 X-60.9322 Y19.7007 
G01 X-61.0566 Y19.6760 
G01 X-61.1834 Y19.6760 
G01 X-61.3078 Y19.7007 
G01 X-61.4250 Y19.7493 
G01 X-61.5305 Y19.8198 
G01 X-61.6202 Y19.9095 
G01 X-61.6907 Y20.0150 
G01 X-61.7392 Y20.1321 
G01 X-61.7640 Y20.2566 
G00 Z2.0000 
G00 X-61.7640 Y15.1766 
G01 Z-0.3000 F100.00 
G01 X-61.7640 Y15.3034 F250.00 
G01 X-61.7392 Y15.4278 
G01 X-61.6907 Y15.5450 
G01 X-61.6202 Y15.6505 
G01 X-61.5305 Y15.7402 
G01 X-61.4250 Y15.8107 
G01 X-61.3078 Y15.8592 
G01 X-61.1834 Y15.8840 
G01 X-61.0566 Y15.8840 
G01 X-60.9322 Y15.8592 
G01 X-60.8150 Y15.8107 
G01 X-60.7095 Y15.7402 
G01 X-60.6198 Y15.6505 
G01 X-60.5493 Y15.5450 
G01 X-60.5008 Y15.4278 
G01 X-60.4760 Y15.3034 
G01 X-60.4760 Y15.1766 
G01 X-60.5008 Y15.0522 
G01 X-60.5493 Y14.9350 
G01 X-60.6198 Y14.8295 
G01 X-60.7095 Y14.7398 
G01 X-60.8150 Y14.6693 
G01 X-60.9322 Y14.6208 
G01 X-61.0566 Y14.5960 
G01 X-61.1834 Y14.5960 
G01 X-61.3078 Y14.6208 
G01 X-61.4250 Y14.6693 
G01 X-61.5305 Y14.7398 
G01 X-61.6202 Y14.8295 
G01 X-61.6907 Y14.9350 
G01 X-61.7392 Y15.0522 
G01 X-61.7640 Y15.1766 
G00 Z2.0000 
G00 X-53.8240 Y22.2306 
G01 Z-0.3000 F100.00 
G01 X-53.8240 Y23.4894 F250.00 
G01 X-53.8094 Y23.5040 
G01 X-52.5506 Y23.5040 
G01 X-52.5360 Y23.4894 
G01 X-52.5360 Y22.2306 
G01 X-52.5506 Y22.2160 
G01 X-53.8094 Y22.2160 
G01 X-53.8240 Y22.2306 
G00 Z2.0000 
G00 X-50.2154 Y13.6861 
G01 Z-0.3000 F100.00 
G01 X-50.2154 Y13.7220 F250.00 
G01 X-50.6664 Y14.1730 
G01 X-50.6977 Y14.1939 
G01 X-51.7541 Y15.2504 
G01 X-51.8461 Y15.3423 
G01 X-51.9183 Y15.4504 
G01 X-51.9680 Y15.5705 
G01 X-51.9720 Y15.5905 
G01 X-52.2196 Y15.8380 
G01 X-52.2545 Y15.8694 
G01 X-52.2654 Y15.8839 
G01 X-52.2782 Y15.8967 
G01 X-52.3043 Y15.9358 
G01 X-52.5944 Y16.3225 
G01 X-52.5955 Y16.3230 
G01 X-52.6346 Y16.3491 
G01 X-52.6751 Y16.3731 
G01 X-52.6886 Y16.3852 
G01 X-52.7036 Y16.3952 
G01 X-52.7369 Y16.4285 
G01 X-52.7719 Y16.4599 
G01 X-52.7827 Y16.4744 
G01 X-53.5245 Y17.2161 
G01 X-53.5531 Y17.2317 
G01 X-53.6529 Y17.3150 
G01 X-53.7345 Y17.4162 
G01 X-53.7948 Y17.5314 
G01 X-53.8315 Y17.6561 
G01 X-53.8432 Y17.7856 
G01 X-53.8293 Y17.9149 
G01 X-53.7905 Y18.0390 
G01 X-53.7283 Y18.1531 
G01 X-53.6450 Y18.2529 
G01 X-53.5438 Y18.3345 
G01 X-53.4286 Y18.3948 
G01 X-53.3039 Y18.4315 
G01 X-53.1744 Y18.4432 
G01 X-53.0451 Y18.4293 
G01 X-52.9210 Y18.3905 
G01 X-52.8399 Y18.3463 
G01 X-52.8124 Y18.3349 
G01 X-52.7830 Y18.3152 
G01 X-52.7519 Y18.2983 
G01 X-52.7290 Y18.2792 
G01 X-52.7043 Y18.2627 
G01 X-52.6793 Y18.2376 
G01 X-52.6521 Y18.2150 
G01 X-52.6334 Y18.1918 
G01 X-51.9492 Y17.5076 
G01 X-51.9192 Y17.4970 
G01 X-51.8073 Y17.4308 
G01 X-51.7105 Y17.3440 
G01 X-51.6325 Y17.2400 
G01 X-51.2657 Y16.7509 
G01 X-50.8207 Y16.3060 
G01 X-50.7485 Y16.1979 
G01 X-50.6988 Y16.0778 
G01 X-50.6948 Y16.0578 
G01 X-49.8772 Y15.2402 
G01 X-49.8459 Y15.2193 
G01 X-49.7539 Y15.1273 
G01 X-49.2820 Y14.6554 
G01 X-49.2461 Y14.6554 
G01 X-48.8446 Y14.2539 
G01 X-48.8446 Y13.6861 
G01 X-49.2461 Y13.2846 
G01 X-49.8139 Y13.2846 
G01 X-50.2154 Y13.6861 
G00 Z2.0000 
G00 X-50.2154 Y6.0661 
G01 Z-0.3000 F100.00 
G01 X-50.2154 Y6.6339 F250.00 
G01 X-49.8139 Y7.0354 
G01 X-49.2461 Y7.0354 
G01 X-48.8446 Y6.6339 
G01 X-48.8446 Y6.0661 
G01 X-49.2461 Y5.6646 
G01 X-49.8139 Y5.6646 
G01 X-50.2154 Y6.0661 
G00 Z2.0000 
G00 X-50.2154 Y24.4139 
G01 Z-0.3000 F100.00 
G01 X-50.1751 Y24.4542 F250.00 
G01 X-50.1600 Y24.7660 
G01 X-50.1600 Y26.0100 
G01 X-53.0307 Y26.0100 
G01 X-53.0561 Y25.9846 
G01 X-53.6239 Y25.9846 
G01 X-54.0254 Y26.3861 
G01 X-54.0254 Y26.9539 
G01 X-53.6239 Y27.3554 
G01 X-53.0561 Y27.3554 
G01 X-53.0307 Y27.3300 
G01 X-49.8393 Y27.3300 
G01 X-49.8139 Y27.3554 
G01 X-49.2461 Y27.3554 
G01 X-48.8446 Y26.9539 
G01 X-48.8446 Y26.7131 
G01 X-48.8400 Y26.6900 
G01 X-48.8400 Y26.6243 
G01 X-48.8400 Y24.7989 
G01 X-48.8376 Y24.7830 
G01 X-48.8400 Y24.7340 
G01 X-48.8400 Y24.6850 
G01 X-48.8431 Y24.6692 
G01 X-48.8550 Y24.4243 
G01 X-48.8446 Y24.4139 
G01 X-48.8446 Y23.8461 
G01 X-48.9650 Y23.7257 
G01 X-48.9650 Y23.4956 
G01 X-48.9904 Y23.3680 
G01 X-49.0401 Y23.2479 
G01 X-49.1123 Y23.1398 
G01 X-52.2979 Y19.9543 
G01 X-52.3898 Y19.8623 
G01 X-52.4979 Y19.7901 
G01 X-52.6180 Y19.7404 
G01 X-52.7456 Y19.7150 
G01 X-52.9159 Y19.7150 
G01 X-52.9875 Y19.6854 
G01 X-53.1150 Y19.6600 
G01 X-53.2450 Y19.6600 
G01 X-53.3725 Y19.6854 
G01 X-53.4926 Y19.7351 
G01 X-53.6007 Y19.8073 
G01 X-53.6927 Y19.8993 
G01 X-53.7649 Y20.0074 
G01 X-53.8146 Y20.1275 
G01 X-53.8400 Y20.2550 
G01 X-53.8400 Y20.3850 
G01 X-53.8146 Y20.5125 
G01 X-53.7649 Y20.6326 
G01 X-53.6927 Y20.7407 
G01 X-53.6377 Y20.7957 
G01 X-53.5457 Y20.8877 
G01 X-53.4376 Y20.9599 
G01 X-53.3175 Y21.0096 
G01 X-53.1900 Y21.0350 
G01 X-53.0839 Y21.0350 
G01 X-50.2850 Y23.8339 
G01 X-50.2850 Y24.1000 
G01 X-50.2596 Y24.2275 
G01 X-50.2154 Y24.3343 
G01 X-50.2154 Y24.4139 
G00 Z2.0000 
G00 X-12.1154 Y23.8461 
G01 Z-0.3000 F100.00 
G01 X-12.1154 Y24.4139 F250.00 
G01 X-11.7139 Y24.8154 
G01 X-11.1461 Y24.8154 
G01 X-10.7446 Y24.4139 
G01 X-10.7446 Y23.8461 
G01 X-11.1461 Y23.4446 
G01 X-11.7139 Y23.4446 
G01 X-12.1154 Y23.8461 
G00 Z2.0000 
G00 X-12.1154 Y6.0661 
G01 Z-0.3000 F100.00 
G01 X-12.1154 Y6.6339 F250.00 
G01 X-11.7139 Y7.0354 
G01 X-11.1461 Y7.0354 
G01 X-10.7446 Y6.6339 
G01 X-10.7446 Y6.0661 
G01 X-11.1461 Y5.6646 
G01 X-11.7139 Y5.6646 
G01 X-12.1154 Y6.0661 
G00 Z2.0000 
G00 X-4.4954 Y6.0661 
G01 Z-0.3000 F100.00 
G01 X-4.4954 Y6.0916 F250.00 
G01 X-10.1377 Y11.7339 
G01 X-10.2099 Y11.8420 
G01 X-10.2596 Y11.9621 
G01 X-10.2850 Y12.0896 
G01 X-10.2850 Y24.8153 
G01 X-10.3751 Y24.8526 
G01 X-10.4832 Y24.9248 
G01 X-11.5430 Y25.9846 
G01 X-11.7139 Y25.9846 
G01 X-12.1154 Y26.3861 
G01 X-12.1154 Y26.9539 
G01 X-11.7139 Y27.3554 
G01 X-11.1461 Y27.3554 
G01 X-11.0903 Y27.2996 
G01 X-10.9824 Y27.2549 
G01 X-10.8743 Y27.1827 
G01 X-10.2850 Y26.5934 
G01 X-10.2850 Y32.3500 
G01 X-10.2596 Y32.4775 
G01 X-10.2099 Y32.5976 
G01 X-10.1377 Y32.7057 
G01 X-9.6770 Y33.1664 
G01 X-9.6770 Y33.3460 
G01 X-9.2160 Y33.8070 
G01 X-8.5640 Y33.8070 
G01 X-8.1030 Y33.3460 
G01 X-8.1030 Y32.6940 
G01 X-8.5640 Y32.2330 
G01 X-8.7436 Y32.2330 
G01 X-8.9650 Y32.0116 
G01 X-8.9650 Y12.4280 
G01 X-3.5724 Y7.0354 
G01 X-3.5261 Y7.0354 
G01 X-3.1246 Y6.6339 
G01 X-3.1246 Y6.0661 
G01 X-3.5261 Y5.6646 
G01 X-4.0939 Y5.6646 
G01 X-4.4954 Y6.0661 
G00 Z2.0000 
G00 X-7.1370 Y32.6940 
G01 Z-0.3000 F100.00 
G01 X-7.1370 Y33.3460 F250.00 
G01 X-6.6760 Y33.8070 
G01 X-6.0240 Y33.8070 
G01 X-5.5630 Y33.3460 
G01 X-5.5630 Y32.6940 
G01 X-6.0240 Y32.2330 
G01 X-6.6760 Y32.2330 
G01 X-7.1370 Y32.6940 
G00 Z2.0000 
G00 X-4.0939 Y29.8954 
G01 Z-0.3000 F100.00 
G01 X-3.5261 Y29.8954 F250.00 
G01 X-3.1246 Y29.4939 
G01 X-3.1246 Y28.9261 
G01 X-3.5261 Y28.5246 
G01 X-3.6198 Y28.5246 
G01 X-3.6859 Y28.4972 
G01 X-5.6000 Y26.5831 
G01 X-5.6000 Y24.7900 
G01 X-4.1193 Y24.7900 
G01 X-4.0939 Y24.8154 
G01 X-3.5261 Y24.8154 
G01 X-3.1246 Y24.4139 
G01 X-3.1246 Y23.8461 
G01 X-3.5261 Y23.4446 
G01 X-4.0939 Y23.4446 
G01 X-4.1193 Y23.4700 
G01 X-5.6000 Y23.4700 
G01 X-5.6000 Y18.0334 
G01 X-3.4293 Y15.8627 
G01 X-3.3953 Y15.8523 
G01 X-3.2807 Y15.7909 
G01 X-3.1804 Y15.7082 
G01 X-3.0980 Y15.6076 
G01 X-3.0369 Y15.4929 
G01 X-2.9994 Y15.3684 
G01 X-2.9868 Y15.2390 
G01 X-2.9997 Y15.1096 
G01 X-3.0377 Y14.9853 
G01 X-3.0991 Y14.8707 
G01 X-3.1818 Y14.7704 
G01 X-3.2824 Y14.6880 
G01 X-3.3971 Y14.6269 
G01 X-3.5216 Y14.5894 
G01 X-3.6510 Y14.5768 
G01 X-3.7829 Y14.5900 
G01 X-3.8150 Y14.5900 
G01 X-3.8474 Y14.5965 
G01 X-3.8804 Y14.5997 
G01 X-3.9110 Y14.6091 
G01 X-3.9425 Y14.6154 
G01 X-3.9731 Y14.6280 
G01 X-4.0047 Y14.6377 
G01 X-4.0330 Y14.6528 
G01 X-4.0626 Y14.6651 
G01 X-4.0901 Y14.6835 
G01 X-4.1193 Y14.6991 
G01 X-4.1440 Y14.7195 
G01 X-4.1707 Y14.7373 
G01 X-4.1941 Y14.7607 
G01 X-4.2196 Y14.7818 
G01 X-4.2400 Y14.8066 
G01 X-6.7727 Y17.3393 
G01 X-6.8449 Y17.4474 
G01 X-6.8946 Y17.5675 
G01 X-6.9200 Y17.6950 
G01 X-6.9200 Y26.9215 
G01 X-6.8946 Y27.0490 
G01 X-6.8449 Y27.1691 
G01 X-6.7727 Y27.2772 
G01 X-6.6807 Y27.3692 
G01 X-4.5042 Y29.5457 
G01 X-4.4122 Y29.6377 
G01 X-4.3041 Y29.7099 
G01 X-4.2619 Y29.7274 
G01 X-4.0939 Y29.8954 
G00 Z2.0000 
G00 X-12.1154 Y28.9261 
G01 Z-0.3000 F100.00 
G01 X-12.1154 Y29.4939 F250.00 
G01 X-11.7139 Y29.8954 
G01 X-11.1461 Y29.8954 
G01 X-10.7446 Y29.4939 
G01 X-10.7446 Y28.9261 
G01 X-11.1461 Y28.5246 
G01 X-11.7139 Y28.5246 
G01 X-12.1154 Y28.9261 
G00 Z2.0000 
G00 X-4.4954 Y26.3861 
G01 Z-0.3000 F100.00 
G01 X-4.4954 Y26.9539 F250.00 
G01 X-4.0939 Y27.3554 
G01 X-3.5261 Y27.3554 
G01 X-3.1246 Y26.9539 
G01 X-3.1246 Y26.9330 
G01 X-0.1843 Y23.9927 
G01 X-0.0923 Y23.9007 
G01 X-0.0201 Y23.7926 
G01 X0.0296 Y23.6725 
G01 X0.0550 Y23.5450 
G01 X0.0550 Y12.0800 
G01 X0.0296 Y11.9525 
G01 X-0.0201 Y11.8324 
G01 X-0.0923 Y11.7243 
G01 X-3.1246 Y8.6920 
G01 X-3.1246 Y8.6061 
G01 X-3.5261 Y8.2046 
G01 X-4.0939 Y8.2046 
G01 X-4.4954 Y8.6061 
G01 X-4.4954 Y9.1739 
G01 X-4.3510 Y9.3183 
G01 X-4.3227 Y9.3607 
G01 X-4.2307 Y9.4527 
G01 X-1.2650 Y12.4184 
G01 X-1.2650 Y17.2150 
G01 X-3.3087 Y17.2150 
G01 X-3.3736 Y17.1772 
G01 X-3.4965 Y17.1348 
G01 X-3.6253 Y17.1173 
G01 X-3.7551 Y17.1252 
G01 X-3.8808 Y17.1583 
G01 X-3.9977 Y17.2153 
G01 X-4.1012 Y17.2939 
G01 X-4.1873 Y17.3913 
G01 X-4.2528 Y17.5036 
G01 X-4.2952 Y17.6265 
G01 X-4.3127 Y17.7553 
G01 X-4.3048 Y17.8851 
G01 X-4.2684 Y18.0235 
G01 X-4.2596 Y18.0675 
G01 X-4.2519 Y18.0862 
G01 X-4.2467 Y18.1058 
G01 X-4.2271 Y18.1461 
G01 X-4.2099 Y18.1876 
G01 X-4.1986 Y18.2045 
G01 X-4.1897 Y18.2227 
G01 X-4.1626 Y18.2584 
G01 X-4.1377 Y18.2957 
G01 X-4.1233 Y18.3101 
G01 X-4.1111 Y18.3262 
G01 X-4.0775 Y18.3559 
G01 X-4.0457 Y18.3877 
G01 X-4.0289 Y18.3989 
G01 X-4.0137 Y18.4123 
G01 X-3.9750 Y18.4349 
G01 X-3.9376 Y18.4599 
G01 X-3.9189 Y18.4676 
G01 X-3.9014 Y18.4778 
G01 X-3.8590 Y18.4924 
G01 X-3.8175 Y18.5096 
G01 X-3.7976 Y18.5136 
G01 X-3.7785 Y18.5202 
G01 X-3.7340 Y18.5262 
G01 X-3.6900 Y18.5350 
G01 X-3.6697 Y18.5350 
G01 X-3.6497 Y18.5377 
G01 X-3.6049 Y18.5350 
G01 X-1.2650 Y18.5350 
G01 X-1.2650 Y23.2066 
G01 X-4.0430 Y25.9846 
G01 X-4.0939 Y25.9846 
G01 X-4.4954 Y26.3861 
G00 Z2.0000 
G00 X-12.2340 Y20.2566 
G01 Z-0.3000 F100.00 
G01 X-12.2340 Y20.3834 F250.00 
G01 X-12.2092 Y20.5078 
G01 X-12.1607 Y20.6250 
G01 X-12.0902 Y20.7305 
G01 X-12.0005 Y20.8202 
G01 X-11.8950 Y20.8907 
G01 X-11.7778 Y20.9392 
G01 X-11.6534 Y20.9640 
G01 X-11.5266 Y20.9640 
G01 X-11.4022 Y20.9392 
G01 X-11.2850 Y20.8907 
G01 X-11.1795 Y20.8202 
G01 X-11.0898 Y20.7305 
G01 X-11.0193 Y20.6250 
G01 X-10.9708 Y20.5078 
G01 X-10.9460 Y20.3834 
G01 X-10.9460 Y20.2566 
G01 X-10.9708 Y20.1321 
G01 X-11.0193 Y20.0150 
G01 X-11.0898 Y19.9095 
G01 X-11.1795 Y19.8198 
G01 X-11.2850 Y19.7493 
G01 X-11.4022 Y19.7007 
G01 X-11.5266 Y19.6760 
G01 X-11.6534 Y19.6760 
G01 X-11.7778 Y19.7007 
G01 X-11.8950 Y19.7493 
G01 X-12.0005 Y19.8198 
G01 X-12.0902 Y19.9095 
G01 X-12.1607 Y20.0150 
G01 X-12.2092 Y20.1321 
G01 X-12.2340 Y20.2566 
G00 Z2.0000 
G00 X-12.2340 Y17.7166 
G01 Z-0.3000 F100.00 
G01 X-12.2340 Y17.8434 F250.00 
G01 X-12.2092 Y17.9678 
G01 X-12.1607 Y18.0850 
G01 X-12.0902 Y18.1905 
G01 X-12.0005 Y18.2802 
G01 X-11.8950 Y18.3507 
G01 X-11.7778 Y18.3992 
G01 X-11.6534 Y18.4240 
G01 X-11.5266 Y18.4240 
G01 X-11.4022 Y18.3992 
G01 X-11.2850 Y18.3507 
G01 X-11.1795 Y18.2802 
G01 X-11.0898 Y18.1905 
G01 X-11.0193 Y18.0850 
G01 X-10.9708 Y17.9678 
G01 X-10.9460 Y17.8434 
G01 X-10.9460 Y17.7166 
G01 X-10.9708 Y17.5922 
G01 X-11.0193 Y17.4749 
G01 X-11.0898 Y17.3695 
G01 X-11.1795 Y17.2798 
G01 X-11.2850 Y17.2093 
G01 X-11.4022 Y17.1608 
G01 X-11.5266 Y17.1360 
G01 X-11.6534 Y17.1360 
G01 X-11.7778 Y17.1608 
G01 X-11.8950 Y17.2093 
G01 X-12.0005 Y17.2798 
G01 X-12.0902 Y17.3695 
G01 X-12.1607 Y17.4749 
G01 X-12.2092 Y17.5922 
G01 X-12.2340 Y17.7166 
G00 Z2.0000 
G00 X-12.2340 Y12.6366 
G01 Z-0.3000 F100.00 
G01 X-12.2340 Y12.7634 F250.00 
G01 X-12.2092 Y12.8878 
G01 X-12.1607 Y13.0050 
G01 X-12.0902 Y13.1105 
G01 X-12.0005 Y13.2002 
G01 X-11.8950 Y13.2707 
G01 X-11.7778 Y13.3192 
G01 X-11.6534 Y13.3440 
G01 X-11.5266 Y13.3440 
G01 X-11.4022 Y13.3192 
G01 X-11.2850 Y13.2707 
G01 X-11.1795 Y13.2002 
G01 X-11.0898 Y13.1105 
G01 X-11.0193 Y13.0050 
G01 X-10.9708 Y12.8878 
G01 X-10.9460 Y12.7634 
G01 X-10.9460 Y12.6366 
G01 X-10.9708 Y12.5122 
G01 X-11.0193 Y12.3950 
G01 X-11.0898 Y12.2895 
G01 X-11.1795 Y12.1998 
G01 X-11.2850 Y12.1293 
G01 X-11.4022 Y12.0808 
G01 X-11.5266 Y12.0560 
G01 X-11.6534 Y12.0560 
G01 X-11.7778 Y12.0808 
G01 X-11.8950 Y12.1293 
G01 X-12.0005 Y12.1998 
G01 X-12.0902 Y12.2895 
G01 X-12.1607 Y12.3950 
G01 X-12.2092 Y12.5122 
G01 X-12.2340 Y12.6366 
G00 Z2.0000 
G00 X-4.2940 Y12.6366 
G01 Z-0.3000 F100.00 
G01 X-4.2940 Y12.7634 F250.00 
G01 X-4.2692 Y12.8878 
G01 X-4.2207 Y13.0050 
G01 X-4.1502 Y13.1105 
G01 X-4.0605 Y13.2002 
G01 X-3.9550 Y13.2707 
G01 X-3.8378 Y13.3192 
G01 X-3.7134 Y13.3440 
G01 X-3.5866 Y13.3440 
G01 X-3.4622 Y13.3192 
G01 X-3.3450 Y13.2707 
G01 X-3.2395 Y13.2002 
G01 X-3.1498 Y13.1105 
G01 X-3.0793 Y13.0050 
G01 X-3.0308 Y12.8878 
G01 X-3.0060 Y12.7634 
G01 X-3.0060 Y12.6366 
G01 X-3.0308 Y12.5122 
G01 X-3.0793 Y12.3950 
G01 X-3.1498 Y12.2895 
G01 X-3.2395 Y12.1998 
G01 X-3.3450 Y12.1293 
G01 X-3.4622 Y12.0808 
G01 X-3.5866 Y12.0560 
G01 X-3.7134 Y12.0560 
G01 X-3.8378 Y12.0808 
G01 X-3.9550 Y12.1293 
G01 X-4.0605 Y12.1998 
G01 X-4.1502 Y12.2895 
G01 X-4.2207 Y12.3950 
G01 X-4.2692 Y12.5122 
G01 X-4.2940 Y12.6366 
G00 Z2.0000 
G00 X-4.2940 Y19.6906 
G01 Z-0.3000 F100.00 
G01 X-4.2940 Y20.9494 F250.00 
G01 X-4.2794 Y20.9640 
G01 X-3.0206 Y20.9640 
G01 X-3.0060 Y20.9494 
G01 X-3.0060 Y19.6906 
G01 X-3.0206 Y19.6760 
G01 X-4.2794 Y19.6760 
G01 X-4.2940 Y19.6906 
G00 Z2.0000 
G00 X-27.4951 Y13.8887 
G01 Z-0.3000 F100.00 
G01 X-27.4951 Y14.0513 F250.00 
G01 X-27.4634 Y14.2107 
G01 X-27.4012 Y14.3608 
G01 X-27.3109 Y14.4960 
G01 X-27.1960 Y14.6109 
G01 X-27.0608 Y14.7012 
G01 X-26.9107 Y14.7634 
G01 X-26.7513 Y14.7951 
G01 X-26.5887 Y14.7951 
G01 X-26.4293 Y14.7634 
G01 X-26.2792 Y14.7012 
G01 X-26.1440 Y14.6109 
G01 X-26.0291 Y14.4960 
G01 X-25.9388 Y14.3608 
G01 X-25.8766 Y14.2107 
G01 X-25.8449 Y14.0513 
G01 X-25.8449 Y13.8887 
G01 X-25.8766 Y13.7293 
G01 X-25.9388 Y13.5792 
G01 X-26.0291 Y13.4440 
G01 X-26.1440 Y13.3291 
G01 X-26.2792 Y13.2388 
G01 X-26.4293 Y13.1766 
G01 X-26.5887 Y13.1449 
G01 X-26.7513 Y13.1449 
G01 X-26.9107 Y13.1766 
G01 X-27.0608 Y13.2388 
G01 X-27.1960 Y13.3291 
G01 X-27.3109 Y13.4440 
G01 X-27.4012 Y13.5792 
G01 X-27.4634 Y13.7293 
G01 X-27.4951 Y13.8887 
G00 Z2.0000 
G00 X-27.4951 Y11.0882 
G01 Z-0.3000 F100.00 
G01 X-27.4951 Y11.7718 F250.00 
G01 X-27.0118 Y12.2551 
G01 X-26.3282 Y12.2551 
G01 X-25.8449 Y11.7718 
G01 X-25.8449 Y11.0882 
G01 X-26.3282 Y10.6049 
G01 X-27.0118 Y10.6049 
G01 X-27.4951 Y11.0882 
G00 Z2.0000 
G00 X-27.4951 Y4.9987 
G01 Z-0.3000 F100.00 
G01 X-27.4951 Y5.1613 F250.00 
G01 X-27.4634 Y5.3207 
G01 X-27.4012 Y5.4708 
G01 X-27.3109 Y5.6060 
G01 X-27.1960 Y5.7209 
G01 X-27.0608 Y5.8112 
G01 X-26.9107 Y5.8734 
G01 X-26.7513 Y5.9051 
G01 X-26.5887 Y5.9051 
G01 X-26.4293 Y5.8734 
G01 X-26.2792 Y5.8112 
G01 X-26.1440 Y5.7209 
G01 X-26.0291 Y5.6060 
G01 X-25.9388 Y5.4708 
G01 X-25.8766 Y5.3207 
G01 X-25.8449 Y5.1613 
G01 X-25.8449 Y4.9987 
G01 X-25.8766 Y4.8393 
G01 X-25.9388 Y4.6892 
G01 X-26.0291 Y4.5540 
G01 X-26.1440 Y4.4391 
G01 X-26.2792 Y4.3488 
G01 X-26.4293 Y4.2866 
G01 X-26.5887 Y4.2549 
G01 X-26.7513 Y4.2549 
G01 X-26.9107 Y4.2866 
G01 X-27.0608 Y4.3488 
G01 X-27.1960 Y4.4391 
G01 X-27.3109 Y4.5540 
G01 X-27.4012 Y4.6892 
G01 X-27.4634 Y4.8393 
G01 X-27.4951 Y4.9987 
G00 Z2.0000 
G00 X-27.4951 Y7.2782 
G01 Z-0.3000 F100.00 
G01 X-27.4951 Y7.9618 F250.00 
G01 X-27.0118 Y8.4451 
G01 X-26.3282 Y8.4451 
G01 X-25.8449 Y7.9618 
G01 X-25.8449 Y7.2782 
G01 X-26.3282 Y6.7949 
G01 X-27.0118 Y6.7949 
G01 X-27.4951 Y7.2782 
G00 Z2.0000 
G00 X-19.7490 Y11.3612 
G01 Z-0.3000 F100.00 
G01 X-19.7490 Y11.4988 F250.00 
G01 X-19.7221 Y11.6339 
G01 X-19.6694 Y11.7611 
G01 X-19.5929 Y11.8756 
G01 X-19.4956 Y11.9729 
G01 X-19.3811 Y12.0494 
G01 X-19.2539 Y12.1021 
G01 X-19.1188 Y12.1290 
G01 X-18.9812 Y12.1290 
G01 X-18.8461 Y12.1021 
G01 X-18.7189 Y12.0494 
G01 X-18.6044 Y11.9729 
G01 X-18.5070 Y11.8756 
G01 X-18.4306 Y11.7611 
G01 X-18.3779 Y11.6339 
G01 X-18.3510 Y11.4988 
G01 X-18.3510 Y11.3612 
G01 X-18.3779 Y11.2261 
G01 X-18.4306 Y11.0989 
G01 X-18.5070 Y10.9844 
G01 X-18.6044 Y10.8871 
G01 X-18.7189 Y10.8106 
G01 X-18.8461 Y10.7579 
G01 X-18.9812 Y10.7310 
G01 X-19.1188 Y10.7310 
G01 X-19.2539 Y10.7579 
G01 X-19.3811 Y10.8106 
G01 X-19.4956 Y10.8871 
G01 X-19.5929 Y10.9844 
G01 X-19.6694 Y11.0989 
G01 X-19.7221 Y11.2261 
G01 X-19.7490 Y11.3612 
G00 Z2.0000 
G00 X-22.2890 Y8.8212 
G01 Z-0.3000 F100.00 
G01 X-22.2890 Y8.9588 F250.00 
G01 X-22.2621 Y9.0939 
G01 X-22.2094 Y9.2211 
G01 X-22.1329 Y9.3356 
G01 X-22.0356 Y9.4329 
G01 X-21.9211 Y9.5094 
G01 X-21.7939 Y9.5621 
G01 X-21.6588 Y9.5890 
G01 X-21.5212 Y9.5890 
G01 X-21.3861 Y9.5621 
G01 X-21.2589 Y9.5094 
G01 X-21.1444 Y9.4329 
G01 X-21.0471 Y9.3356 
G01 X-20.9706 Y9.2211 
G01 X-20.9179 Y9.0939 
G01 X-20.8910 Y8.9588 
G01 X-20.8910 Y8.8212 
G01 X-20.9179 Y8.6861 
G01 X-20.9300 Y8.6568 
G01 X-20.9300 Y7.3470 
G01 X-20.9554 Y7.2195 
G01 X-21.0051 Y7.0994 
G01 X-21.0773 Y6.9913 
G01 X-21.1693 Y6.8994 
G01 X-25.4444 Y2.6242 
G01 X-25.5525 Y2.5520 
G01 X-25.6726 Y2.5023 
G01 X-25.8001 Y2.4769 
G01 X-36.3269 Y2.4769 
G01 X-36.4544 Y2.5023 
G01 X-36.5745 Y2.5520 
G01 X-36.6826 Y2.6242 
G01 X-36.7746 Y2.7162 
G01 X-41.0800 Y7.0216 
G01 X-41.1126 Y7.0351 
G01 X-41.2207 Y7.1073 
G01 X-41.3127 Y7.1993 
G01 X-41.3849 Y7.3074 
G01 X-41.4346 Y7.4275 
G01 X-41.4600 Y7.5550 
G01 X-41.4600 Y7.6850 
G01 X-41.4346 Y7.8125 
G01 X-41.3849 Y7.9326 
G01 X-41.3127 Y8.0407 
G01 X-41.2207 Y8.1327 
G01 X-41.1126 Y8.2049 
G01 X-40.9925 Y8.2546 
G01 X-40.8650 Y8.2800 
G01 X-40.6800 Y8.2800 
G01 X-40.5525 Y8.2546 
G01 X-40.4324 Y8.2049 
G01 X-40.3243 Y8.1327 
G01 X-35.9885 Y3.7969 
G01 X-26.1385 Y3.7969 
G01 X-22.2500 Y7.6854 
G01 X-22.2500 Y8.6568 
G01 X-22.2621 Y8.6861 
G01 X-22.2890 Y8.8212 
G00 Z2.0000 
G00 X-17.2090 Y8.8212 
G01 Z-0.3000 F100.00 
G01 X-17.2090 Y8.9588 F250.00 
G01 X-17.1821 Y9.0939 
G01 X-17.1294 Y9.2211 
G01 X-17.0529 Y9.3356 
G01 X-16.9556 Y9.4329 
G01 X-16.8411 Y9.5094 
G01 X-16.7139 Y9.5621 
G01 X-16.5788 Y9.5890 
G01 X-16.4412 Y9.5890 
G01 X-16.3061 Y9.5621 
G01 X-16.1789 Y9.5094 
G01 X-16.0644 Y9.4329 
G01 X-15.9671 Y9.3356 
G01 X-15.8906 Y9.2211 
G01 X-15.8379 Y9.0939 
G01 X-15.8110 Y8.9588 
G01 X-15.8110 Y8.8212 
G01 X-15.8379 Y8.6861 
G01 X-15.8906 Y8.5589 
G01 X-15.9671 Y8.4444 
G01 X-16.0644 Y8.3471 
G01 X-16.1789 Y8.2706 
G01 X-16.3061 Y8.2179 
G01 X-16.4412 Y8.1910 
G01 X-16.5788 Y8.1910 
G01 X-16.7139 Y8.2179 
G01 X-16.8411 Y8.2706 
G01 X-16.9556 Y8.3471 
G01 X-17.0529 Y8.4444 
G01 X-17.1294 Y8.5589 
G01 X-17.1821 Y8.6861 
G01 X-17.2090 Y8.8212 
G00 Z2.0000 
G00 X-41.4440 Y12.6366 
G01 Z-0.3000 F100.00 
G01 X-41.4440 Y12.7634 F250.00 
G01 X-41.4192 Y12.8878 
G01 X-41.3707 Y13.0050 
G01 X-41.3002 Y13.1105 
G01 X-41.2105 Y13.2002 
G01 X-41.1050 Y13.2707 
G01 X-40.9878 Y13.3192 
G01 X-40.8634 Y13.3440 
G01 X-40.7366 Y13.3440 
G01 X-40.6121 Y13.3192 
G01 X-40.4950 Y13.2707 
G01 X-40.3895 Y13.2002 
G01 X-40.2998 Y13.1105 
G01 X-40.2293 Y13.0050 
G01 X-40.1808 Y12.8878 
G01 X-40.1560 Y12.7634 
G01 X-40.1560 Y12.6366 
G01 X-40.1808 Y12.5122 
G01 X-40.2293 Y12.3950 
G01 X-40.2998 Y12.2895 
G01 X-40.3895 Y12.1998 
G01 X-40.4950 Y12.1293 
G01 X-40.6121 Y12.0808 
G01 X-40.7366 Y12.0560 
G01 X-40.8634 Y12.0560 
G01 X-40.9878 Y12.0808 
G01 X-41.1050 Y12.1293 
G01 X-41.2105 Y12.1998 
G01 X-41.3002 Y12.2895 
G01 X-41.3707 Y12.3950 
G01 X-41.4192 Y12.5122 
G01 X-41.4440 Y12.6366 
G00 Z2.0000 
G00 X-41.4440 Y5.0166 
G01 Z-0.3000 F100.00 
G01 X-41.4440 Y5.1434 F250.00 
G01 X-41.4192 Y5.2678 
G01 X-41.3707 Y5.3850 
G01 X-41.3002 Y5.4905 
G01 X-41.2105 Y5.5802 
G01 X-41.1050 Y5.6507 
G01 X-40.9878 Y5.6992 
G01 X-40.8634 Y5.7240 
G01 X-40.7366 Y5.7240 
G01 X-40.6121 Y5.6992 
G01 X-40.4950 Y5.6507 
G01 X-40.3895 Y5.5802 
G01 X-40.2998 Y5.4905 
G01 X-40.2293 Y5.3850 
G01 X-40.1808 Y5.2678 
G01 X-40.1560 Y5.1434 
G01 X-40.1560 Y5.0166 
G01 X-40.1808 Y4.8921 
G01 X-40.2293 Y4.7750 
G01 X-40.2998 Y4.6695 
G01 X-40.3895 Y4.5798 
G01 X-40.4950 Y4.5093 
G01 X-40.6121 Y4.4607 
G01 X-40.7366 Y4.4360 
G01 X-40.8634 Y4.4360 
G01 X-40.9878 Y4.4607 
G01 X-41.1050 Y4.5093 
G01 X-41.2105 Y4.5798 
G01 X-41.3002 Y4.6695 
G01 X-41.3707 Y4.7750 
G01 X-41.4192 Y4.8921 
G01 X-41.4440 Y5.0166 
G00 Z2.0000 
G00 X-33.5040 Y7.5566 
G01 Z-0.3000 F100.00 
G01 X-33.5040 Y7.6834 F250.00 
G01 X-33.4792 Y7.8078 
G01 X-33.4307 Y7.9250 
G01 X-33.3602 Y8.0305 
G01 X-33.2705 Y8.1202 
G01 X-33.1650 Y8.1907 
G01 X-33.0478 Y8.2392 
G01 X-32.9234 Y8.2640 
G01 X-32.7966 Y8.2640 
G01 X-32.6722 Y8.2392 
G01 X-32.5549 Y8.1907 
G01 X-32.4495 Y8.1202 
G01 X-32.3598 Y8.0305 
G01 X-32.2893 Y7.9250 
G01 X-32.2407 Y7.8078 
G01 X-32.2160 Y7.6834 
G01 X-32.2160 Y7.5566 
G01 X-32.2407 Y7.4322 
G01 X-32.2893 Y7.3150 
G01 X-32.3598 Y7.2095 
G01 X-32.4495 Y7.1198 
G01 X-32.5549 Y7.0493 
G01 X-32.6722 Y7.0008 
G01 X-32.7966 Y6.9760 
G01 X-32.9234 Y6.9760 
G01 X-33.0478 Y7.0008 
G01 X-33.1650 Y7.0493 
G01 X-33.2705 Y7.1198 
G01 X-33.3602 Y7.2095 
G01 X-33.4307 Y7.3150 
G01 X-33.4792 Y7.4322 
G01 X-33.5040 Y7.5566 
G00 Z2.0000 
G00 X-33.5040 Y10.0966 
G01 Z-0.3000 F100.00 
G01 X-33.5040 Y10.2234 F250.00 
G01 X-33.4792 Y10.3478 
G01 X-33.4307 Y10.4650 
G01 X-33.3602 Y10.5705 
G01 X-33.2705 Y10.6602 
G01 X-33.1650 Y10.7307 
G01 X-33.0478 Y10.7792 
G01 X-32.9234 Y10.8040 
G01 X-32.7966 Y10.8040 
G01 X-32.6722 Y10.7792 
G01 X-32.5549 Y10.7307 
G01 X-32.4495 Y10.6602 
G01 X-32.3598 Y10.5705 
G01 X-32.2893 Y10.4650 
G01 X-32.2407 Y10.3478 
G01 X-32.2160 Y10.2234 
G01 X-32.2160 Y10.0966 
G01 X-32.2407 Y9.9722 
G01 X-32.2893 Y9.8550 
G01 X-32.3598 Y9.7495 
G01 X-32.4495 Y9.6598 
G01 X-32.5549 Y9.5893 
G01 X-32.6722 Y9.5408 
G01 X-32.7966 Y9.5160 
G01 X-32.9234 Y9.5160 
G01 X-33.0478 Y9.5408 
G01 X-33.1650 Y9.5893 
G01 X-33.2705 Y9.6598 
G01 X-33.3602 Y9.7495 
G01 X-33.4307 Y9.8550 
G01 X-33.4792 Y9.9722 
G01 X-33.5040 Y10.0966 
G00 Z2.0000 
G00 X-33.5040 Y12.0706 
G01 Z-0.3000 F100.00 
G01 X-33.5040 Y13.3294 F250.00 
G01 X-33.4894 Y13.3440 
G01 X-32.2306 Y13.3440 
G01 X-32.2160 Y13.3294 
G01 X-32.2160 Y12.0706 
G01 X-32.2306 Y12.0560 
G01 X-33.4894 Y12.0560 
G01 X-33.5040 Y12.0706 
G00 Z2.0000 
G00 X-27.4951 Y26.5887 
G01 Z-0.3000 F100.00 
G01 X-27.4951 Y26.7513 F250.00 
G01 X-27.4634 Y26.9107 
G01 X-27.4100 Y27.0396 
G01 X-27.4100 Y27.7266 
G01 X-29.4780 Y29.7946 
G01 X-29.4939 Y29.7946 
G01 X-29.8954 Y30.1961 
G01 X-29.8954 Y30.7639 
G01 X-29.4939 Y31.1654 
G01 X-28.9261 Y31.1654 
G01 X-28.5246 Y30.7639 
G01 X-28.5246 Y30.7080 
G01 X-26.3293 Y28.5127 
G01 X-26.2373 Y28.4207 
G01 X-26.1651 Y28.3126 
G01 X-26.1154 Y28.1925 
G01 X-26.0900 Y28.0650 
G01 X-26.0900 Y27.2569 
G01 X-26.0291 Y27.1960 
G01 X-25.9388 Y27.0608 
G01 X-25.8766 Y26.9107 
G01 X-25.8449 Y26.7513 
G01 X-25.8449 Y26.5887 
G01 X-25.8766 Y26.4293 
G01 X-25.9388 Y26.2792 
G01 X-26.0291 Y26.1440 
G01 X-26.1440 Y26.0291 
G01 X-26.2792 Y25.9388 
G01 X-26.4293 Y25.8766 
G01 X-26.5887 Y25.8449 
G01 X-26.7513 Y25.8449 
G01 X-26.9107 Y25.8766 
G01 X-27.0608 Y25.9388 
G01 X-27.1960 Y26.0291 
G01 X-27.3109 Y26.1440 
G01 X-27.4012 Y26.2792 
G01 X-27.4634 Y26.4293 
G01 X-27.4951 Y26.5887 
G00 Z2.0000 
G00 X-27.4951 Y23.7882 
G01 Z-0.3000 F100.00 
G01 X-27.4951 Y24.4718 F250.00 
G01 X-27.0118 Y24.9551 
G01 X-26.3282 Y24.9551 
G01 X-25.8449 Y24.4718 
G01 X-25.8449 Y23.7882 
G01 X-26.3282 Y23.3049 
G01 X-27.0118 Y23.3049 
G01 X-27.4951 Y23.7882 
G00 Z2.0000 
G00 X-27.4951 Y17.6987 
G01 Z-0.3000 F100.00 
G01 X-27.4951 Y17.8613 F250.00 
G01 X-27.4634 Y18.0207 
G01 X-27.4012 Y18.1708 
G01 X-27.3109 Y18.3060 
G01 X-27.1960 Y18.4209 
G01 X-27.0608 Y18.5112 
G01 X-26.9107 Y18.5734 
G01 X-26.7513 Y18.6051 
G01 X-26.5887 Y18.6051 
G01 X-26.4293 Y18.5734 
G01 X-26.2792 Y18.5112 
G01 X-26.1440 Y18.4209 
G01 X-26.0291 Y18.3060 
G01 X-25.9388 Y18.1708 
G01 X-25.8766 Y18.0207 
G01 X-25.8449 Y17.8613 
G01 X-25.8449 Y17.6987 
G01 X-25.8766 Y17.5393 
G01 X-25.9388 Y17.3892 
G01 X-26.0291 Y17.2540 
G01 X-26.1440 Y17.1391 
G01 X-26.2792 Y17.0488 
G01 X-26.4293 Y16.9866 
G01 X-26.5887 Y16.9549 
G01 X-26.7513 Y16.9549 
G01 X-26.9107 Y16.9866 
G01 X-27.0608 Y17.0488 
G01 X-27.1960 Y17.1391 
G01 X-27.3109 Y17.2540 
G01 X-27.4012 Y17.3892 
G01 X-27.4634 Y17.5393 
G01 X-27.4951 Y17.6987 
G00 Z2.0000 
G00 X-27.4951 Y19.9782 
G01 Z-0.3000 F100.00 
G01 X-27.4951 Y20.6618 F250.00 
G01 X-27.0118 Y21.1451 
G01 X-26.3282 Y21.1451 
G01 X-25.8449 Y20.6618 
G01 X-25.8449 Y19.9782 
G01 X-26.3282 Y19.4949 
G01 X-27.0118 Y19.4949 
G01 X-27.4951 Y19.9782 
G00 Z2.0000 
G00 X-22.2890 Y17.7112 
G01 Z-0.3000 F100.00 
G01 X-22.2890 Y17.8488 F250.00 
G01 X-22.2621 Y17.9839 
G01 X-22.2094 Y18.1111 
G01 X-22.1329 Y18.2256 
G01 X-22.0356 Y18.3229 
G01 X-21.9211 Y18.3994 
G01 X-21.7939 Y18.4521 
G01 X-21.6588 Y18.4790 
G01 X-21.5212 Y18.4790 
G01 X-21.3861 Y18.4521 
G01 X-21.2589 Y18.3994 
G01 X-21.1444 Y18.3229 
G01 X-21.0471 Y18.2256 
G01 X-20.9706 Y18.1111 
G01 X-20.9179 Y17.9839 
G01 X-20.8910 Y17.8488 
G01 X-20.8910 Y17.7112 
G01 X-20.9179 Y17.5761 
G01 X-20.9706 Y17.4489 
G01 X-21.0471 Y17.3344 
G01 X-21.1444 Y17.2370 
G01 X-21.2589 Y17.1606 
G01 X-21.3861 Y17.1079 
G01 X-21.5212 Y17.0810 
G01 X-21.6588 Y17.0810 
G01 X-21.7939 Y17.1079 
G01 X-21.9211 Y17.1606 
G01 X-22.0356 Y17.2370 
G01 X-22.1329 Y17.3344 
G01 X-22.2094 Y17.4489 
G01 X-22.2621 Y17.5761 
G01 X-22.2890 Y17.7112 
G00 Z2.0000 
G00 X-16.1789 Y18.3994 
G01 Z-0.3000 F100.00 
G01 X-16.0644 Y18.3229 F250.00 
G01 X-15.9671 Y18.2256 
G01 X-15.8906 Y18.1111 
G01 X-15.8784 Y18.0818 
G01 X-13.6966 Y15.9000 
G01 X-11.5250 Y15.9000 
G01 X-11.3975 Y15.8746 
G01 X-11.2774 Y15.8249 
G01 X-11.1693 Y15.7527 
G01 X-11.0773 Y15.6607 
G01 X-11.0051 Y15.5526 
G01 X-10.9554 Y15.4325 
G01 X-10.9300 Y15.3050 
G01 X-10.9300 Y15.1750 
G01 X-10.9554 Y15.0475 
G01 X-11.0051 Y14.9274 
G01 X-11.0773 Y14.8193 
G01 X-11.1693 Y14.7273 
G01 X-11.2774 Y14.6551 
G01 X-11.3975 Y14.6054 
G01 X-11.5250 Y14.5800 
G01 X-13.3270 Y14.5800 
G01 X-13.3270 Y11.6085 
G01 X-11.2939 Y9.5754 
G01 X-11.1461 Y9.5754 
G01 X-10.7446 Y9.1739 
G01 X-10.7446 Y8.6061 
G01 X-11.1461 Y8.2046 
G01 X-11.7139 Y8.2046 
G01 X-11.7861 Y8.2768 
G01 X-11.8545 Y8.3051 
G01 X-11.9626 Y8.3773 
G01 X-12.0545 Y8.4693 
G01 X-14.4077 Y10.8225 
G01 X-14.4997 Y10.9144 
G01 X-14.5719 Y11.0225 
G01 X-14.6216 Y11.1426 
G01 X-14.6470 Y11.2701 
G01 X-14.6470 Y14.9836 
G01 X-16.8118 Y17.1484 
G01 X-16.8411 Y17.1606 
G01 X-16.9556 Y17.2370 
G01 X-17.0529 Y17.3344 
G01 X-17.1294 Y17.4489 
G01 X-17.1416 Y17.4782 
G01 X-19.3518 Y19.6884 
G01 X-19.3811 Y19.7006 
G01 X-19.4956 Y19.7771 
G01 X-19.5929 Y19.8744 
G01 X-19.6694 Y19.9889 
G01 X-19.7221 Y20.1161 
G01 X-19.7490 Y20.2512 
G01 X-19.7490 Y20.3888 
G01 X-19.7221 Y20.5239 
G01 X-19.6694 Y20.6511 
G01 X-19.5929 Y20.7656 
G01 X-19.4956 Y20.8629 
G01 X-19.3811 Y20.9394 
G01 X-19.3603 Y20.9480 
G01 X-14.6500 Y25.6584 
G01 X-14.6500 Y31.7950 
G01 X-14.6246 Y31.9225 
G01 X-14.5749 Y32.0426 
G01 X-14.5027 Y32.1507 
G01 X-13.3854 Y33.2680 
G01 X-13.3854 Y33.3039 
G01 X-12.9839 Y33.7054 
G01 X-12.4161 Y33.7054 
G01 X-12.0146 Y33.3039 
G01 X-12.0146 Y32.7361 
G01 X-12.4161 Y32.3346 
G01 X-12.4520 Y32.3346 
G01 X-13.3300 Y31.4566 
G01 X-13.3300 Y25.3200 
G01 X-13.3554 Y25.1925 
G01 X-13.4051 Y25.0724 
G01 X-13.4773 Y24.9643 
G01 X-13.5693 Y24.8723 
G01 X-18.1191 Y20.3225 
G01 X-16.2082 Y18.4116 
G01 X-16.1789 Y18.3994 
G00 Z2.0000 
G00 X-41.4440 Y24.0666 
G01 Z-0.3000 F100.00 
G01 X-41.4440 Y24.1934 F250.00 
G01 X-41.4192 Y24.3178 
G01 X-41.3707 Y24.4350 
G01 X-41.3002 Y24.5405 
G01 X-41.2105 Y24.6302 
G01 X-41.1050 Y24.7007 
G01 X-40.9878 Y24.7492 
G01 X-40.8634 Y24.7740 
G01 X-40.7366 Y24.7740 
G01 X-40.6121 Y24.7492 
G01 X-40.4950 Y24.7007 
G01 X-40.3895 Y24.6302 
G01 X-40.2998 Y24.5405 
G01 X-40.2293 Y24.4350 
G01 X-40.1808 Y24.3178 
G01 X-40.1560 Y24.1934 
G01 X-40.1560 Y24.0666 
G01 X-40.1808 Y23.9422 
G01 X-40.2293 Y23.8250 
G01 X-40.2998 Y23.7195 
G01 X-40.3895 Y23.6298 
G01 X-40.4950 Y23.5593 
G01 X-40.6121 Y23.5108 
G01 X-40.7366 Y23.4860 
G01 X-40.8634 Y23.4860 
G01 X-40.9878 Y23.5108 
G01 X-41.1050 Y23.5593 
G01 X-41.2105 Y23.6298 
G01 X-41.3002 Y23.7195 
G01 X-41.3707 Y23.8250 
G01 X-41.4192 Y23.9422 
G01 X-41.4440 Y24.0666 
G00 Z2.0000 
G00 X-41.4440 Y18.9866 
G01 Z-0.3000 F100.00 
G01 X-41.4440 Y19.1134 F250.00 
G01 X-41.4192 Y19.2378 
G01 X-41.3707 Y19.3550 
G01 X-41.3002 Y19.4605 
G01 X-41.2105 Y19.5502 
G01 X-41.1050 Y19.6207 
G01 X-40.9878 Y19.6692 
G01 X-40.8634 Y19.6940 
G01 X-40.7366 Y19.6940 
G01 X-40.6121 Y19.6692 
G01 X-40.4950 Y19.6207 
G01 X-40.3895 Y19.5502 
G01 X-40.2998 Y19.4605 
G01 X-40.2293 Y19.3550 
G01 X-40.1808 Y19.2378 
G01 X-40.1560 Y19.1134 
G01 X-40.1560 Y18.9866 
G01 X-40.1808 Y18.8621 
G01 X-40.2293 Y18.7449 
G01 X-40.2998 Y18.6395 
G01 X-40.3895 Y18.5498 
G01 X-40.4950 Y18.4793 
G01 X-40.6121 Y18.4307 
G01 X-40.7366 Y18.4060 
G01 X-40.8634 Y18.4060 
G01 X-40.9878 Y18.4307 
G01 X-41.1050 Y18.4793 
G01 X-41.2105 Y18.5498 
G01 X-41.3002 Y18.6395 
G01 X-41.3707 Y18.7449 
G01 X-41.4192 Y18.8621 
G01 X-41.4440 Y18.9866 
G00 Z2.0000 
G00 X-41.4440 Y16.4466 
G01 Z-0.3000 F100.00 
G01 X-41.4440 Y16.5734 F250.00 
G01 X-41.4192 Y16.6978 
G01 X-41.3707 Y16.8150 
G01 X-41.3002 Y16.9205 
G01 X-41.2105 Y17.0102 
G01 X-41.1050 Y17.0807 
G01 X-40.9878 Y17.1292 
G01 X-40.8634 Y17.1540 
G01 X-40.7366 Y17.1540 
G01 X-40.6121 Y17.1292 
G01 X-40.4950 Y17.0807 
G01 X-40.3895 Y17.0102 
G01 X-40.2998 Y16.9205 
G01 X-40.2293 Y16.8150 
G01 X-40.1808 Y16.6978 
G01 X-40.1560 Y16.5734 
G01 X-40.1560 Y16.4466 
G01 X-40.1808 Y16.3222 
G01 X-40.2293 Y16.2050 
G01 X-40.2998 Y16.0995 
G01 X-40.3895 Y16.0098 
G01 X-40.4950 Y15.9393 
G01 X-40.6121 Y15.8908 
G01 X-40.7366 Y15.8660 
G01 X-40.8634 Y15.8660 
G01 X-40.9878 Y15.8908 
G01 X-41.1050 Y15.9393 
G01 X-41.2105 Y16.0098 
G01 X-41.3002 Y16.0995 
G01 X-41.3707 Y16.2050 
G01 X-41.4192 Y16.3222 
G01 X-41.4440 Y16.4466 
G00 Z2.0000 
G00 X-33.5040 Y21.5266 
G01 Z-0.3000 F100.00 
G01 X-33.5040 Y21.6534 F250.00 
G01 X-33.4792 Y21.7778 
G01 X-33.4307 Y21.8950 
G01 X-33.3602 Y22.0005 
G01 X-33.2705 Y22.0902 
G01 X-33.1650 Y22.1607 
G01 X-33.0478 Y22.2092 
G01 X-32.9234 Y22.2340 
G01 X-32.7966 Y22.2340 
G01 X-32.6722 Y22.2092 
G01 X-32.5549 Y22.1607 
G01 X-32.4495 Y22.0902 
G01 X-32.3598 Y22.0005 
G01 X-32.2893 Y21.8950 
G01 X-32.2407 Y21.7778 
G01 X-32.2160 Y21.6534 
G01 X-32.2160 Y21.5266 
G01 X-32.2407 Y21.4022 
G01 X-32.2893 Y21.2850 
G01 X-32.3598 Y21.1795 
G01 X-32.4495 Y21.0898 
G01 X-32.5549 Y21.0193 
G01 X-32.6722 Y20.9708 
G01 X-32.7966 Y20.9460 
G01 X-32.9234 Y20.9460 
G01 X-33.0478 Y20.9708 
G01 X-33.1650 Y21.0193 
G01 X-33.2705 Y21.0898 
G01 X-33.3602 Y21.1795 
G01 X-33.4307 Y21.2850 
G01 X-33.4792 Y21.4022 
G01 X-33.5040 Y21.5266 
G00 Z2.0000 
G00 X-33.5040 Y23.5006 
G01 Z-0.3000 F100.00 
G01 X-33.5040 Y24.7594 F250.00 
G01 X-33.4894 Y24.7740 
G01 X-32.2306 Y24.7740 
G01 X-32.2160 Y24.7594 
G01 X-32.2160 Y23.5006 
G01 X-32.2306 Y23.4860 
G01 X-33.4894 Y23.4860 
G01 X-33.5040 Y23.5006 
G00 Z2.0000 
G00 X-19.7490 Y29.1412 
G01 Z-0.3000 F100.00 
G01 X-19.7490 Y29.2788 F250.00 
G01 X-19.7221 Y29.4139 
G01 X-19.6694 Y29.5411 
G01 X-19.5929 Y29.6556 
G01 X-19.4956 Y29.7529 
G01 X-19.3811 Y29.8294 
G01 X-19.2539 Y29.8821 
G01 X-19.1188 Y29.9090 
G01 X-18.9812 Y29.9090 
G01 X-18.8461 Y29.8821 
G01 X-18.7189 Y29.8294 
G01 X-18.6044 Y29.7529 
G01 X-18.5070 Y29.6556 
G01 X-18.4306 Y29.5411 
G01 X-18.3779 Y29.4139 
G01 X-18.3510 Y29.2788 
G01 X-18.3510 Y29.1412 
G01 X-18.3779 Y29.0061 
G01 X-18.4306 Y28.8789 
G01 X-18.5070 Y28.7644 
G01 X-18.6044 Y28.6670 
G01 X-18.7189 Y28.5906 
G01 X-18.8461 Y28.5379 
G01 X-18.9812 Y28.5110 
G01 X-19.1188 Y28.5110 
G01 X-19.2539 Y28.5379 
G01 X-19.3811 Y28.5906 
G01 X-19.4956 Y28.6670 
G01 X-19.5929 Y28.7644 
G01 X-19.6694 Y28.8789 
G01 X-19.7221 Y29.0061 
G01 X-19.7490 Y29.1412 
G00 Z2.0000 
G00 X-22.2890 Y26.6012 
G01 Z-0.3000 F100.00 
G01 X-22.2890 Y26.7388 F250.00 
G01 X-22.2621 Y26.8739 
G01 X-22.2594 Y26.8805 
G01 X-32.0409 Y36.6620 
G01 X-41.2565 Y36.6620 
G01 X-43.7150 Y34.2035 
G01 X-43.7150 Y33.8070 
G01 X-43.6105 Y33.8070 
G01 X-43.4584 Y33.7768 
G01 X-43.3152 Y33.7174 
G01 X-43.1863 Y33.6313 
G01 X-43.0767 Y33.5217 
G01 X-42.9906 Y33.3928 
G01 X-42.9312 Y33.2496 
G01 X-42.9010 Y33.0975 
G01 X-42.9010 Y32.9425 
G01 X-42.9312 Y32.7904 
G01 X-42.9906 Y32.6472 
G01 X-43.0767 Y32.5183 
G01 X-43.1863 Y32.4087 
G01 X-43.3152 Y32.3226 
G01 X-43.4584 Y32.2632 
G01 X-43.6105 Y32.2330 
G01 X-45.2895 Y32.2330 
G01 X-45.4416 Y32.2632 
G01 X-45.5848 Y32.3226 
G01 X-45.7137 Y32.4087 
G01 X-45.8233 Y32.5183 
G01 X-45.9094 Y32.6472 
G01 X-45.9688 Y32.7904 
G01 X-45.9990 Y32.9425 
G01 X-45.9990 Y33.0975 
G01 X-45.9688 Y33.2496 
G01 X-45.9094 Y33.3928 
G01 X-45.8233 Y33.5217 
G01 X-45.7137 Y33.6313 
G01 X-45.5848 Y33.7174 
G01 X-45.4416 Y33.7768 
G01 X-45.2895 Y33.8070 
G01 X-45.0350 Y33.8070 
G01 X-45.0350 Y34.5419 
G01 X-45.0096 Y34.6694 
G01 X-44.9599 Y34.7895 
G01 X-44.8877 Y34.8976 
G01 X-42.0425 Y37.7427 
G01 X-41.9506 Y37.8347 
G01 X-41.8425 Y37.9069 
G01 X-41.7224 Y37.9566 
G01 X-41.5949 Y37.9820 
G01 X-31.7026 Y37.9820 
G01 X-31.5750 Y37.9566 
G01 X-31.4549 Y37.9069 
G01 X-31.3468 Y37.8347 
G01 X-21.1693 Y27.6571 
G01 X-21.0773 Y27.5652 
G01 X-21.0051 Y27.4571 
G01 X-20.9554 Y27.3370 
G01 X-20.9300 Y27.2094 
G01 X-20.9300 Y26.9032 
G01 X-20.9179 Y26.8739 
G01 X-20.8910 Y26.7388 
G01 X-20.8910 Y26.6012 
G01 X-20.9179 Y26.4661 
G01 X-20.9706 Y26.3389 
G01 X-21.0471 Y26.2244 
G01 X-21.1444 Y26.1271 
G01 X-21.2589 Y26.0506 
G01 X-21.3861 Y25.9979 
G01 X-21.5212 Y25.9710 
G01 X-21.6588 Y25.9710 
G01 X-21.7939 Y25.9979 
G01 X-21.9211 Y26.0506 
G01 X-22.0356 Y26.1271 
G01 X-22.1329 Y26.2244 
G01 X-22.2094 Y26.3389 
G01 X-22.2621 Y26.4661 
G01 X-22.2890 Y26.6012 
G00 Z2.0000 
G00 X-17.2090 Y26.6012 
G01 Z-0.3000 F100.00 
G01 X-17.2090 Y26.7388 F250.00 
G01 X-17.1821 Y26.8739 
G01 X-17.1294 Y27.0011 
G01 X-17.0529 Y27.1156 
G01 X-16.9556 Y27.2129 
G01 X-16.8411 Y27.2894 
G01 X-16.7139 Y27.3421 
G01 X-16.5788 Y27.3690 
G01 X-16.4412 Y27.3690 
G01 X-16.3061 Y27.3421 
G01 X-16.1789 Y27.2894 
G01 X-16.0644 Y27.2129 
G01 X-15.9671 Y27.1156 
G01 X-15.8906 Y27.0011 
G01 X-15.8379 Y26.8739 
G01 X-15.8110 Y26.7388 
G01 X-15.8110 Y26.6012 
G01 X-15.8379 Y26.4661 
G01 X-15.8906 Y26.3389 
G01 X-15.9671 Y26.2244 
G01 X-16.0644 Y26.1271 
G01 X-16.1789 Y26.0506 
G01 X-16.3061 Y25.9979 
G01 X-16.4412 Y25.9710 
G01 X-16.5788 Y25.9710 
G01 X-16.7139 Y25.9979 
G01 X-16.8411 Y26.0506 
G01 X-16.9556 Y26.1271 
G01 X-17.0529 Y26.2244 
G01 X-17.1294 Y26.3389 
G01 X-17.1821 Y26.4661 
G01 X-17.2090 Y26.6012 
G00 Z2.0000 
G00 X-21.0054 Y32.7361 
G01 Z-0.3000 F100.00 
G01 X-21.0054 Y33.3039 F250.00 
G01 X-20.6039 Y33.7054 
G01 X-20.0361 Y33.7054 
G01 X-19.6346 Y33.3039 
G01 X-19.6346 Y32.7361 
G01 X-20.0361 Y32.3346 
G01 X-20.6039 Y32.3346 
G01 X-21.0054 Y32.7361 
G00 Z2.0000 
G00 X-41.4440 Y35.4966 
G01 Z-0.3000 F100.00 
G01 X-41.4440 Y35.6234 F250.00 
G01 X-41.4192 Y35.7478 
G01 X-41.3707 Y35.8650 
G01 X-41.3002 Y35.9705 
G01 X-41.2105 Y36.0602 
G01 X-41.1050 Y36.1307 
G01 X-40.9878 Y36.1792 
G01 X-40.8634 Y36.2040 
G01 X-40.7366 Y36.2040 
G01 X-40.6121 Y36.1792 
G01 X-40.4950 Y36.1307 
G01 X-40.3895 Y36.0602 
G01 X-40.2998 Y35.9705 
G01 X-40.2293 Y35.8650 
G01 X-40.1808 Y35.7478 
G01 X-40.1560 Y35.6234 
G01 X-40.1560 Y35.4966 
G01 X-40.1808 Y35.3722 
G01 X-40.2293 Y35.2550 
G01 X-40.2998 Y35.1495 
G01 X-40.3895 Y35.0598 
G01 X-40.4950 Y34.9893 
G01 X-40.6121 Y34.9408 
G01 X-40.7366 Y34.9160 
G01 X-40.8634 Y34.9160 
G01 X-40.9878 Y34.9408 
G01 X-41.1050 Y34.9893 
G01 X-41.2105 Y35.0598 
G01 X-41.3002 Y35.1495 
G01 X-41.3707 Y35.2550 
G01 X-41.4192 Y35.3722 
G01 X-41.4440 Y35.4966 
G00 Z2.0000 
G00 X-41.4440 Y30.4166 
G01 Z-0.3000 F100.00 
G01 X-41.4440 Y30.5434 F250.00 
G01 X-41.4192 Y30.6678 
G01 X-41.3707 Y30.7850 
G01 X-41.3002 Y30.8905 
G01 X-41.2105 Y30.9802 
G01 X-41.1050 Y31.0507 
G01 X-40.9878 Y31.0992 
G01 X-40.8634 Y31.1240 
G01 X-40.7366 Y31.1240 
G01 X-40.6121 Y31.0992 
G01 X-40.4950 Y31.0507 
G01 X-40.3895 Y30.9802 
G01 X-40.2998 Y30.8905 
G01 X-40.2293 Y30.7850 
G01 X-40.1808 Y30.6678 
G01 X-40.1560 Y30.5434 
G01 X-40.1560 Y30.4166 
G01 X-40.1808 Y30.2922 
G01 X-40.2293 Y30.1750 
G01 X-40.2998 Y30.0695 
G01 X-40.3895 Y29.9798 
G01 X-40.4950 Y29.9093 
G01 X-40.6121 Y29.8608 
G01 X-40.7366 Y29.8360 
G01 X-40.8634 Y29.8360 
G01 X-40.9878 Y29.8608 
G01 X-41.1050 Y29.9093 
G01 X-41.2105 Y29.9798 
G01 X-41.3002 Y30.0695 
G01 X-41.3707 Y30.1750 
G01 X-41.4192 Y30.2922 
G01 X-41.4440 Y30.4166 
G00 Z2.0000 
G00 X-41.4440 Y27.8766 
G01 Z-0.3000 F100.00 
G01 X-41.4440 Y28.0034 F250.00 
G01 X-41.4192 Y28.1278 
G01 X-41.3707 Y28.2450 
G01 X-41.3002 Y28.3505 
G01 X-41.2105 Y28.4402 
G01 X-41.1050 Y28.5107 
G01 X-40.9878 Y28.5592 
G01 X-40.8634 Y28.5840 
G01 X-40.7366 Y28.5840 
G01 X-40.6121 Y28.5592 
G01 X-40.4950 Y28.5107 
G01 X-40.3895 Y28.4402 
G01 X-40.2998 Y28.3505 
G01 X-40.2293 Y28.2450 
G01 X-40.1808 Y28.1278 
G01 X-40.1560 Y28.0034 
G01 X-40.1560 Y27.8766 
G01 X-40.1808 Y27.7522 
G01 X-40.2293 Y27.6349 
G01 X-40.2998 Y27.5295 
G01 X-40.3895 Y27.4398 
G01 X-40.4950 Y27.3693 
G01 X-40.6121 Y27.3208 
G01 X-40.7366 Y27.2960 
G01 X-40.8634 Y27.2960 
G01 X-40.9878 Y27.3208 
G01 X-41.1050 Y27.3693 
G01 X-41.2105 Y27.4398 
G01 X-41.3002 Y27.5295 
G01 X-41.3707 Y27.6349 
G01 X-41.4192 Y27.7522 
G01 X-41.4440 Y27.8766 
G00 Z2.0000 
G00 X-33.5040 Y32.9566 
G01 Z-0.3000 F100.00 
G01 X-33.5040 Y33.0834 F250.00 
G01 X-33.4792 Y33.2078 
G01 X-33.4307 Y33.3250 
G01 X-33.3602 Y33.4305 
G01 X-33.2705 Y33.5202 
G01 X-33.1650 Y33.5907 
G01 X-33.0478 Y33.6392 
G01 X-32.9234 Y33.6640 
G01 X-32.7966 Y33.6640 
G01 X-32.6722 Y33.6392 
G01 X-32.5549 Y33.5907 
G01 X-32.4495 Y33.5202 
G01 X-32.3598 Y33.4305 
G01 X-32.2893 Y33.3250 
G01 X-32.2407 Y33.2078 
G01 X-32.2160 Y33.0834 
G01 X-32.2160 Y32.9566 
G01 X-32.2407 Y32.8321 
G01 X-32.2893 Y32.7150 
G01 X-32.3598 Y32.6095 
G01 X-32.4495 Y32.5198 
G01 X-32.5549 Y32.4493 
G01 X-32.6722 Y32.4008 
G01 X-32.7966 Y32.3760 
G01 X-32.9234 Y32.3760 
G01 X-33.0478 Y32.4008 
G01 X-33.1650 Y32.4493 
G01 X-33.2705 Y32.5198 
G01 X-33.3602 Y32.6095 
G01 X-33.4307 Y32.7150 
G01 X-33.4792 Y32.8321 
G01 X-33.5040 Y32.9566 
G00 Z2.0000 
G00 X-33.5040 Y34.9306 
G01 Z-0.3000 F100.00 
G01 X-33.5040 Y36.1894 F250.00 
G01 X-33.4894 Y36.2040 
G01 X-32.2306 Y36.2040 
G01 X-32.2160 Y36.1894 
G01 X-32.2160 Y34.9306 
G01 X-32.2306 Y34.9160 
G01 X-33.4894 Y34.9160 
G01 X-33.5040 Y34.9306 
G00 Z2.0000 
G00 X-39.9480 Y12.4208 
G01 Z-0.3000 F100.00 
G01 X-40.0059 Y12.2811 F250.00 
G01 X-39.9480 Y12.3389 
G01 X-39.9480 Y12.4208 
G00 Z2.0000 
G00 X-26.2573 Y4.0837 
G01 Z-0.3000 F100.00 
G01 X-26.3705 Y4.0469 F250.00 
G01 X-26.2421 Y4.0469 
G01 X-26.1513 Y4.1377 
G01 X-26.2573 Y4.0837 
G00 Z2.0000 
G00 X-33.6374 Y7.1744 
G01 Z-0.3000 F100.00 
G01 X-33.6523 Y7.1965 F250.00 
G01 X-33.7120 Y7.3408 
G01 X-33.7120 Y7.2489 
G01 X-33.6374 Y7.1744 
G00 Z2.0000 
G00 X-32.0536 Y18.6190 
G01 Z-0.3000 F100.00 
G01 X-32.0850 Y18.5720 F250.00 
G01 X-31.9920 Y18.6649 
G01 X-31.9920 Y18.7676 
G01 X-32.0536 Y18.6190 
G00 Z2.0000 
G00 X-39.9480 Y23.8508 
G01 Z-0.3000 F100.00 
G01 X-40.0077 Y23.7065 F250.00 
G01 X-40.0830 Y23.5940 
G01 X-39.9480 Y23.7289 
G01 X-39.9480 Y23.8508 
G00 Z2.0000 
G00 X-40.0830 Y31.0160 
G01 Z-0.3000 F100.00 
G01 X-40.0077 Y30.9035 F250.00 
G01 X-39.9480 Y30.7592 
G01 X-39.9480 Y30.8811 
G01 X-40.0830 Y31.0160 
G00 Z2.0000 
G00 X-40.0059 Y19.4689 
G01 Z-0.3000 F100.00 
G01 X-39.9480 Y19.3292 F250.00 
G01 X-39.9480 Y19.4111 
G01 X-40.0059 Y19.4689 
G00 Z2.0000 
G00 X-41.2050 Y36.3599 
G01 Z-0.3000 F100.00 
G01 X-41.0792 Y36.4120 F250.00 
G01 X-41.1529 Y36.4120 
G01 X-41.2050 Y36.3599 
G00 Z2.0000 
G00 X-33.7540 Y32.9319 
G01 Z-0.3000 F100.00 
G01 X-33.7540 Y33.1080 F250.00 
G01 X-33.7196 Y33.2808 
G01 X-33.6523 Y33.4435 
G01 X-33.5544 Y33.5899 
G01 X-33.4299 Y33.7144 
G01 X-33.2835 Y33.8122 
G01 X-33.1208 Y33.8796 
G01 X-32.9481 Y33.9140 
G01 X-32.7719 Y33.9140 
G01 X-32.5992 Y33.8796 
G01 X-32.4365 Y33.8122 
G01 X-32.2901 Y33.7144 
G01 X-32.1656 Y33.5899 
G01 X-32.0677 Y33.4435 
G01 X-32.0004 Y33.2808 
G01 X-31.9660 Y33.1080 
G01 X-31.9660 Y32.9319 
G01 X-32.0004 Y32.7592 
G01 X-32.0677 Y32.5965 
G01 X-32.1656 Y32.4501 
G01 X-32.2901 Y32.3256 
G01 X-32.4365 Y32.2277 
G01 X-32.5992 Y32.1604 
G01 X-32.7719 Y32.1260 
G01 X-32.9481 Y32.1260 
G01 X-33.1208 Y32.1604 
G01 X-33.2835 Y32.2277 
G01 X-33.4299 Y32.3256 
G01 X-33.5544 Y32.4501 
G01 X-33.6523 Y32.5965 
G01 X-33.7196 Y32.7592 
G01 X-33.7540 Y32.9319 
G00 Z2.0000 
G00 X-41.6940 Y35.4719 
G01 Z-0.3000 F100.00 
G01 X-41.6940 Y35.6481 F250.00 
G01 X-41.6596 Y35.8208 
G01 X-41.5999 Y35.9650 
G01 X-43.4650 Y34.0999 
G01 X-43.4650 Y34.0346 
G01 X-43.4452 Y34.0315 
G01 X-43.2899 Y33.9810 
G01 X-43.1445 Y33.9069 
G01 X-43.0124 Y33.8110 
G01 X-42.8970 Y33.6956 
G01 X-42.8011 Y33.5635 
G01 X-42.7270 Y33.4181 
G01 X-42.6765 Y33.2628 
G01 X-42.6510 Y33.1016 
G01 X-42.6510 Y32.9384 
G01 X-42.6765 Y32.7772 
G01 X-42.7270 Y32.6219 
G01 X-42.8011 Y32.4765 
G01 X-42.8970 Y32.3444 
G01 X-43.0124 Y32.2290 
G01 X-43.1445 Y32.1331 
G01 X-43.2899 Y32.0590 
G01 X-43.4452 Y32.0085 
G01 X-43.6064 Y31.9830 
G01 X-45.2936 Y31.9830 
G01 X-45.4548 Y32.0085 
G01 X-45.6101 Y32.0590 
G01 X-45.7555 Y32.1331 
G01 X-45.8876 Y32.2290 
G01 X-46.0030 Y32.3444 
G01 X-46.0989 Y32.4765 
G01 X-46.1730 Y32.6219 
G01 X-46.2235 Y32.7772 
G01 X-46.2490 Y32.9384 
G01 X-46.2490 Y33.1016 
G01 X-46.2235 Y33.2628 
G01 X-46.1730 Y33.4181 
G01 X-46.0989 Y33.5635 
G01 X-46.0030 Y33.6956 
G01 X-45.8876 Y33.8110 
G01 X-45.7555 Y33.9069 
G01 X-45.6101 Y33.9810 
G01 X-45.4548 Y34.0315 
G01 X-45.2936 Y34.0570 
G01 X-45.2850 Y34.0570 
G01 X-45.2850 Y34.5665 
G01 X-45.2500 Y34.7423 
G01 X-45.1814 Y34.9079 
G01 X-45.0818 Y35.0569 
G01 X-42.2367 Y37.9021 
G01 X-42.1099 Y38.0288 
G01 X-41.9609 Y38.1284 
G01 X-41.7953 Y38.1970 
G01 X-41.6195 Y38.2320 
G01 X-31.6779 Y38.2320 
G01 X-31.5021 Y38.1970 
G01 X-31.3365 Y38.1284 
G01 X-31.1875 Y38.0288 
G01 X-21.0099 Y27.8513 
G01 X-20.8832 Y27.7245 
G01 X-20.7836 Y27.5755 
G01 X-20.7150 Y27.4099 
G01 X-20.6800 Y27.2341 
G01 X-20.6800 Y26.9529 
G01 X-20.6775 Y26.9468 
G01 X-20.6410 Y26.7635 
G01 X-20.6410 Y26.5765 
G01 X-20.6775 Y26.3932 
G01 X-20.7490 Y26.2205 
G01 X-20.8529 Y26.0650 
G01 X-20.9850 Y25.9329 
G01 X-21.1405 Y25.8290 
G01 X-21.3132 Y25.7575 
G01 X-21.4965 Y25.7210 
G01 X-21.6835 Y25.7210 
G01 X-21.8668 Y25.7575 
G01 X-22.0395 Y25.8290 
G01 X-22.1950 Y25.9329 
G01 X-22.3271 Y26.0650 
G01 X-22.4310 Y26.2205 
G01 X-22.5025 Y26.3932 
G01 X-22.5390 Y26.5765 
G01 X-22.5390 Y26.7635 
G01 X-22.5319 Y26.7994 
G01 X-31.9727 Y36.2402 
G01 X-31.9660 Y36.2152 
G01 X-31.9660 Y34.9048 
G01 X-31.9847 Y34.8349 
G01 X-32.0209 Y34.7721 
G01 X-32.0721 Y34.7209 
G01 X-32.1349 Y34.6847 
G01 X-32.2048 Y34.6660 
G01 X-33.5152 Y34.6660 
G01 X-33.5851 Y34.6847 
G01 X-33.6479 Y34.7209 
G01 X-33.6991 Y34.7721 
G01 X-33.7353 Y34.8349 
G01 X-33.7540 Y34.9048 
G01 X-33.7540 Y36.2152 
G01 X-33.7353 Y36.2851 
G01 X-33.6991 Y36.3479 
G01 X-33.6479 Y36.3991 
G01 X-33.6254 Y36.4120 
G01 X-40.5208 Y36.4120 
G01 X-40.3765 Y36.3523 
G01 X-40.2301 Y36.2544 
G01 X-40.1056 Y36.1299 
G01 X-40.0077 Y35.9835 
G01 X-39.9404 Y35.8208 
G01 X-39.9060 Y35.6481 
G01 X-39.9060 Y35.4719 
G01 X-39.9404 Y35.2992 
G01 X-40.0077 Y35.1365 
G01 X-40.1056 Y34.9901 
G01 X-40.2301 Y34.8656 
G01 X-40.3765 Y34.7677 
G01 X-40.5392 Y34.7004 
G01 X-40.7119 Y34.6660 
G01 X-40.8880 Y34.6660 
G01 X-41.0608 Y34.7004 
G01 X-41.2235 Y34.7677 
G01 X-41.3699 Y34.8656 
G01 X-41.4944 Y34.9901 
G01 X-41.5922 Y35.1365 
G01 X-41.6596 Y35.2992 
G01 X-41.6940 Y35.4719 
G00 Z2.0000 
G00 X-21.2554 Y32.6325 
G01 Z-0.3000 F100.00 
G01 X-21.2554 Y33.4075 F250.00 
G01 X-20.7075 Y33.9554 
G01 X-19.9325 Y33.9554 
G01 X-19.3846 Y33.4075 
G01 X-19.3846 Y32.6325 
G01 X-19.9325 Y32.0846 
G01 X-20.7075 Y32.0846 
G01 X-21.2554 Y32.6325 
G00 Z2.0000 
G00 X-17.4590 Y26.5765 
G01 Z-0.3000 F100.00 
G01 X-17.4590 Y26.7635 F250.00 
G01 X-17.4225 Y26.9468 
G01 X-17.3510 Y27.1195 
G01 X-17.2471 Y27.2750 
G01 X-17.1150 Y27.4071 
G01 X-16.9595 Y27.5110 
G01 X-16.7868 Y27.5825 
G01 X-16.6035 Y27.6190 
G01 X-16.4165 Y27.6190 
G01 X-16.2332 Y27.5825 
G01 X-16.0605 Y27.5110 
G01 X-15.9050 Y27.4071 
G01 X-15.7729 Y27.2750 
G01 X-15.6690 Y27.1195 
G01 X-15.5975 Y26.9468 
G01 X-15.5610 Y26.7635 
G01 X-15.5610 Y26.5765 
G01 X-15.5975 Y26.3932 
G01 X-15.6690 Y26.2205 
G01 X-15.7729 Y26.0650 
G01 X-15.9050 Y25.9329 
G01 X-16.0605 Y25.8290 
G01 X-16.2332 Y25.7575 
G01 X-16.4165 Y25.7210 
G01 X-16.6035 Y25.7210 
G01 X-16.7868 Y25.7575 
G01 X-16.9595 Y25.8290 
G01 X-17.1150 Y25.9329 
G01 X-17.2471 Y26.0650 
G01 X-17.3510 Y26.2205 
G01 X-17.4225 Y26.3932 
G01 X-17.4590 Y26.5765 
G00 Z2.0000 
G00 X-19.9990 Y29.1165 
G01 Z-0.3000 F100.00 
G01 X-19.9990 Y29.3035 F250.00 
G01 X-19.9625 Y29.4868 
G01 X-19.8910 Y29.6595 
G01 X-19.7871 Y29.8150 
G01 X-19.6549 Y29.9471 
G01 X-19.4995 Y30.0510 
G01 X-19.3268 Y30.1225 
G01 X-19.1435 Y30.1590 
G01 X-18.9565 Y30.1590 
G01 X-18.7732 Y30.1225 
G01 X-18.6005 Y30.0510 
G01 X-18.4450 Y29.9471 
G01 X-18.3129 Y29.8150 
G01 X-18.2090 Y29.6595 
G01 X-18.1375 Y29.4868 
G01 X-18.1010 Y29.3035 
G01 X-18.1010 Y29.1165 
G01 X-18.1375 Y28.9332 
G01 X-18.2090 Y28.7605 
G01 X-18.3129 Y28.6050 
G01 X-18.4450 Y28.4729 
G01 X-18.6005 Y28.3690 
G01 X-18.7732 Y28.2975 
G01 X-18.9565 Y28.2610 
G01 X-19.1435 Y28.2610 
G01 X-19.3268 Y28.2975 
G01 X-19.4995 Y28.3690 
G01 X-19.6549 Y28.4729 
G01 X-19.7871 Y28.6050 
G01 X-19.8910 Y28.7605 
G01 X-19.9625 Y28.9332 
G01 X-19.9990 Y29.1165 
G00 Z2.0000 
G00 X-41.6940 Y24.0419 
G01 Z-0.3000 F100.00 
G01 X-41.6940 Y24.2181 F250.00 
G01 X-41.6596 Y24.3908 
G01 X-41.5922 Y24.5535 
G01 X-41.4944 Y24.6999 
G01 X-41.3699 Y24.8244 
G01 X-41.2235 Y24.9223 
G01 X-41.0608 Y24.9896 
G01 X-40.8880 Y25.0240 
G01 X-40.7119 Y25.0240 
G01 X-40.5392 Y24.9896 
G01 X-40.3765 Y24.9223 
G01 X-40.2301 Y24.8244 
G01 X-40.1056 Y24.6999 
G01 X-40.0077 Y24.5535 
G01 X-39.9480 Y24.4092 
G01 X-39.9480 Y27.6608 
G01 X-40.0077 Y27.5165 
G01 X-40.1056 Y27.3701 
G01 X-40.2301 Y27.2456 
G01 X-40.3765 Y27.1477 
G01 X-40.5392 Y27.0804 
G01 X-40.7119 Y27.0460 
G01 X-40.8880 Y27.0460 
G01 X-41.0608 Y27.0804 
G01 X-41.2235 Y27.1477 
G01 X-41.3699 Y27.2456 
G01 X-41.4944 Y27.3701 
G01 X-41.5922 Y27.5165 
G01 X-41.6596 Y27.6792 
G01 X-41.6940 Y27.8519 
G01 X-41.6940 Y28.0281 
G01 X-41.6596 Y28.2008 
G01 X-41.5922 Y28.3635 
G01 X-41.4944 Y28.5099 
G01 X-41.3699 Y28.6344 
G01 X-41.2235 Y28.7323 
G01 X-41.0608 Y28.7996 
G01 X-40.8880 Y28.8340 
G01 X-40.7119 Y28.8340 
G01 X-40.5392 Y28.7996 
G01 X-40.3765 Y28.7323 
G01 X-40.2301 Y28.6344 
G01 X-40.1056 Y28.5099 
G01 X-40.0077 Y28.3635 
G01 X-39.9480 Y28.2192 
G01 X-39.9480 Y30.2008 
G01 X-40.0077 Y30.0565 
G01 X-40.1056 Y29.9101 
G01 X-40.2301 Y29.7856 
G01 X-40.3765 Y29.6877 
G01 X-40.5392 Y29.6204 
G01 X-40.7119 Y29.5860 
G01 X-40.8880 Y29.5860 
G01 X-41.0608 Y29.6204 
G01 X-41.2235 Y29.6877 
G01 X-41.3699 Y29.7856 
G01 X-41.4944 Y29.9101 
G01 X-41.5922 Y30.0565 
G01 X-41.6596 Y30.2192 
G01 X-41.6940 Y30.3919 
G01 X-41.6940 Y30.5681 
G01 X-41.6596 Y30.7408 
G01 X-41.5922 Y30.9035 
G01 X-41.4944 Y31.0499 
G01 X-41.3699 Y31.1744 
G01 X-41.2235 Y31.2723 
G01 X-41.0608 Y31.3396 
G01 X-40.8880 Y31.3740 
G01 X-40.7119 Y31.3740 
G01 X-40.5392 Y31.3396 
G01 X-40.3765 Y31.2723 
G01 X-40.2640 Y31.1970 
G01 X-41.5068 Y32.4399 
G01 X-41.6064 Y32.5890 
G01 X-41.6750 Y32.7546 
G01 X-41.7100 Y32.9304 
G01 X-41.7100 Y33.1096 
G01 X-41.6750 Y33.2854 
G01 X-41.6064 Y33.4510 
G01 X-41.5068 Y33.6001 
G01 X-41.3801 Y33.7268 
G01 X-41.2310 Y33.8264 
G01 X-41.0654 Y33.8950 
G01 X-40.8896 Y33.9300 
G01 X-40.7104 Y33.9300 
G01 X-40.5346 Y33.8950 
G01 X-40.3690 Y33.8264 
G01 X-40.2199 Y33.7268 
G01 X-38.4579 Y31.9648 
G01 X-38.3312 Y31.8381 
G01 X-38.2316 Y31.6890 
G01 X-38.1630 Y31.5234 
G01 X-38.1280 Y31.3476 
G01 X-38.1280 Y23.2624 
G01 X-38.1630 Y23.0866 
G01 X-38.2316 Y22.9210 
G01 X-38.3312 Y22.7719 
G01 X-39.5331 Y21.5700 
G01 X-38.4579 Y20.4948 
G01 X-38.3312 Y20.3681 
G01 X-38.2316 Y20.2190 
G01 X-38.1630 Y20.0534 
G01 X-38.1280 Y19.8776 
G01 X-38.1280 Y11.8724 
G01 X-38.1630 Y11.6966 
G01 X-38.2316 Y11.5310 
G01 X-38.3312 Y11.3819 
G01 X-40.0126 Y9.7004 
G01 X-40.0932 Y9.5799 
G01 X-40.2199 Y9.4532 
G01 X-40.3690 Y9.3536 
G01 X-40.5346 Y9.2850 
G01 X-40.7104 Y9.2500 
G01 X-40.8896 Y9.2500 
G01 X-41.0654 Y9.2850 
G01 X-41.2310 Y9.3536 
G01 X-41.3801 Y9.4532 
G01 X-41.5068 Y9.5799 
G01 X-41.6064 Y9.7290 
G01 X-41.6750 Y9.8946 
G01 X-41.7100 Y10.0704 
G01 X-41.7100 Y10.2896 
G01 X-41.6750 Y10.4654 
G01 X-41.6064 Y10.6310 
G01 X-41.5068 Y10.7801 
G01 X-40.3811 Y11.9059 
G01 X-40.5392 Y11.8404 
G01 X-40.7119 Y11.8060 
G01 X-40.8880 Y11.8060 
G01 X-41.0608 Y11.8404 
G01 X-41.2235 Y11.9077 
G01 X-41.3699 Y12.0056 
G01 X-41.4944 Y12.1301 
G01 X-41.5922 Y12.2765 
G01 X-41.6596 Y12.4392 
G01 X-41.6940 Y12.6119 
G01 X-41.6940 Y12.7881 
G01 X-41.6596 Y12.9608 
G01 X-41.5922 Y13.1235 
G01 X-41.4944 Y13.2699 
G01 X-41.3699 Y13.3944 
G01 X-41.2235 Y13.4923 
G01 X-41.0608 Y13.5596 
G01 X-40.8880 Y13.5940 
G01 X-40.7119 Y13.5940 
G01 X-40.5392 Y13.5596 
G01 X-40.3765 Y13.4923 
G01 X-40.2301 Y13.3944 
G01 X-40.1056 Y13.2699 
G01 X-40.0077 Y13.1235 
G01 X-39.9480 Y12.9792 
G01 X-39.9480 Y16.2308 
G01 X-40.0077 Y16.0865 
G01 X-40.1056 Y15.9401 
G01 X-40.2301 Y15.8156 
G01 X-40.3765 Y15.7177 
G01 X-40.5392 Y15.6504 
G01 X-40.7119 Y15.6160 
G01 X-40.8880 Y15.6160 
G01 X-41.0608 Y15.6504 
G01 X-41.2235 Y15.7177 
G01 X-41.3699 Y15.8156 
G01 X-41.4944 Y15.9401 
G01 X-41.5922 Y16.0865 
G01 X-41.6596 Y16.2492 
G01 X-41.6940 Y16.4219 
G01 X-41.6940 Y16.5981 
G01 X-41.6596 Y16.7708 
G01 X-41.5922 Y16.9335 
G01 X-41.4944 Y17.0799 
G01 X-41.3699 Y17.2044 
G01 X-41.2235 Y17.3023 
G01 X-41.0608 Y17.3696 
G01 X-40.8880 Y17.4040 
G01 X-40.7119 Y17.4040 
G01 X-40.5392 Y17.3696 
G01 X-40.3765 Y17.3023 
G01 X-40.2301 Y17.2044 
G01 X-40.1056 Y17.0799 
G01 X-40.0077 Y16.9335 
G01 X-39.9480 Y16.7892 
G01 X-39.9480 Y18.7708 
G01 X-40.0077 Y18.6265 
G01 X-40.1056 Y18.4801 
G01 X-40.2301 Y18.3556 
G01 X-40.3765 Y18.2577 
G01 X-40.5392 Y18.1904 
G01 X-40.7119 Y18.1560 
G01 X-40.8880 Y18.1560 
G01 X-41.0608 Y18.1904 
G01 X-41.2235 Y18.2577 
G01 X-41.3699 Y18.3556 
G01 X-41.4944 Y18.4801 
G01 X-41.5922 Y18.6265 
G01 X-41.6596 Y18.7892 
G01 X-41.6940 Y18.9619 
G01 X-41.6940 Y19.1380 
G01 X-41.6596 Y19.3108 
G01 X-41.5922 Y19.4735 
G01 X-41.4944 Y19.6199 
G01 X-41.3699 Y19.7444 
G01 X-41.2235 Y19.8422 
G01 X-41.0608 Y19.9096 
G01 X-40.8880 Y19.9440 
G01 X-40.7119 Y19.9440 
G01 X-40.5392 Y19.9096 
G01 X-40.3811 Y19.8441 
G01 X-41.5068 Y20.9699 
G01 X-41.6064 Y21.1190 
G01 X-41.6750 Y21.2846 
G01 X-41.7100 Y21.4604 
G01 X-41.7100 Y21.6796 
G01 X-41.6750 Y21.8554 
G01 X-41.6064 Y22.0210 
G01 X-41.5068 Y22.1701 
G01 X-40.2640 Y23.4130 
G01 X-40.3765 Y23.3377 
G01 X-40.5392 Y23.2704 
G01 X-40.7119 Y23.2360 
G01 X-40.8880 Y23.2360 
G01 X-41.0608 Y23.2704 
G01 X-41.2235 Y23.3377 
G01 X-41.3699 Y23.4356 
G01 X-41.4944 Y23.5601 
G01 X-41.5922 Y23.7065 
G01 X-41.6596 Y23.8692 
G01 X-41.6940 Y24.0419 
G00 Z2.0000 
G00 X-22.5390 Y17.6865 
G01 Z-0.3000 F100.00 
G01 X-22.5390 Y17.8735 F250.00 
G01 X-22.5025 Y18.0568 
G01 X-22.4310 Y18.2295 
G01 X-22.3271 Y18.3849 
G01 X-22.1950 Y18.5171 
G01 X-22.0395 Y18.6210 
G01 X-21.8668 Y18.6925 
G01 X-21.6835 Y18.7290 
G01 X-21.4965 Y18.7290 
G01 X-21.3132 Y18.6925 
G01 X-21.1405 Y18.6210 
G01 X-20.9850 Y18.5171 
G01 X-20.8529 Y18.3849 
G01 X-20.7490 Y18.2295 
G01 X-20.6775 Y18.0568 
G01 X-20.6410 Y17.8735 
G01 X-20.6410 Y17.6865 
G01 X-20.6775 Y17.5032 
G01 X-20.7490 Y17.3305 
G01 X-20.8529 Y17.1750 
G01 X-20.9850 Y17.0429 
G01 X-21.1405 Y16.9390 
G01 X-21.3132 Y16.8675 
G01 X-21.4965 Y16.8310 
G01 X-21.6835 Y16.8310 
G01 X-21.8668 Y16.8675 
G01 X-22.0395 Y16.9390 
G01 X-22.1950 Y17.0429 
G01 X-22.3271 Y17.1750 
G01 X-22.4310 Y17.3305 
G01 X-22.5025 Y17.5032 
G01 X-22.5390 Y17.6865 
G00 Z2.0000 
G00 X-27.7451 Y19.8747 
G01 Z-0.3000 F100.00 
G01 X-27.7451 Y20.7653 F250.00 
G01 X-27.1153 Y21.3951 
G01 X-26.2247 Y21.3951 
G01 X-25.5949 Y20.7653 
G01 X-25.5949 Y19.8747 
G01 X-26.2247 Y19.2449 
G01 X-27.1153 Y19.2449 
G01 X-27.7451 Y19.8747 
G00 Z2.0000 
G00 X-27.7451 Y17.6954 
G01 Z-0.3000 F100.00 
G01 X-27.7451 Y17.8646 F250.00 
G01 X-27.7186 Y18.0318 
G01 X-27.6663 Y18.1927 
G01 X-27.5895 Y18.3435 
G01 X-27.4900 Y18.4804 
G01 X-27.3704 Y18.6000 
G01 X-27.2335 Y18.6995 
G01 X-27.0827 Y18.7763 
G01 X-26.9218 Y18.8286 
G01 X-26.7546 Y18.8551 
G01 X-26.5854 Y18.8551 
G01 X-26.4182 Y18.8286 
G01 X-26.2573 Y18.7763 
G01 X-26.1065 Y18.6995 
G01 X-25.9696 Y18.6000 
G01 X-25.8500 Y18.4804 
G01 X-25.7505 Y18.3435 
G01 X-25.6737 Y18.1927 
G01 X-25.6214 Y18.0318 
G01 X-25.5949 Y17.8646 
G01 X-25.5949 Y17.6954 
G01 X-25.6214 Y17.5282 
G01 X-25.6737 Y17.3673 
G01 X-25.7505 Y17.2165 
G01 X-25.8500 Y17.0796 
G01 X-25.9696 Y16.9600 
G01 X-26.1065 Y16.8605 
G01 X-26.2573 Y16.7837 
G01 X-26.4182 Y16.7314 
G01 X-26.5854 Y16.7049 
G01 X-26.7546 Y16.7049 
G01 X-26.9218 Y16.7314 
G01 X-27.0827 Y16.7837 
G01 X-27.2335 Y16.8605 
G01 X-27.3704 Y16.9600 
G01 X-27.4900 Y17.0796 
G01 X-27.5895 Y17.2165 
G01 X-27.6663 Y17.3673 
G01 X-27.7186 Y17.5282 
G01 X-27.7451 Y17.6954 
G00 Z2.0000 
G00 X-27.7451 Y23.6847 
G01 Z-0.3000 F100.00 
G01 X-27.7451 Y24.5753 F250.00 
G01 X-27.1153 Y25.2051 
G01 X-26.2247 Y25.2051 
G01 X-25.5949 Y24.5753 
G01 X-25.5949 Y23.6847 
G01 X-26.2247 Y23.0549 
G01 X-27.1153 Y23.0549 
G01 X-27.7451 Y23.6847 
G00 Z2.0000 
G00 X-27.7451 Y26.5854 
G01 Z-0.3000 F100.00 
G01 X-27.7451 Y26.7546 F250.00 
G01 X-27.7186 Y26.9218 
G01 X-27.6663 Y27.0827 
G01 X-27.6600 Y27.0951 
G01 X-27.6600 Y27.6231 
G01 X-29.5815 Y29.5446 
G01 X-29.5975 Y29.5446 
G01 X-30.1454 Y30.0925 
G01 X-30.1454 Y30.8675 
G01 X-29.5975 Y31.4154 
G01 X-28.8225 Y31.4154 
G01 X-28.2746 Y30.8675 
G01 X-28.2746 Y30.8115 
G01 X-26.1699 Y28.7068 
G01 X-26.0432 Y28.5801 
G01 X-25.9436 Y28.4310 
G01 X-25.8750 Y28.2654 
G01 X-25.8400 Y28.0896 
G01 X-25.8400 Y27.3567 
G01 X-25.7505 Y27.2335 
G01 X-25.6737 Y27.0827 
G01 X-25.6214 Y26.9218 
G01 X-25.5949 Y26.7546 
G01 X-25.5949 Y26.5854 
G01 X-25.6214 Y26.4182 
G01 X-25.6737 Y26.2573 
G01 X-25.7505 Y26.1065 
G01 X-25.8500 Y25.9696 
G01 X-25.9696 Y25.8500 
G01 X-26.1065 Y25.7505 
G01 X-26.2573 Y25.6737 
G01 X-26.4182 Y25.6214 
G01 X-26.5854 Y25.5949 
G01 X-26.7546 Y25.5949 
G01 X-26.9218 Y25.6214 
G01 X-27.0827 Y25.6737 
G01 X-27.2335 Y25.7505 
G01 X-27.3704 Y25.8500 
G01 X-27.4900 Y25.9696 
G01 X-27.5895 Y26.1065 
G01 X-27.6663 Y26.2573 
G01 X-27.7186 Y26.4182 
G01 X-27.7451 Y26.5854 
G00 Z2.0000 
G00 X-33.6991 Y13.4879 
G01 Z-0.3000 F100.00 
G01 X-33.6479 Y13.5391 F250.00 
G01 X-33.5851 Y13.5753 
G01 X-33.5152 Y13.5940 
G01 X-32.2048 Y13.5940 
G01 X-32.1349 Y13.5753 
G01 X-32.0721 Y13.5391 
G01 X-32.0209 Y13.4879 
G01 X-31.9847 Y13.4251 
G01 X-31.9660 Y13.3552 
G01 X-31.9660 Y12.0448 
G01 X-31.9847 Y11.9749 
G01 X-32.0209 Y11.9121 
G01 X-32.0721 Y11.8609 
G01 X-32.1349 Y11.8247 
G01 X-32.2048 Y11.8060 
G01 X-33.5152 Y11.8060 
G01 X-33.5851 Y11.8247 
G01 X-33.6479 Y11.8609 
G01 X-33.6991 Y11.9121 
G01 X-33.7120 Y11.9346 
G01 X-33.7120 Y10.4392 
G01 X-33.6523 Y10.5835 
G01 X-33.5544 Y10.7299 
G01 X-33.4299 Y10.8544 
G01 X-33.2835 Y10.9523 
G01 X-33.1208 Y11.0196 
G01 X-32.9481 Y11.0540 
G01 X-32.7719 Y11.0540 
G01 X-32.5992 Y11.0196 
G01 X-32.4365 Y10.9523 
G01 X-32.2901 Y10.8544 
G01 X-32.1656 Y10.7299 
G01 X-32.0677 Y10.5835 
G01 X-32.0004 Y10.4208 
G01 X-31.9660 Y10.2481 
G01 X-31.9660 Y10.0719 
G01 X-32.0004 Y9.8992 
G01 X-32.0677 Y9.7365 
G01 X-32.1656 Y9.5901 
G01 X-32.2901 Y9.4656 
G01 X-32.4365 Y9.3677 
G01 X-32.5992 Y9.3004 
G01 X-32.7719 Y9.2660 
G01 X-32.9481 Y9.2660 
G01 X-33.1208 Y9.3004 
G01 X-33.2835 Y9.3677 
G01 X-33.4299 Y9.4656 
G01 X-33.5544 Y9.5901 
G01 X-33.6523 Y9.7365 
G01 X-33.7120 Y9.8808 
G01 X-33.7120 Y7.8992 
G01 X-33.6523 Y8.0435 
G01 X-33.5544 Y8.1899 
G01 X-33.4299 Y8.3144 
G01 X-33.2835 Y8.4123 
G01 X-33.1208 Y8.4796 
G01 X-32.9481 Y8.5140 
G01 X-32.7719 Y8.5140 
G01 X-32.5992 Y8.4796 
G01 X-32.4365 Y8.4123 
G01 X-32.2901 Y8.3144 
G01 X-32.1656 Y8.1899 
G01 X-32.0677 Y8.0435 
G01 X-32.0004 Y7.8808 
G01 X-31.9660 Y7.7081 
G01 X-31.9660 Y7.5319 
G01 X-32.0004 Y7.3592 
G01 X-32.0677 Y7.1965 
G01 X-32.1656 Y7.0501 
G01 X-32.2901 Y6.9256 
G01 X-32.4365 Y6.8277 
G01 X-32.5992 Y6.7604 
G01 X-32.7719 Y6.7260 
G01 X-32.9481 Y6.7260 
G01 X-33.1208 Y6.7604 
G01 X-33.2835 Y6.8277 
G01 X-33.3056 Y6.8426 
G01 X-32.1532 Y5.6901 
G01 X-32.0536 Y5.5410 
G01 X-31.9850 Y5.3754 
G01 X-31.9500 Y5.1996 
G01 X-31.9500 Y4.9904 
G01 X-31.9850 Y4.8146 
G01 X-32.0536 Y4.6490 
G01 X-32.1532 Y4.4999 
G01 X-32.2799 Y4.3732 
G01 X-32.4290 Y4.2736 
G01 X-32.5946 Y4.2050 
G01 X-32.7704 Y4.1700 
G01 X-32.9496 Y4.1700 
G01 X-33.1254 Y4.2050 
G01 X-33.2910 Y4.2736 
G01 X-33.4401 Y4.3732 
G01 X-33.5668 Y4.4999 
G01 X-33.6272 Y4.5903 
G01 X-35.2021 Y6.1652 
G01 X-35.3288 Y6.2919 
G01 X-35.4284 Y6.4410 
G01 X-35.4970 Y6.6066 
G01 X-35.5320 Y6.7824 
G01 X-35.5320 Y14.8376 
G01 X-35.4970 Y15.0134 
G01 X-35.4284 Y15.1790 
G01 X-35.3288 Y15.3281 
G01 X-33.5668 Y17.0901 
G01 X-32.3820 Y18.2750 
G01 X-32.4290 Y18.2436 
G01 X-32.5946 Y18.1750 
G01 X-32.7704 Y18.1400 
G01 X-33.0146 Y18.1400 
G01 X-33.1904 Y18.1750 
G01 X-33.3560 Y18.2436 
G01 X-33.5051 Y18.3432 
G01 X-35.3301 Y20.1682 
G01 X-35.4568 Y20.2949 
G01 X-35.5564 Y20.4440 
G01 X-35.6250 Y20.6096 
G01 X-35.6600 Y20.7854 
G01 X-35.6600 Y28.8343 
G01 X-35.6250 Y29.0101 
G01 X-35.5564 Y29.1757 
G01 X-35.4568 Y29.3247 
G01 X-33.8265 Y30.9551 
G01 X-33.6997 Y31.0818 
G01 X-33.5507 Y31.1814 
G01 X-33.3851 Y31.2500 
G01 X-33.3288 Y31.2612 
G01 X-33.2910 Y31.2864 
G01 X-33.1254 Y31.3550 
G01 X-32.9496 Y31.3900 
G01 X-32.7704 Y31.3900 
G01 X-32.5946 Y31.3550 
G01 X-32.4290 Y31.2864 
G01 X-32.2799 Y31.1868 
G01 X-32.1532 Y31.0601 
G01 X-32.0536 Y30.9110 
G01 X-31.9850 Y30.7454 
G01 X-31.9500 Y30.5696 
G01 X-31.9500 Y30.3904 
G01 X-31.9850 Y30.2146 
G01 X-32.0536 Y30.0490 
G01 X-32.1532 Y29.8999 
G01 X-32.2582 Y29.7949 
G01 X-32.3849 Y29.6682 
G01 X-32.5340 Y29.5686 
G01 X-32.6996 Y29.5000 
G01 X-32.7098 Y29.4979 
G01 X-33.8400 Y28.3677 
G01 X-33.8400 Y21.2519 
G01 X-32.4555 Y19.8674 
G01 X-32.4290 Y19.8564 
G01 X-32.2799 Y19.7568 
G01 X-32.1532 Y19.6301 
G01 X-32.0536 Y19.4810 
G01 X-31.9920 Y19.3324 
G01 X-31.9920 Y21.3713 
G01 X-32.0004 Y21.3292 
G01 X-32.0677 Y21.1665 
G01 X-32.1656 Y21.0201 
G01 X-32.2901 Y20.8956 
G01 X-32.4365 Y20.7977 
G01 X-32.5992 Y20.7304 
G01 X-32.7719 Y20.6960 
G01 X-32.9481 Y20.6960 
G01 X-33.1208 Y20.7304 
G01 X-33.2835 Y20.7977 
G01 X-33.4299 Y20.8956 
G01 X-33.5544 Y21.0201 
G01 X-33.6523 Y21.1665 
G01 X-33.7196 Y21.3292 
G01 X-33.7540 Y21.5019 
G01 X-33.7540 Y21.6781 
G01 X-33.7196 Y21.8508 
G01 X-33.6523 Y22.0135 
G01 X-33.5544 Y22.1599 
G01 X-33.4299 Y22.2844 
G01 X-33.2835 Y22.3823 
G01 X-33.1208 Y22.4496 
G01 X-32.9481 Y22.4840 
G01 X-32.7719 Y22.4840 
G01 X-32.5992 Y22.4496 
G01 X-32.4365 Y22.3823 
G01 X-32.2901 Y22.2844 
G01 X-32.1656 Y22.1599 
G01 X-32.0677 Y22.0135 
G01 X-32.0004 Y21.8508 
G01 X-31.9920 Y21.8087 
G01 X-31.9920 Y23.3923 
G01 X-32.0209 Y23.3421 
G01 X-32.0721 Y23.2909 
G01 X-32.1349 Y23.2547 
G01 X-32.2048 Y23.2360 
G01 X-33.5152 Y23.2360 
G01 X-33.5851 Y23.2547 
G01 X-33.6479 Y23.2909 
G01 X-33.6991 Y23.3421 
G01 X-33.7353 Y23.4049 
G01 X-33.7540 Y23.4748 
G01 X-33.7540 Y24.7852 
G01 X-33.7353 Y24.8551 
G01 X-33.6991 Y24.9179 
G01 X-33.6479 Y24.9691 
G01 X-33.5851 Y25.0053 
G01 X-33.5152 Y25.0240 
G01 X-32.2048 Y25.0240 
G01 X-32.1349 Y25.0053 
G01 X-32.0721 Y24.9691 
G01 X-32.0209 Y24.9179 
G01 X-31.9920 Y24.8677 
G01 X-31.9920 Y25.7851 
G01 X-33.5668 Y27.3599 
G01 X-33.6664 Y27.5090 
G01 X-33.7350 Y27.6746 
G01 X-33.7700 Y27.8504 
G01 X-33.7700 Y28.0296 
G01 X-33.7350 Y28.2054 
G01 X-33.6664 Y28.3710 
G01 X-33.5668 Y28.5201 
G01 X-33.4401 Y28.6468 
G01 X-33.2910 Y28.7464 
G01 X-33.1254 Y28.8150 
G01 X-32.9496 Y28.8500 
G01 X-32.7704 Y28.8500 
G01 X-32.5946 Y28.8150 
G01 X-32.4290 Y28.7464 
G01 X-32.2799 Y28.6468 
G01 X-30.3752 Y26.7421 
G01 X-30.2756 Y26.5930 
G01 X-30.2070 Y26.4274 
G01 X-30.1720 Y26.2516 
G01 X-30.1720 Y18.1984 
G01 X-30.2070 Y18.0226 
G01 X-30.2756 Y17.8570 
G01 X-30.3752 Y17.7079 
G01 X-30.5019 Y17.5812 
G01 X-32.2799 Y15.8032 
G01 X-33.7120 Y14.3711 
G01 X-33.7120 Y13.4654 
G01 X-33.6991 Y13.4879 
G00 Z2.0000 
G00 X-41.6940 Y4.9919 
G01 Z-0.3000 F100.00 
G01 X-41.6940 Y5.1681 F250.00 
G01 X-41.6596 Y5.3408 
G01 X-41.5922 Y5.5035 
G01 X-41.4944 Y5.6499 
G01 X-41.3699 Y5.7744 
G01 X-41.2235 Y5.8723 
G01 X-41.0608 Y5.9396 
G01 X-40.8880 Y5.9740 
G01 X-40.7119 Y5.9740 
G01 X-40.5392 Y5.9396 
G01 X-40.3765 Y5.8723 
G01 X-40.2301 Y5.7744 
G01 X-40.1056 Y5.6499 
G01 X-40.0077 Y5.5035 
G01 X-39.9404 Y5.3408 
G01 X-39.9060 Y5.1681 
G01 X-39.9060 Y4.9919 
G01 X-39.9404 Y4.8192 
G01 X-40.0077 Y4.6565 
G01 X-40.1056 Y4.5101 
G01 X-40.2301 Y4.3856 
G01 X-40.3765 Y4.2877 
G01 X-40.5392 Y4.2204 
G01 X-40.7119 Y4.1860 
G01 X-40.8880 Y4.1860 
G01 X-41.0608 Y4.2204 
G01 X-41.2235 Y4.2877 
G01 X-41.3699 Y4.3856 
G01 X-41.4944 Y4.5101 
G01 X-41.5922 Y4.6565 
G01 X-41.6596 Y4.8192 
G01 X-41.6940 Y4.9919 
G00 Z2.0000 
G00 X-17.4590 Y8.7965 
G01 Z-0.3000 F100.00 
G01 X-17.4590 Y8.9835 F250.00 
G01 X-17.4225 Y9.1668 
G01 X-17.3510 Y9.3395 
G01 X-17.2471 Y9.4950 
G01 X-17.1150 Y9.6271 
G01 X-16.9595 Y9.7310 
G01 X-16.7868 Y9.8025 
G01 X-16.6035 Y9.8390 
G01 X-16.4165 Y9.8390 
G01 X-16.2332 Y9.8025 
G01 X-16.0605 Y9.7310 
G01 X-15.9050 Y9.6271 
G01 X-15.7729 Y9.4950 
G01 X-15.6690 Y9.3395 
G01 X-15.5975 Y9.1668 
G01 X-15.5610 Y8.9835 
G01 X-15.5610 Y8.7965 
G01 X-15.5975 Y8.6132 
G01 X-15.6690 Y8.4405 
G01 X-15.7729 Y8.2850 
G01 X-15.9050 Y8.1529 
G01 X-16.0605 Y8.0490 
G01 X-16.2332 Y7.9775 
G01 X-16.4165 Y7.9410 
G01 X-16.6035 Y7.9410 
G01 X-16.7868 Y7.9775 
G01 X-16.9595 Y8.0490 
G01 X-17.1150 Y8.1529 
G01 X-17.2471 Y8.2850 
G01 X-17.3510 Y8.4405 
G01 X-17.4225 Y8.6132 
G01 X-17.4590 Y8.7965 
G00 Z2.0000 
G00 X-19.9990 Y11.3365 
G01 Z-0.3000 F100.00 
G01 X-19.9990 Y11.5235 F250.00 
G01 X-19.9625 Y11.7068 
G01 X-19.8910 Y11.8795 
G01 X-19.7871 Y12.0350 
G01 X-19.6549 Y12.1671 
G01 X-19.4995 Y12.2710 
G01 X-19.3268 Y12.3425 
G01 X-19.1435 Y12.3790 
G01 X-18.9565 Y12.3790 
G01 X-18.7732 Y12.3425 
G01 X-18.6005 Y12.2710 
G01 X-18.4450 Y12.1671 
G01 X-18.3129 Y12.0350 
G01 X-18.2090 Y11.8795 
G01 X-18.1375 Y11.7068 
G01 X-18.1010 Y11.5235 
G01 X-18.1010 Y11.3365 
G01 X-18.1375 Y11.1532 
G01 X-18.2090 Y10.9805 
G01 X-18.3129 Y10.8250 
G01 X-18.4450 Y10.6929 
G01 X-18.6005 Y10.5890 
G01 X-18.7732 Y10.5175 
G01 X-18.9565 Y10.4810 
G01 X-19.1435 Y10.4810 
G01 X-19.3268 Y10.5175 
G01 X-19.4995 Y10.5890 
G01 X-19.6549 Y10.6929 
G01 X-19.7871 Y10.8250 
G01 X-19.8910 Y10.9805 
G01 X-19.9625 Y11.1532 
G01 X-19.9990 Y11.3365 
G00 Z2.0000 
G00 X-27.7451 Y7.1747 
G01 Z-0.3000 F100.00 
G01 X-27.7451 Y8.0653 F250.00 
G01 X-27.1153 Y8.6951 
G01 X-26.2247 Y8.6951 
G01 X-25.5949 Y8.0653 
G01 X-25.5949 Y7.1747 
G01 X-26.2247 Y6.5449 
G01 X-27.1153 Y6.5449 
G01 X-27.7451 Y7.1747 
G00 Z2.0000 
G00 X-27.7451 Y4.9954 
G01 Z-0.3000 F100.00 
G01 X-27.7451 Y5.1646 F250.00 
G01 X-27.7186 Y5.3318 
G01 X-27.6663 Y5.4927 
G01 X-27.5895 Y5.6435 
G01 X-27.4900 Y5.7804 
G01 X-27.3704 Y5.9000 
G01 X-27.2335 Y5.9995 
G01 X-27.0827 Y6.0763 
G01 X-26.9218 Y6.1286 
G01 X-26.7546 Y6.1551 
G01 X-26.5854 Y6.1551 
G01 X-26.4182 Y6.1286 
G01 X-26.2573 Y6.0763 
G01 X-26.1065 Y5.9995 
G01 X-25.9696 Y5.9000 
G01 X-25.8500 Y5.7804 
G01 X-25.7505 Y5.6435 
G01 X-25.6737 Y5.4927 
G01 X-25.6214 Y5.3318 
G01 X-25.5949 Y5.1646 
G01 X-25.5949 Y4.9954 
G01 X-25.6214 Y4.8282 
G01 X-25.6737 Y4.6673 
G01 X-25.7277 Y4.5613 
G01 X-22.5000 Y7.7890 
G01 X-22.5000 Y8.6071 
G01 X-22.5025 Y8.6132 
G01 X-22.5390 Y8.7965 
G01 X-22.5390 Y8.9835 
G01 X-22.5025 Y9.1668 
G01 X-22.4310 Y9.3395 
G01 X-22.3271 Y9.4950 
G01 X-22.1950 Y9.6271 
G01 X-22.0395 Y9.7310 
G01 X-21.8668 Y9.8025 
G01 X-21.6835 Y9.8390 
G01 X-21.4965 Y9.8390 
G01 X-21.3132 Y9.8025 
G01 X-21.1405 Y9.7310 
G01 X-20.9850 Y9.6271 
G01 X-20.8529 Y9.4950 
G01 X-20.7490 Y9.3395 
G01 X-20.6775 Y9.1668 
G01 X-20.6410 Y8.9835 
G01 X-20.6410 Y8.7965 
G01 X-20.6775 Y8.6132 
G01 X-20.6800 Y8.6071 
G01 X-20.6800 Y7.3224 
G01 X-20.7150 Y7.1466 
G01 X-20.7836 Y6.9810 
G01 X-20.8832 Y6.8319 
G01 X-21.0099 Y6.7052 
G01 X-25.2850 Y2.4301 
G01 X-25.4341 Y2.3305 
G01 X-25.5997 Y2.2619 
G01 X-25.7755 Y2.2269 
G01 X-36.3515 Y2.2269 
G01 X-36.5273 Y2.2619 
G01 X-36.6929 Y2.3305 
G01 X-36.8420 Y2.4301 
G01 X-36.9687 Y2.5568 
G01 X-41.2216 Y6.8097 
G01 X-41.2310 Y6.8136 
G01 X-41.3801 Y6.9132 
G01 X-41.5068 Y7.0399 
G01 X-41.6064 Y7.1890 
G01 X-41.6750 Y7.3546 
G01 X-41.7100 Y7.5304 
G01 X-41.7100 Y7.7096 
G01 X-41.6750 Y7.8854 
G01 X-41.6064 Y8.0510 
G01 X-41.5068 Y8.2001 
G01 X-41.3801 Y8.3268 
G01 X-41.2310 Y8.4264 
G01 X-41.0654 Y8.4950 
G01 X-40.8896 Y8.5300 
G01 X-40.6554 Y8.5300 
G01 X-40.4796 Y8.4950 
G01 X-40.3140 Y8.4264 
G01 X-40.1649 Y8.3268 
G01 X-35.8850 Y4.0469 
G01 X-26.9695 Y4.0469 
G01 X-27.0827 Y4.0837 
G01 X-27.2335 Y4.1605 
G01 X-27.3704 Y4.2600 
G01 X-27.4900 Y4.3796 
G01 X-27.5895 Y4.5165 
G01 X-27.6663 Y4.6673 
G01 X-27.7186 Y4.8282 
G01 X-27.7451 Y4.9954 
G00 Z2.0000 
G00 X-27.7451 Y10.9847 
G01 Z-0.3000 F100.00 
G01 X-27.7451 Y11.8753 F250.00 
G01 X-27.1153 Y12.5051 
G01 X-26.2247 Y12.5051 
G01 X-25.5949 Y11.8753 
G01 X-25.5949 Y10.9847 
G01 X-26.2247 Y10.3549 
G01 X-27.1153 Y10.3549 
G01 X-27.7451 Y10.9847 
G00 Z2.0000 
G00 X-27.7451 Y13.8854 
G01 Z-0.3000 F100.00 
G01 X-27.7451 Y14.0546 F250.00 
G01 X-27.7186 Y14.2218 
G01 X-27.6663 Y14.3827 
G01 X-27.5895 Y14.5335 
G01 X-27.4900 Y14.6704 
G01 X-27.3704 Y14.7900 
G01 X-27.2335 Y14.8895 
G01 X-27.0827 Y14.9663 
G01 X-26.9218 Y15.0186 
G01 X-26.7546 Y15.0451 
G01 X-26.5854 Y15.0451 
G01 X-26.4182 Y15.0186 
G01 X-26.2573 Y14.9663 
G01 X-26.1065 Y14.8895 
G01 X-25.9696 Y14.7900 
G01 X-25.8500 Y14.6704 
G01 X-25.7505 Y14.5335 
G01 X-25.6737 Y14.3827 
G01 X-25.6214 Y14.2218 
G01 X-25.5949 Y14.0546 
G01 X-25.5949 Y13.8854 
G01 X-25.6214 Y13.7182 
G01 X-25.6737 Y13.5573 
G01 X-25.7505 Y13.4065 
G01 X-25.8500 Y13.2696 
G01 X-25.9696 Y13.1500 
G01 X-26.1065 Y13.0505 
G01 X-26.2573 Y12.9737 
G01 X-26.4182 Y12.9214 
G01 X-26.5854 Y12.8949 
G01 X-26.7546 Y12.8949 
G01 X-26.9218 Y12.9214 
G01 X-27.0827 Y12.9737 
G01 X-27.2335 Y13.0505 
G01 X-27.3704 Y13.1500 
G01 X-27.4900 Y13.2696 
G01 X-27.5895 Y13.4065 
G01 X-27.6663 Y13.5573 
G01 X-27.7186 Y13.7182 
G01 X-27.7451 Y13.8854 
G00 Z2.0000 
G00 X-4.5440 Y19.6648 
G01 Z-0.3000 F100.00 
G01 X-4.5440 Y20.9752 F250.00 
G01 X-4.5253 Y21.0451 
G01 X-4.4891 Y21.1079 
G01 X-4.4379 Y21.1591 
G01 X-4.3751 Y21.1953 
G01 X-4.3052 Y21.2140 
G01 X-2.9948 Y21.2140 
G01 X-2.9249 Y21.1953 
G01 X-2.8621 Y21.1591 
G01 X-2.8109 Y21.1079 
G01 X-2.7747 Y21.0451 
G01 X-2.7560 Y20.9752 
G01 X-2.7560 Y19.6648 
G01 X-2.7747 Y19.5949 
G01 X-2.8109 Y19.5321 
G01 X-2.8621 Y19.4809 
G01 X-2.9249 Y19.4447 
G01 X-2.9948 Y19.4260 
G01 X-4.3052 Y19.4260 
G01 X-4.3751 Y19.4447 
G01 X-4.4379 Y19.4809 
G01 X-4.4891 Y19.5321 
G01 X-4.5253 Y19.5949 
G01 X-4.5440 Y19.6648 
G00 Z2.0000 
G00 X-4.5440 Y12.6119 
G01 Z-0.3000 F100.00 
G01 X-4.5440 Y12.7881 F250.00 
G01 X-4.5096 Y12.9608 
G01 X-4.4423 Y13.1235 
G01 X-4.3444 Y13.2699 
G01 X-4.2199 Y13.3944 
G01 X-4.0735 Y13.4923 
G01 X-3.9108 Y13.5596 
G01 X-3.7381 Y13.5940 
G01 X-3.5619 Y13.5940 
G01 X-3.3892 Y13.5596 
G01 X-3.2265 Y13.4923 
G01 X-3.0801 Y13.3944 
G01 X-2.9556 Y13.2699 
G01 X-2.8577 Y13.1235 
G01 X-2.7904 Y12.9608 
G01 X-2.7560 Y12.7881 
G01 X-2.7560 Y12.6119 
G01 X-2.7904 Y12.4392 
G01 X-2.8577 Y12.2765 
G01 X-2.9556 Y12.1301 
G01 X-3.0801 Y12.0056 
G01 X-3.2265 Y11.9077 
G01 X-3.3892 Y11.8404 
G01 X-3.5619 Y11.8060 
G01 X-3.7381 Y11.8060 
G01 X-3.9108 Y11.8404 
G01 X-4.0735 Y11.9077 
G01 X-4.2199 Y12.0056 
G01 X-4.3444 Y12.1301 
G01 X-4.4423 Y12.2765 
G01 X-4.5096 Y12.4392 
G01 X-4.5440 Y12.6119 
G00 Z2.0000 
G00 X-12.4840 Y12.6119 
G01 Z-0.3000 F100.00 
G01 X-12.4840 Y12.7881 F250.00 
G01 X-12.4496 Y12.9608 
G01 X-12.3823 Y13.1235 
G01 X-12.2844 Y13.2699 
G01 X-12.1599 Y13.3944 
G01 X-12.0135 Y13.4923 
G01 X-11.8508 Y13.5596 
G01 X-11.6781 Y13.5940 
G01 X-11.5019 Y13.5940 
G01 X-11.3292 Y13.5596 
G01 X-11.1665 Y13.4923 
G01 X-11.0201 Y13.3944 
G01 X-10.8956 Y13.2699 
G01 X-10.7977 Y13.1235 
G01 X-10.7304 Y12.9608 
G01 X-10.6960 Y12.7881 
G01 X-10.6960 Y12.6119 
G01 X-10.7304 Y12.4392 
G01 X-10.7977 Y12.2765 
G01 X-10.8956 Y12.1301 
G01 X-11.0201 Y12.0056 
G01 X-11.1665 Y11.9077 
G01 X-11.3292 Y11.8404 
G01 X-11.5019 Y11.8060 
G01 X-11.6781 Y11.8060 
G01 X-11.8508 Y11.8404 
G01 X-12.0135 Y11.9077 
G01 X-12.1599 Y12.0056 
G01 X-12.2844 Y12.1301 
G01 X-12.3823 Y12.2765 
G01 X-12.4496 Y12.4392 
G01 X-12.4840 Y12.6119 
G00 Z2.0000 
G00 X-12.4840 Y17.6919 
G01 Z-0.3000 F100.00 
G01 X-12.4840 Y17.8681 F250.00 
G01 X-12.4496 Y18.0408 
G01 X-12.3823 Y18.2035 
G01 X-12.2844 Y18.3499 
G01 X-12.1599 Y18.4744 
G01 X-12.0135 Y18.5723 
G01 X-11.8508 Y18.6396 
G01 X-11.6781 Y18.6740 
G01 X-11.5019 Y18.6740 
G01 X-11.3292 Y18.6396 
G01 X-11.1665 Y18.5723 
G01 X-11.0201 Y18.4744 
G01 X-10.8956 Y18.3499 
G01 X-10.7977 Y18.2035 
G01 X-10.7304 Y18.0408 
G01 X-10.6960 Y17.8681 
G01 X-10.6960 Y17.6919 
G01 X-10.7304 Y17.5192 
G01 X-10.7977 Y17.3565 
G01 X-10.8956 Y17.2101 
G01 X-11.0201 Y17.0856 
G01 X-11.1665 Y16.9877 
G01 X-11.3292 Y16.9204 
G01 X-11.5019 Y16.8860 
G01 X-11.6781 Y16.8860 
G01 X-11.8508 Y16.9204 
G01 X-12.0135 Y16.9877 
G01 X-12.1599 Y17.0856 
G01 X-12.2844 Y17.2101 
G01 X-12.3823 Y17.3565 
G01 X-12.4496 Y17.5192 
G01 X-12.4840 Y17.6919 
G00 Z2.0000 
G00 X-12.4840 Y20.2319 
G01 Z-0.3000 F100.00 
G01 X-12.4840 Y20.4080 F250.00 
G01 X-12.4496 Y20.5808 
G01 X-12.3823 Y20.7435 
G01 X-12.2844 Y20.8899 
G01 X-12.1599 Y21.0144 
G01 X-12.0135 Y21.1122 
G01 X-11.8508 Y21.1796 
G01 X-11.6781 Y21.2140 
G01 X-11.5019 Y21.2140 
G01 X-11.3292 Y21.1796 
G01 X-11.1665 Y21.1122 
G01 X-11.0201 Y21.0144 
G01 X-10.8956 Y20.8899 
G01 X-10.7977 Y20.7435 
G01 X-10.7304 Y20.5808 
G01 X-10.6960 Y20.4080 
G01 X-10.6960 Y20.2319 
G01 X-10.7304 Y20.0592 
G01 X-10.7977 Y19.8965 
G01 X-10.8956 Y19.7501 
G01 X-11.0201 Y19.6256 
G01 X-11.1665 Y19.5277 
G01 X-11.3292 Y19.4604 
G01 X-11.5019 Y19.4260 
G01 X-11.6781 Y19.4260 
G01 X-11.8508 Y19.4604 
G01 X-12.0135 Y19.5277 
G01 X-12.1599 Y19.6256 
G01 X-12.2844 Y19.7501 
G01 X-12.3823 Y19.8965 
G01 X-12.4496 Y20.0592 
G01 X-12.4840 Y20.2319 
G00 Z2.0000 
G00 X-11.0425 Y9.8254 
G01 Z-0.3000 F100.00 
G01 X-10.4946 Y9.2775 F250.00 
G01 X-10.4946 Y8.5025 
G01 X-11.0425 Y7.9546 
G01 X-11.8175 Y7.9546 
G01 X-11.9277 Y8.0649 
G01 X-11.9729 Y8.0836 
G01 X-12.1219 Y8.1832 
G01 X-12.2487 Y8.3099 
G01 X-14.5671 Y10.6283 
G01 X-14.6938 Y10.7551 
G01 X-14.7934 Y10.9041 
G01 X-14.8620 Y11.0697 
G01 X-14.8970 Y11.2455 
G01 X-14.8970 Y14.8801 
G01 X-16.9534 Y16.9365 
G01 X-16.9595 Y16.9390 
G01 X-17.1150 Y17.0429 
G01 X-17.2471 Y17.1750 
G01 X-17.3510 Y17.3305 
G01 X-17.3535 Y17.3366 
G01 X-19.4934 Y19.4765 
G01 X-19.4995 Y19.4790 
G01 X-19.6549 Y19.5829 
G01 X-19.7871 Y19.7150 
G01 X-19.8910 Y19.8705 
G01 X-19.9625 Y20.0432 
G01 X-19.9990 Y20.2265 
G01 X-19.9990 Y20.4135 
G01 X-19.9625 Y20.5968 
G01 X-19.8910 Y20.7695 
G01 X-19.7871 Y20.9250 
G01 X-19.6549 Y21.0571 
G01 X-19.5038 Y21.1581 
G01 X-14.9000 Y25.7619 
G01 X-14.9000 Y31.8196 
G01 X-14.8650 Y31.9954 
G01 X-14.7964 Y32.1610 
G01 X-14.6968 Y32.3101 
G01 X-13.6354 Y33.3715 
G01 X-13.6354 Y33.4075 
G01 X-13.0875 Y33.9554 
G01 X-12.3125 Y33.9554 
G01 X-11.7646 Y33.4075 
G01 X-11.7646 Y32.6325 
G01 X-12.3125 Y32.0846 
G01 X-12.3485 Y32.0846 
G01 X-13.0800 Y31.3531 
G01 X-13.0800 Y25.2954 
G01 X-13.1150 Y25.1196 
G01 X-13.1836 Y24.9540 
G01 X-13.2832 Y24.8049 
G01 X-13.4099 Y24.6782 
G01 X-17.7656 Y20.3225 
G01 X-16.0666 Y18.6235 
G01 X-16.0605 Y18.6210 
G01 X-15.9050 Y18.5171 
G01 X-15.7729 Y18.3849 
G01 X-15.6690 Y18.2295 
G01 X-15.6665 Y18.2234 
G01 X-13.5931 Y16.1500 
G01 X-11.5004 Y16.1500 
G01 X-11.3246 Y16.1150 
G01 X-11.1590 Y16.0464 
G01 X-11.0099 Y15.9468 
G01 X-10.8832 Y15.8201 
G01 X-10.7836 Y15.6710 
G01 X-10.7150 Y15.5054 
G01 X-10.6800 Y15.3296 
G01 X-10.6800 Y15.1504 
G01 X-10.7150 Y14.9746 
G01 X-10.7836 Y14.8090 
G01 X-10.8832 Y14.6599 
G01 X-11.0099 Y14.5332 
G01 X-11.1590 Y14.4336 
G01 X-11.3246 Y14.3650 
G01 X-11.5004 Y14.3300 
G01 X-13.0770 Y14.3300 
G01 X-13.0770 Y11.7121 
G01 X-11.1903 Y9.8254 
G01 X-11.0425 Y9.8254 
G00 Z2.0000 
G00 X-4.1975 Y30.1454 
G01 Z-0.3000 F100.00 
G01 X-3.4225 Y30.1454 F250.00 
G01 X-2.8746 Y29.5975 
G01 X-2.8746 Y28.8225 
G01 X-3.4225 Y28.2746 
G01 X-3.5550 Y28.2746 
G01 X-5.3500 Y26.4796 
G01 X-5.3500 Y25.0400 
G01 X-4.2229 Y25.0400 
G01 X-4.1975 Y25.0654 
G01 X-3.4773 Y25.0654 
G01 X-4.1465 Y25.7346 
G01 X-4.1975 Y25.7346 
G01 X-4.7454 Y26.2825 
G01 X-4.7454 Y27.0575 
G01 X-4.1975 Y27.6054 
G01 X-3.4225 Y27.6054 
G01 X-2.8746 Y27.0575 
G01 X-2.8746 Y27.0365 
G01 X-0.0249 Y24.1868 
G01 X0.1018 Y24.0601 
G01 X0.2014 Y23.9110 
G01 X0.2700 Y23.7454 
G01 X0.3050 Y23.5696 
G01 X0.3050 Y12.0554 
G01 X0.2700 Y11.8796 
G01 X0.2014 Y11.7140 
G01 X0.1018 Y11.5649 
G01 X-2.8746 Y8.5885 
G01 X-2.8746 Y8.5025 
G01 X-3.4225 Y7.9546 
G01 X-4.1381 Y7.9546 
G01 X-3.4689 Y7.2854 
G01 X-3.4225 Y7.2854 
G01 X-2.8746 Y6.7375 
G01 X-2.8746 Y5.9625 
G01 X-3.4225 Y5.4146 
G01 X-4.1975 Y5.4146 
G01 X-4.7454 Y5.9625 
G01 X-4.7454 Y5.9881 
G01 X-10.3318 Y11.5745 
G01 X-10.4314 Y11.7236 
G01 X-10.5000 Y11.8892 
G01 X-10.5350 Y12.0650 
G01 X-10.5350 Y23.7021 
G01 X-11.0425 Y23.1946 
G01 X-11.8175 Y23.1946 
G01 X-12.3654 Y23.7425 
G01 X-12.3654 Y24.5175 
G01 X-11.8175 Y25.0654 
G01 X-11.0425 Y25.0654 
G01 X-10.5350 Y24.5578 
G01 X-10.5350 Y24.6588 
G01 X-10.6426 Y24.7307 
G01 X-11.6465 Y25.7346 
G01 X-11.8175 Y25.7346 
G01 X-12.3654 Y26.2825 
G01 X-12.3654 Y27.0575 
G01 X-11.8175 Y27.6054 
G01 X-11.0425 Y27.6054 
G01 X-10.9487 Y27.5115 
G01 X-10.8640 Y27.4764 
G01 X-10.7149 Y27.3768 
G01 X-10.5350 Y27.1969 
G01 X-10.5350 Y28.7822 
G01 X-11.0425 Y28.2746 
G01 X-11.8175 Y28.2746 
G01 X-12.3654 Y28.8225 
G01 X-12.3654 Y29.5975 
G01 X-11.8175 Y30.1454 
G01 X-11.0425 Y30.1454 
G01 X-10.5350 Y29.6378 
G01 X-10.5350 Y32.3746 
G01 X-10.5000 Y32.5504 
G01 X-10.4314 Y32.7160 
G01 X-10.3318 Y32.8651 
G01 X-9.9270 Y33.2699 
G01 X-9.9270 Y33.4495 
G01 X-9.3195 Y34.0570 
G01 X-8.4605 Y34.0570 
G01 X-7.8530 Y33.4495 
G01 X-7.8530 Y32.5905 
G01 X-8.4605 Y31.9830 
G01 X-8.6401 Y31.9830 
G01 X-8.7150 Y31.9081 
G01 X-8.7150 Y12.5315 
G01 X-4.7454 Y8.5619 
G01 X-4.7454 Y9.2775 
G01 X-4.5452 Y9.4777 
G01 X-4.5168 Y9.5201 
G01 X-4.3901 Y9.6468 
G01 X-1.5150 Y12.5219 
G01 X-1.5150 Y16.9650 
G01 X-3.2411 Y16.9650 
G01 X-3.2689 Y16.9488 
G01 X-3.4384 Y16.8904 
G01 X-3.6160 Y16.8662 
G01 X-3.7949 Y16.8772 
G01 X-3.9683 Y16.9228 
G01 X-4.1294 Y17.0013 
G01 X-4.2721 Y17.1098 
G01 X-4.3909 Y17.2441 
G01 X-4.4812 Y17.3989 
G01 X-4.5396 Y17.5684 
G01 X-4.5638 Y17.7460 
G01 X-4.5528 Y17.9249 
G01 X-4.5121 Y18.0797 
G01 X-4.5000 Y18.1404 
G01 X-4.4893 Y18.1663 
G01 X-4.4822 Y18.1933 
G01 X-4.4551 Y18.2489 
G01 X-4.4314 Y18.3060 
G01 X-4.4159 Y18.3293 
G01 X-4.4037 Y18.3544 
G01 X-4.3662 Y18.4036 
G01 X-4.3318 Y18.4551 
G01 X-4.3121 Y18.4749 
G01 X-4.2952 Y18.4971 
G01 X-4.2489 Y18.5381 
G01 X-4.2051 Y18.5818 
G01 X-4.1818 Y18.5974 
G01 X-4.1609 Y18.6159 
G01 X-4.1075 Y18.6470 
G01 X-4.0560 Y18.6814 
G01 X-4.0302 Y18.6921 
G01 X-4.0061 Y18.7062 
G01 X-3.9476 Y18.7263 
G01 X-3.8904 Y18.7500 
G01 X-3.8630 Y18.7555 
G01 X-3.8366 Y18.7646 
G01 X-3.7753 Y18.7729 
G01 X-3.7146 Y18.7850 
G01 X-3.6867 Y18.7850 
G01 X-3.6590 Y18.7888 
G01 X-3.5973 Y18.7850 
G01 X-1.5150 Y18.7850 
G01 X-1.5150 Y23.1031 
G01 X-2.8746 Y24.4627 
G01 X-2.8746 Y23.7425 
G01 X-3.4225 Y23.1946 
G01 X-4.1975 Y23.1946 
G01 X-4.2229 Y23.2200 
G01 X-5.3500 Y23.2200 
G01 X-5.3500 Y18.1369 
G01 X-3.2956 Y16.0826 
G01 X-3.1408 Y15.9995 
G01 X-3.0025 Y15.8856 
G01 X-2.8889 Y15.7469 
G01 X-2.8047 Y15.5887 
G01 X-2.7529 Y15.4171 
G01 X-2.7356 Y15.2386 
G01 X-2.7534 Y15.0603 
G01 X-2.8057 Y14.8888 
G01 X-2.8905 Y14.7308 
G01 X-3.0044 Y14.5925 
G01 X-3.1431 Y14.4789 
G01 X-3.3013 Y14.3947 
G01 X-3.4729 Y14.3429 
G01 X-3.6514 Y14.3256 
G01 X-3.7954 Y14.3400 
G01 X-3.8396 Y14.3400 
G01 X-3.8843 Y14.3489 
G01 X-3.9297 Y14.3534 
G01 X-3.9721 Y14.3663 
G01 X-4.0154 Y14.3750 
G01 X-4.0576 Y14.3924 
G01 X-4.1012 Y14.4057 
G01 X-4.1402 Y14.4266 
G01 X-4.1810 Y14.4436 
G01 X-4.2189 Y14.4689 
G01 X-4.2591 Y14.4905 
G01 X-4.2933 Y14.5186 
G01 X-4.3301 Y14.5432 
G01 X-4.3623 Y14.5754 
G01 X-4.3975 Y14.6044 
G01 X-4.4256 Y14.6386 
G01 X-6.9668 Y17.1799 
G01 X-7.0664 Y17.3290 
G01 X-7.1350 Y17.4946 
G01 X-7.1700 Y17.6704 
G01 X-7.1700 Y26.9461 
G01 X-7.1350 Y27.1219 
G01 X-7.0664 Y27.2875 
G01 X-6.9668 Y27.4366 
G01 X-6.8401 Y27.5633 
G01 X-4.6983 Y29.7051 
G01 X-4.5716 Y29.8318 
G01 X-4.4225 Y29.9314 
G01 X-4.4036 Y29.9393 
G01 X-4.1975 Y30.1454 
G00 Z2.0000 
G00 X-7.3870 Y32.5905 
G01 Z-0.3000 F100.00 
G01 X-7.3870 Y33.4495 F250.00 
G01 X-6.7795 Y34.0570 
G01 X-5.9205 Y34.0570 
G01 X-5.3130 Y33.4495 
G01 X-5.3130 Y32.5905 
G01 X-5.9205 Y31.9830 
G01 X-6.7795 Y31.9830 
G01 X-7.3870 Y32.5905 
G00 Z2.0000 
G00 X-12.3654 Y5.9625 
G01 Z-0.3000 F100.00 
G01 X-12.3654 Y6.7375 F250.00 
G01 X-11.8175 Y7.2854 
G01 X-11.0425 Y7.2854 
G01 X-10.4946 Y6.7375 
G01 X-10.4946 Y5.9625 
G01 X-11.0425 Y5.4146 
G01 X-11.8175 Y5.4146 
G01 X-12.3654 Y5.9625 
G00 Z2.0000 
G00 X-50.4654 Y33.9025 
G01 Z-0.3000 F100.00 
G01 X-50.4654 Y34.6775 F250.00 
G01 X-49.9175 Y35.2254 
G01 X-49.1425 Y35.2254 
G01 X-48.5946 Y34.6775 
G01 X-48.5946 Y34.6415 
G01 X-45.4459 Y31.4929 
G01 X-45.2936 Y31.5170 
G01 X-43.6064 Y31.5170 
G01 X-43.4452 Y31.4915 
G01 X-43.2899 Y31.4410 
G01 X-43.1445 Y31.3669 
G01 X-43.0124 Y31.2710 
G01 X-42.8970 Y31.1556 
G01 X-42.8011 Y31.0235 
G01 X-42.7270 Y30.8781 
G01 X-42.6765 Y30.7228 
G01 X-42.6510 Y30.5616 
G01 X-42.6510 Y30.3984 
G01 X-42.6765 Y30.2372 
G01 X-42.7270 Y30.0819 
G01 X-42.8011 Y29.9365 
G01 X-42.8970 Y29.8044 
G01 X-43.0124 Y29.6890 
G01 X-43.1445 Y29.5931 
G01 X-43.2899 Y29.5190 
G01 X-43.4452 Y29.4685 
G01 X-43.6064 Y29.4430 
G01 X-45.2936 Y29.4430 
G01 X-45.4548 Y29.4685 
G01 X-45.6101 Y29.5190 
G01 X-45.7495 Y29.5900 
G01 X-45.8296 Y29.5900 
G01 X-46.0054 Y29.6250 
G01 X-46.1710 Y29.6936 
G01 X-46.3201 Y29.7932 
G01 X-49.8815 Y33.3546 
G01 X-49.9175 Y33.3546 
G01 X-50.4654 Y33.9025 
G00 Z2.0000 
G00 X-50.4654 Y5.9625 
G01 Z-0.3000 F100.00 
G01 X-50.4654 Y6.7375 F250.00 
G01 X-49.9175 Y7.2854 
G01 X-49.1425 Y7.2854 
G01 X-48.5946 Y6.7375 
G01 X-48.5946 Y5.9625 
G01 X-49.1425 Y5.4146 
G01 X-49.9175 Y5.4146 
G01 X-50.4654 Y5.9625 
G00 Z2.0000 
G00 X-62.0140 Y15.1519 
G01 Z-0.3000 F100.00 
G01 X-62.0140 Y15.3281 F250.00 
G01 X-61.9796 Y15.5008 
G01 X-61.9123 Y15.6635 
G01 X-61.8144 Y15.8099 
G01 X-61.6899 Y15.9344 
G01 X-61.5435 Y16.0323 
G01 X-61.3808 Y16.0996 
G01 X-61.2081 Y16.1340 
G01 X-61.0319 Y16.1340 
G01 X-60.8592 Y16.0996 
G01 X-60.6965 Y16.0323 
G01 X-60.5501 Y15.9344 
G01 X-60.4256 Y15.8099 
G01 X-60.3277 Y15.6635 
G01 X-60.2604 Y15.5008 
G01 X-60.2260 Y15.3281 
G01 X-60.2260 Y15.1519 
G01 X-60.2604 Y14.9792 
G01 X-60.3277 Y14.8165 
G01 X-60.4256 Y14.6701 
G01 X-60.5501 Y14.5456 
G01 X-60.6965 Y14.4477 
G01 X-60.8592 Y14.3804 
G01 X-61.0319 Y14.3460 
G01 X-61.2081 Y14.3460 
G01 X-61.3808 Y14.3804 
G01 X-61.5435 Y14.4477 
G01 X-61.6899 Y14.5456 
G01 X-61.8144 Y14.6701 
G01 X-61.9123 Y14.8165 
G01 X-61.9796 Y14.9792 
G01 X-62.0140 Y15.1519 
G00 Z2.0000 
G00 X-62.0140 Y20.2319 
G01 Z-0.3000 F100.00 
G01 X-62.0140 Y20.4080 F250.00 
G01 X-61.9796 Y20.5808 
G01 X-61.9123 Y20.7435 
G01 X-61.8144 Y20.8899 
G01 X-61.6899 Y21.0144 
G01 X-61.5435 Y21.1122 
G01 X-61.3808 Y21.1796 
G01 X-61.2081 Y21.2140 
G01 X-61.0319 Y21.2140 
G01 X-60.8592 Y21.1796 
G01 X-60.6965 Y21.1122 
G01 X-60.5501 Y21.0144 
G01 X-60.4256 Y20.8899 
G01 X-60.3277 Y20.7435 
G01 X-60.2604 Y20.5808 
G01 X-60.2260 Y20.4080 
G01 X-60.2260 Y20.2319 
G01 X-60.2604 Y20.0592 
G01 X-60.3277 Y19.8965 
G01 X-60.4256 Y19.7501 
G01 X-60.5501 Y19.6256 
G01 X-60.6965 Y19.5277 
G01 X-60.8592 Y19.4604 
G01 X-61.0319 Y19.4260 
G01 X-61.2081 Y19.4260 
G01 X-61.3808 Y19.4604 
G01 X-61.5435 Y19.5277 
G01 X-61.6899 Y19.6256 
G01 X-61.8144 Y19.7501 
G01 X-61.9123 Y19.8965 
G01 X-61.9796 Y20.0592 
G01 X-62.0140 Y20.2319 
G00 Z2.0000 
G00 X-62.0140 Y22.7719 
G01 Z-0.3000 F100.00 
G01 X-62.0140 Y22.9481 F250.00 
G01 X-61.9796 Y23.1208 
G01 X-61.9123 Y23.2835 
G01 X-61.8144 Y23.4299 
G01 X-61.6899 Y23.5544 
G01 X-61.5435 Y23.6523 
G01 X-61.3808 Y23.7196 
G01 X-61.2081 Y23.7540 
G01 X-61.0319 Y23.7540 
G01 X-60.8592 Y23.7196 
G01 X-60.6965 Y23.6523 
G01 X-60.5501 Y23.5544 
G01 X-60.4256 Y23.4299 
G01 X-60.3277 Y23.2835 
G01 X-60.2604 Y23.1208 
G01 X-60.2260 Y22.9481 
G01 X-60.2260 Y22.7719 
G01 X-60.2604 Y22.5992 
G01 X-60.3277 Y22.4365 
G01 X-60.4256 Y22.2901 
G01 X-60.5501 Y22.1656 
G01 X-60.6965 Y22.0677 
G01 X-60.8592 Y22.0004 
G01 X-61.0319 Y21.9660 
G01 X-61.2081 Y21.9660 
G01 X-61.3808 Y22.0004 
G01 X-61.5435 Y22.0677 
G01 X-61.6899 Y22.1656 
G01 X-61.8144 Y22.2901 
G01 X-61.9123 Y22.4365 
G01 X-61.9796 Y22.5992 
G01 X-62.0140 Y22.7719 
G00 Z2.0000 
G00 X-61.8954 Y9.7725 
G01 Z-0.3000 F100.00 
G01 X-61.8954 Y10.5475 F250.00 
G01 X-61.3475 Y11.0954 
G01 X-60.5725 Y11.0954 
G01 X-60.0350 Y10.5578 
G01 X-60.0350 Y16.8700 
G01 X-61.2096 Y16.8700 
G01 X-61.3854 Y16.9050 
G01 X-61.5510 Y16.9736 
G01 X-61.7001 Y17.0732 
G01 X-61.8268 Y17.1999 
G01 X-61.9264 Y17.3490 
G01 X-61.9950 Y17.5146 
G01 X-62.0300 Y17.6904 
G01 X-62.0300 Y17.8696 
G01 X-61.9950 Y18.0454 
G01 X-61.9264 Y18.2110 
G01 X-61.8268 Y18.3601 
G01 X-61.7001 Y18.4868 
G01 X-61.5510 Y18.5864 
G01 X-61.3854 Y18.6550 
G01 X-61.2096 Y18.6900 
G01 X-60.0350 Y18.6900 
G01 X-60.0350 Y24.4581 
G01 X-61.3115 Y25.7346 
G01 X-61.3475 Y25.7346 
G01 X-61.8954 Y26.2825 
G01 X-61.8954 Y27.0575 
G01 X-61.3475 Y27.6054 
G01 X-60.5725 Y27.6054 
G01 X-60.0246 Y27.0575 
G01 X-60.0246 Y27.0215 
G01 X-58.5449 Y25.5418 
G01 X-58.4182 Y25.4151 
G01 X-58.3186 Y25.2660 
G01 X-58.2500 Y25.1004 
G01 X-58.2150 Y24.9246 
G01 X-58.2150 Y9.9719 
G01 X-55.6301 Y7.3870 
G01 X-55.4505 Y7.3870 
G01 X-54.8430 Y6.7795 
G01 X-54.8430 Y5.9205 
G01 X-55.4505 Y5.3130 
G01 X-56.3095 Y5.3130 
G01 X-56.9170 Y5.9205 
G01 X-56.9170 Y6.1001 
G01 X-59.7051 Y8.8882 
G01 X-59.8318 Y9.0149 
G01 X-59.9314 Y9.1640 
G01 X-60.0000 Y9.3296 
G01 X-60.0350 Y9.5054 
G01 X-60.0350 Y9.7622 
G01 X-60.5725 Y9.2246 
G01 X-61.3475 Y9.2246 
G01 X-61.8954 Y9.7725 
G00 Z2.0000 
G00 X-56.3095 Y34.0570 
G01 Z-0.3000 F100.00 
G01 X-55.4505 Y34.0570 F250.00 
G01 X-54.8430 Y33.4495 
G01 X-54.8430 Y32.5905 
G01 X-55.4505 Y31.9830 
G01 X-56.3095 Y31.9830 
G01 X-56.4165 Y32.0900 
G01 X-58.2171 Y32.0900 
G01 X-58.7902 Y31.5170 
G01 X-57.9905 Y31.5170 
G01 X-57.3830 Y30.9095 
G01 X-57.3830 Y30.0505 
G01 X-57.9905 Y29.4430 
G01 X-58.8495 Y29.4430 
G01 X-59.4150 Y30.0085 
G01 X-59.4150 Y29.0769 
G01 X-56.4182 Y26.0801 
G01 X-56.3186 Y25.9310 
G01 X-56.2500 Y25.7654 
G01 X-56.2150 Y25.5896 
G01 X-56.2150 Y14.3769 
G01 X-52.6332 Y10.7951 
G01 X-52.5947 Y10.7376 
G01 X-52.4046 Y10.5475 
G01 X-52.4046 Y9.7725 
G01 X-52.9525 Y9.2246 
G01 X-53.7275 Y9.2246 
G01 X-54.2754 Y9.7725 
G01 X-54.2754 Y9.8635 
G01 X-57.8318 Y13.4199 
G01 X-57.9314 Y13.5690 
G01 X-58.0000 Y13.7346 
G01 X-58.0350 Y13.9104 
G01 X-58.0350 Y25.1231 
G01 X-60.9051 Y27.9932 
G01 X-61.0318 Y28.1199 
G01 X-61.1314 Y28.2690 
G01 X-61.2000 Y28.4346 
G01 X-61.2350 Y28.6104 
G01 X-61.2350 Y31.3587 
G01 X-61.2000 Y31.5345 
G01 X-61.1314 Y31.7001 
G01 X-61.0318 Y31.8492 
G01 X-59.1742 Y33.7068 
G01 X-59.0251 Y33.8064 
G01 X-58.8595 Y33.8750 
G01 X-58.6837 Y33.9100 
G01 X-56.4565 Y33.9100 
G01 X-56.3095 Y34.0570 
G00 Z2.0000 
G00 X-45.2936 Y22.6270 
G01 Z-0.3000 F100.00 
G01 X-43.6064 Y22.6270 F250.00 
G01 X-43.4452 Y22.6015 
G01 X-43.2899 Y22.5510 
G01 X-43.1445 Y22.4769 
G01 X-43.0124 Y22.3810 
G01 X-42.8970 Y22.2656 
G01 X-42.8011 Y22.1335 
G01 X-42.7270 Y21.9881 
G01 X-42.6765 Y21.8328 
G01 X-42.6510 Y21.6716 
G01 X-42.6510 Y21.5084 
G01 X-42.6765 Y21.3472 
G01 X-42.7270 Y21.1919 
G01 X-42.8011 Y21.0465 
G01 X-42.8970 Y20.9144 
G01 X-43.0124 Y20.7990 
G01 X-43.1445 Y20.7031 
G01 X-43.2899 Y20.6290 
G01 X-43.4452 Y20.5785 
G01 X-43.6064 Y20.5530 
G01 X-45.2936 Y20.5530 
G01 X-45.4548 Y20.5785 
G01 X-45.6101 Y20.6290 
G01 X-45.7555 Y20.7031 
G01 X-45.8876 Y20.7990 
G01 X-46.0030 Y20.9144 
