(.../Documents/EAGLE/ulps/pcb-gcode.ulp)
(Copyright 2005 - 2012 by John Johnson)
(See readme.txt for licensing terms.)
(This file generated from the board:)
(.../Documents/EAGLE/projects/PFE/PID.brd)
(Current profile is .../EAGLE/ulps/profiles/generic.pp  )
(This file generated 12/12/2019 20:18)
(Settings from pcb-machine.h)
(  Tool Size)
(1.9000 )
(Z Axis Settings)
(  High     Up        Down     Drill)
(5.0000 	2.0000 	-0.3000 	-1.9000 )
(spindle on time = 0.0000)
(milling depth = -1.9000)
(text depth = -0.1000)
(tool change at 0.0000 0.0000 5.0000 )
(feed rate xy = F250.00 )
(feed rate z  = F100.00 )
(Settings from pcb-defaults.h)
(isolate min = 0.0000)
(isolate max = 0.5000)
(isolate step = 0.2500)
(Generated top outlines, top drill, bottom outlines, bottom drill, )
(Unit of measure: mm)
(Metric Mode)
G21
(Absolute Coordinates)
G90
G00 X0.0000 Y0.0000 
M03
G04 P0.000000
G00 Z2.0000 
G00 X38.0635 Y0.7935 
G01 Z-0.1000 F100.00 
G01 X38.0635 Y2.1665 F250.00 
G01 X38.4449 Y2.1665 
G00 Z2.0000 
G01 Z-0.1000 F100.00 
G02 X38.4449 Y1.4037 I0.0000 J-0.3814 
G00 Z2.0000 
G00 X38.4449 Y1.4037 
G01 Z-0.1000 F100.00 
G01 X38.0635 Y1.4037 F250.00 
G00 Z2.0000 
G00 X39.4593 Y2.1665 
G01 Z-0.1000 F100.00 
G01 X39.4593 Y0.7935 F250.00 
G00 Z2.0000 
G00 X39.3067 Y0.7935 
G01 Z-0.1000 F100.00 
G01 X39.6119 Y0.7935 F250.00 
G00 Z2.0000 
G00 X39.3067 Y2.1665 
G01 Z-0.1000 F100.00 
G01 X39.6119 Y2.1665 F250.00 
G00 Z2.0000 
G00 X40.2029 Y0.7935 
G01 Z-0.1000 F100.00 
G01 X40.2029 Y2.1665 F250.00 
G01 X40.5843 Y2.1665 
G00 Z2.0000 
G01 Z-0.1000 F100.00 
G02 X40.9657 Y1.7851 I0.0000 J-0.3814 
G00 Z2.0000 
G00 X40.9657 Y1.7851 
G01 Z-0.1000 F100.00 
G01 X40.9657 Y1.1749 F250.00 
G00 Z2.0000 
G00 X40.9657 Y1.1749 
G01 Z-0.1000 F100.00 
G02 X40.5843 Y0.7935 I-0.3814 J0.0000 
G00 Z2.0000 
G00 X40.5843 Y0.7935 
G01 Z-0.1000 F100.00 
G01 X40.2029 Y0.7935 F250.00 
G00 Z2.0000 
G00 X42.3563 Y2.1665 
G01 Z-0.1000 F100.00 
G01 X42.3563 Y0.7935 F250.00 
G01 X42.7377 Y0.7935 
G00 Z2.0000 
G00 X42.9666 Y1.0223 
G01 Z-0.1000 F100.00 
G02 X42.7377 Y0.7935 I-0.2288 J0.0000 
G00 Z2.0000 
G01 Z-0.1000 F100.00 
G01 X42.9666 Y1.4800 F250.00 
G00 Z2.0000 
G00 X42.7377 Y1.7088 
G01 Z-0.1000 F100.00 
G02 X42.9666 Y1.4800 I0.0000 J-0.2288 
G00 Z2.0000 
G01 Z-0.1000 F100.00 
G01 X42.3563 Y1.7088 F250.00 
G00 Z2.0000 
G00 X43.5192 Y1.0986 
G01 Z-0.1000 F100.00 
G01 X43.5192 Y1.4037 F250.00 
G00 Z2.0000 
G00 X43.5192 Y1.4037 
G01 Z-0.1000 F100.00 
G02 X44.1294 Y1.4037 I0.3051 J0.0000 
G00 Z2.0000 
G00 X44.1294 Y1.4037 
G01 Z-0.1000 F100.00 
G01 X44.1294 Y1.0986 F250.00 
G00 Z2.0000 
G00 X44.1294 Y1.0986 
G01 Z-0.1000 F100.00 
G02 X43.5192 Y1.0986 I-0.3051 J0.0000 
G00 Z2.0000 
G00 X45.2922 Y1.3274 
G01 Z-0.1000 F100.00 
G01 X44.9490 Y1.3274 F250.00 
G00 Z2.0000 
G00 X44.9490 Y0.7935 
G01 Z-0.1000 F100.00 
G02 X44.9490 Y1.3274 I0.0000 J0.2670 
G00 Z2.0000 
G01 Z-0.1000 F100.00 
G01 X45.2922 Y0.7935 F250.00 
G01 X45.2922 Y1.4800 
G00 Z2.0000 
G00 X45.0634 Y1.7088 
G01 Z-0.1000 F100.00 
G02 X45.2922 Y1.4800 I0.0000 J-0.2288 
G00 Z2.0000 
G01 Z-0.1000 F100.00 
G01 X44.7583 Y1.7088 F250.00 
G00 Z2.0000 
G00 X45.9572 Y0.7935 
G01 Z-0.1000 F100.00 
G01 X45.9572 Y1.7088 F250.00 
G01 X46.4149 Y1.7088 
G01 X46.4149 Y1.5563 
G00 Z2.0000 
G00 X47.4522 Y2.1665 
G01 Z-0.1000 F100.00 
G01 X47.4522 Y0.7935 F250.00 
G01 X47.0708 Y0.7935 
G00 Z2.0000 
G01 Z-0.1000 F100.00 
G02 X46.8420 Y1.0223 I0.0000 J0.2288 
G00 Z2.0000 
G00 X46.8420 Y1.0223 
G01 Z-0.1000 F100.00 
G01 X46.8420 Y1.4800 F250.00 
G00 Z2.0000 
G00 X46.8420 Y1.4800 
G01 Z-0.1000 F100.00 
G02 X47.0708 Y1.7088 I0.2288 J0.0000 
G00 Z2.0000 
G00 X47.0708 Y1.7088 
G01 Z-0.1000 F100.00 
G01 X47.4522 Y1.7088 F250.00 
G00 Z2.0000 
G00 X49.3872 Y1.3274 
G01 Z-0.1000 F100.00 
G01 X49.0440 Y1.3274 F250.00 
G00 Z2.0000 
G00 X49.0440 Y0.7935 
G01 Z-0.1000 F100.00 
G02 X49.0440 Y1.3274 I0.0000 J0.2670 
G00 Z2.0000 
G01 Z-0.1000 F100.00 
G01 X49.3872 Y0.7935 F250.00 
G01 X49.3872 Y1.4800 
G00 Z2.0000 
G00 X49.1584 Y1.7088 
G01 Z-0.1000 F100.00 
G02 X49.3872 Y1.4800 I0.0000 J-0.2288 
G00 Z2.0000 
G01 Z-0.1000 F100.00 
G01 X48.8533 Y1.7088 F250.00 
G00 Z2.0000 
G00 X50.0160 Y2.1665 
G01 Z-0.1000 F100.00 
G01 X50.0160 Y1.0223 F250.00 
G00 Z2.0000 
G00 X50.2449 Y0.7935 
G01 Z-0.1000 F100.00 
G02 X50.0160 Y1.0223 I0.0000 J0.2288 
G00 Z2.0000 
G00 X50.7713 Y0.3358 
G01 Z-0.1000 F100.00 
G01 X50.7713 Y1.7088 F250.00 
G01 X51.1527 Y1.7088 
G00 Z2.0000 
G01 Z-0.1000 F100.00 
G02 X51.3815 Y1.4800 I0.0000 J-0.2288 
G00 Z2.0000 
G00 X51.3815 Y1.4800 
G01 Z-0.1000 F100.00 
G01 X51.3815 Y1.0223 F250.00 
G00 Z2.0000 
G00 X51.3815 Y1.0223 
G01 Z-0.1000 F100.00 
G02 X51.1527 Y0.7935 I-0.2288 J0.0000 
G00 Z2.0000 
G00 X51.1527 Y0.7935 
G01 Z-0.1000 F100.00 
G01 X50.7713 Y0.7935 F250.00 
G00 Z2.0000 
G00 X51.9792 Y0.7935 
G01 Z-0.1000 F100.00 
G01 X51.9792 Y2.1665 F250.00 
G00 Z2.0000 
G00 X51.9792 Y1.7088 
G01 Z-0.1000 F100.00 
G01 X52.3605 Y1.7088 F250.00 
G00 Z2.0000 
G00 X52.3605 Y1.7088 
G01 Z-0.1000 F100.00 
G02 X52.5894 Y1.4800 I0.0000 J-0.2288 
G00 Z2.0000 
G00 X52.5894 Y1.4800 
G01 Z-0.1000 F100.00 
G01 X52.5894 Y0.7935 F250.00 
G00 Z2.0000 
G00 X53.7972 Y1.3274 
G01 Z-0.1000 F100.00 
G01 X53.4540 Y1.3274 F250.00 
G00 Z2.0000 
G00 X53.4540 Y0.7935 
G01 Z-0.1000 F100.00 
G02 X53.4540 Y1.3274 I0.0000 J0.2670 
G00 Z2.0000 
G01 Z-0.1000 F100.00 
G01 X53.7972 Y0.7935 F250.00 
G01 X53.7972 Y1.4800 
G00 Z2.0000 
G00 X53.5684 Y1.7088 
G01 Z-0.1000 F100.00 
G02 X53.7972 Y1.4800 I0.0000 J-0.2288 
G00 Z2.0000 
G01 Z-0.1000 F100.00 
G01 X53.2633 Y1.7088 F250.00 
G00 Z2.0000 
G00 X55.1879 Y0.7935 
G01 Z-0.1000 F100.00 
G01 X55.1879 Y2.1665 F250.00 
G01 X55.5693 Y2.1665 
G00 Z2.0000 
G01 Z-0.1000 F100.00 
G02 X55.9507 Y1.7851 I0.0000 J-0.3814 
G00 Z2.0000 
G00 X55.9506 Y1.7851 
G01 Z-0.1000 F100.00 
G01 X55.9506 Y1.1749 F250.00 
G00 Z2.0000 
G00 X55.9506 Y1.1749 
G01 Z-0.1000 F100.00 
G02 X55.5693 Y0.7935 I-0.3814 J0.0000 
G00 Z2.0000 
G00 X55.5693 Y0.7935 
G01 Z-0.1000 F100.00 
G01 X55.1879 Y0.7935 F250.00 
G00 Z2.0000 
G00 X56.5066 Y0.7935 
G01 Z-0.1000 F100.00 
G01 X57.4219 Y2.1665 F250.00 
G00 Z2.0000 
G00 X56.5066 Y2.1665 
G01 Z-0.1000 F100.00 
G01 X57.4219 Y0.7935 F250.00 
G00 Z2.0000 
G00 X57.9466 Y1.3274 
G01 Z-0.1000 F100.00 
G01 X58.8619 Y1.3274 F250.00 
G00 Z2.0000 
G00 X58.4043 Y0.8698 
G01 Z-0.1000 F100.00 
G01 X58.4043 Y1.7851 F250.00 
G00 Z5.0000 
M05
M02
