(.../Documents/EAGLE/ulps/pcb-gcode.ulp)
(Copyright 2005 - 2012 by John Johnson)
(See readme.txt for licensing terms.)
(This file generated from the board:)
(.../Documents/EAGLE/projects/PFE/PID.brd)
(Current profile is .../EAGLE/ulps/profiles/generic.pp  )
(This file generated 12/12/2019 20:18)
(Settings from pcb-machine.h)
(  Tool Size)
(0.0500 )
(Z Axis Settings)
(  High     Up        Down     Drill)
(5.0000 	2.0000 	-0.3000 	-1.9000 )
(spindle on time = 0.0000)
(milling depth = -1.9000)
(text depth = -0.1000)
(tool change at 0.0000 0.0000 5.0000 )
(feed rate xy = F250.00 )
(feed rate z  = F100.00 )
(Settings from pcb-defaults.h)
(isolate min = 0.0000)
(isolate max = 0.5000)
(isolate step = 0.2500)
(Generated top outlines, top drill, bottom outlines, bottom drill, )
(Unit of measure: mm)
(Metric Mode)
G21
(Absolute Coordinates)
G90
G00 X0.0000 Y0.0000 
M03
G04 P0.000000
G00 Z2.0000 
G00 X3.1373 Y12.2793 
G01 Z-0.3000 F100.00 
G01 X6.9650 Y8.4516 F250.00 
G01 X6.9650 Y5.0251 
G01 X6.9904 Y4.8976 
G01 X7.0401 Y4.7775 
G01 X7.1123 Y4.6694 
G01 X7.2043 Y4.5775 
G01 X10.9355 Y0.8462 
G01 X11.0436 Y0.7740 
G01 X11.1637 Y0.7243 
G01 X11.2912 Y0.6989 
G01 X29.1739 Y0.6989 
G01 X29.3014 Y0.7243 
G01 X29.4215 Y0.7740 
G01 X29.5296 Y0.8462 
G01 X29.6216 Y0.9382 
G01 X33.1903 Y4.5069 
G01 X33.2807 Y4.5673 
G01 X33.3727 Y4.6593 
G01 X33.4449 Y4.7674 
G01 X33.4946 Y4.8875 
G01 X33.5200 Y5.0150 
G01 X33.5200 Y5.1450 
G01 X33.4946 Y5.2725 
G01 X33.4449 Y5.3926 
G01 X33.3727 Y5.5007 
G01 X33.2807 Y5.5927 
G01 X33.1726 Y5.6649 
G01 X33.0525 Y5.7146 
G01 X32.9250 Y5.7400 
G01 X32.7650 Y5.7400 
G01 X32.6375 Y5.7146 
G01 X32.5174 Y5.6649 
G01 X32.4093 Y5.5927 
G01 X28.8355 Y2.0189 
G01 X11.6296 Y2.0189 
G01 X8.2850 Y5.3635 
G01 X8.2850 Y8.7900 
G01 X8.2596 Y8.9175 
G01 X8.2099 Y9.0376 
G01 X8.1377 Y9.1457 
G01 X8.0457 Y9.2377 
G01 X4.0707 Y13.2127 
G01 X3.9626 Y13.2849 
G01 X3.8425 Y13.3346 
G01 X3.7150 Y13.3600 
G01 X3.5850 Y13.3600 
G01 X3.4575 Y13.3346 
G01 X3.3374 Y13.2849 
G01 X3.2293 Y13.2127 
G01 X3.1373 Y13.1207 
G01 X3.0651 Y13.0126 
G01 X3.0154 Y12.8925 
G01 X2.9900 Y12.7650 
G01 X2.9900 Y12.6350 
G01 X3.0154 Y12.5075 
G01 X3.0651 Y12.3874 
G01 X3.1373 Y12.2793 
G00 Z2.0000 
G00 X29.8954 Y30.1961 
G01 Z-0.3000 F100.00 
G01 X29.8954 Y30.7639 F250.00 
G01 X29.4939 Y31.1654 
G01 X28.9261 Y31.1654 
G01 X28.5246 Y30.7639 
G01 X28.5246 Y30.1961 
G01 X28.9261 Y29.7946 
G01 X29.4939 Y29.7946 
G01 X29.8954 Y30.1961 
G00 Z2.0000 
G00 X22.2754 Y30.7639 
G01 Z-0.3000 F100.00 
G01 X21.8739 Y31.1654 F250.00 
G01 X21.3061 Y31.1654 
G01 X20.9046 Y30.7639 
G01 X20.9046 Y30.1961 
G01 X21.3061 Y29.7946 
G01 X21.3716 Y29.7946 
G01 X23.3820 Y27.7842 
G01 X23.3820 Y26.1908 
G01 X21.0773 Y23.8861 
G01 X21.0051 Y23.7780 
G01 X20.9554 Y23.6579 
G01 X20.9300 Y23.5304 
G01 X20.9300 Y18.0132 
G01 X20.9179 Y17.9839 
G01 X20.8910 Y17.8488 
G01 X20.8910 Y17.7112 
G01 X20.9179 Y17.5761 
G01 X20.9706 Y17.4489 
G01 X21.0471 Y17.3344 
G01 X21.1444 Y17.2370 
G01 X21.2589 Y17.1606 
G01 X21.3861 Y17.1079 
G01 X21.5212 Y17.0810 
G01 X21.6588 Y17.0810 
G01 X21.7939 Y17.1079 
G01 X21.8232 Y17.1200 
G01 X26.1726 Y17.1200 
G01 X26.2792 Y17.0488 
G01 X26.4293 Y16.9866 
G01 X26.5887 Y16.9549 
G01 X26.7513 Y16.9549 
G01 X26.9107 Y16.9866 
G01 X27.0608 Y17.0488 
G01 X27.1960 Y17.1391 
G01 X27.2719 Y17.2150 
G01 X28.3350 Y17.2150 
G01 X28.4625 Y17.2404 
G01 X28.5826 Y17.2901 
G01 X28.6907 Y17.3623 
G01 X28.7827 Y17.4543 
G01 X32.1684 Y20.8400 
G01 X32.8350 Y20.8400 
G01 X32.9625 Y20.8654 
G01 X33.0826 Y20.9151 
G01 X33.1907 Y20.9873 
G01 X33.3727 Y21.1693 
G01 X33.4449 Y21.2774 
G01 X33.4946 Y21.3975 
G01 X33.5200 Y21.5250 
G01 X33.5200 Y21.6550 
G01 X33.4946 Y21.7825 
G01 X33.4449 Y21.9026 
G01 X33.3727 Y22.0107 
G01 X33.2807 Y22.1027 
G01 X33.1726 Y22.1749 
G01 X33.0525 Y22.2246 
G01 X32.9250 Y22.2500 
G01 X32.7950 Y22.2500 
G01 X32.6675 Y22.2246 
G01 X32.5474 Y22.1749 
G01 X32.5251 Y22.1600 
G01 X31.8300 Y22.1600 
G01 X31.7025 Y22.1346 
G01 X31.5824 Y22.0849 
G01 X31.4743 Y22.0127 
G01 X31.3823 Y21.9207 
G01 X27.9966 Y18.5350 
G01 X27.0034 Y18.5350 
G01 X26.9107 Y18.5734 
G01 X26.7513 Y18.6051 
G01 X26.5887 Y18.6051 
G01 X26.4293 Y18.5734 
G01 X26.2792 Y18.5112 
G01 X26.1726 Y18.4400 
G01 X22.2500 Y18.4400 
G01 X22.2500 Y23.1920 
G01 X24.5547 Y25.4966 
G01 X24.6269 Y25.6047 
G01 X24.6766 Y25.7249 
G01 X24.7020 Y25.8524 
G01 X24.7020 Y28.1226 
G01 X24.6766 Y28.2501 
G01 X24.6269 Y28.3703 
G01 X24.5547 Y28.4784 
G01 X22.2754 Y30.7576 
G01 X22.2754 Y30.7639 
G00 Z2.0000 
G00 X45.2895 Y7.1370 
G01 Z-0.3000 F100.00 
G01 X43.6105 Y7.1370 F250.00 
G01 X43.4584 Y7.1068 
G01 X43.3152 Y7.0474 
G01 X43.1863 Y6.9613 
G01 X43.0767 Y6.8517 
G01 X42.9906 Y6.7228 
G01 X42.9312 Y6.5796 
G01 X42.9010 Y6.4275 
G01 X42.9010 Y6.2725 
G01 X42.9312 Y6.1204 
G01 X42.9906 Y5.9772 
G01 X43.0767 Y5.8483 
G01 X43.1863 Y5.7387 
G01 X43.3152 Y5.6526 
G01 X43.4584 Y5.5932 
G01 X43.6105 Y5.5630 
G01 X45.2895 Y5.5630 
G01 X45.4416 Y5.5932 
G01 X45.5848 Y5.6526 
G01 X45.6408 Y5.6900 
G01 X49.2207 Y5.6900 
G01 X49.2461 Y5.6646 
G01 X49.8139 Y5.6646 
G01 X50.2154 Y6.0661 
G01 X50.2154 Y6.6339 
G01 X49.8139 Y7.0354 
G01 X49.2461 Y7.0354 
G01 X49.2207 Y7.0100 
G01 X45.6408 Y7.0100 
G01 X45.5848 Y7.0474 
G01 X45.4416 Y7.1068 
G01 X45.2895 Y7.1370 
G00 Z2.0000 
G00 X45.2895 Y9.6770 
G01 Z-0.3000 F100.00 
G01 X43.6105 Y9.6770 F250.00 
G01 X43.4584 Y9.6468 
G01 X43.3152 Y9.5874 
G01 X43.2368 Y9.5350 
G01 X41.9900 Y9.5350 
G01 X41.8625 Y9.5096 
G01 X41.7424 Y9.4599 
G01 X41.6343 Y9.3877 
G01 X40.2873 Y8.0407 
G01 X40.2151 Y7.9326 
G01 X40.1654 Y7.8125 
G01 X40.1400 Y7.6850 
G01 X40.1400 Y7.5550 
G01 X40.1654 Y7.4275 
G01 X40.2151 Y7.3074 
G01 X40.2873 Y7.1993 
G01 X40.3793 Y7.1073 
G01 X40.4874 Y7.0351 
G01 X40.6075 Y6.9854 
G01 X40.7350 Y6.9600 
G01 X40.8650 Y6.9600 
G01 X40.9925 Y6.9854 
G01 X41.1126 Y7.0351 
G01 X41.2207 Y7.1073 
G01 X42.3284 Y8.2150 
G01 X43.2816 Y8.2150 
G01 X43.3152 Y8.1926 
G01 X43.4584 Y8.1332 
G01 X43.6105 Y8.1030 
G01 X45.2895 Y8.1030 
G01 X45.4416 Y8.1332 
G01 X45.5848 Y8.1926 
G01 X45.7137 Y8.2787 
G01 X45.8233 Y8.3883 
G01 X45.9094 Y8.5172 
G01 X45.9688 Y8.6604 
G01 X45.9990 Y8.8125 
G01 X45.9990 Y8.9675 
G01 X45.9688 Y9.1196 
G01 X45.9094 Y9.2628 
G01 X45.8233 Y9.3917 
G01 X45.7137 Y9.5013 
G01 X45.5848 Y9.5874 
G01 X45.4416 Y9.6468 
G01 X45.2895 Y9.6770 
G00 Z2.0000 
G00 X45.2895 Y19.8370 
G01 Z-0.3000 F100.00 
G01 X43.6105 Y19.8370 F250.00 
G01 X43.4584 Y19.8068 
G01 X43.3152 Y19.7474 
G01 X43.1863 Y19.6613 
G01 X43.0767 Y19.5517 
G01 X42.9906 Y19.4228 
G01 X42.9312 Y19.2796 
G01 X42.9010 Y19.1275 
G01 X42.9010 Y18.9725 
G01 X42.9312 Y18.8204 
G01 X42.9906 Y18.6772 
G01 X43.0767 Y18.5483 
G01 X43.1863 Y18.4387 
G01 X43.3152 Y18.3526 
G01 X43.4584 Y18.2932 
G01 X43.6105 Y18.2630 
G01 X45.2895 Y18.2630 
G01 X45.4416 Y18.2932 
G01 X45.5848 Y18.3526 
G01 X45.7137 Y18.4387 
G01 X45.8233 Y18.5483 
G01 X45.9094 Y18.6772 
G01 X45.9688 Y18.8204 
G01 X45.9990 Y18.9725 
G01 X45.9990 Y19.1275 
G01 X45.9688 Y19.2796 
G01 X45.9094 Y19.4228 
G01 X45.8233 Y19.5517 
G01 X45.7137 Y19.6613 
G01 X45.5848 Y19.7474 
G01 X45.4416 Y19.8068 
G01 X45.2895 Y19.8370 
G00 Z2.0000 
G00 X45.2895 Y31.2670 
G01 Z-0.3000 F100.00 
G01 X43.6105 Y31.2670 F250.00 
G01 X43.4584 Y31.2368 
G01 X43.3152 Y31.1774 
G01 X43.1863 Y31.0913 
G01 X43.0767 Y30.9817 
G01 X42.9906 Y30.8528 
G01 X42.9312 Y30.7096 
G01 X42.9010 Y30.5575 
G01 X42.9010 Y30.4025 
G01 X42.9312 Y30.2504 
G01 X42.9906 Y30.1072 
G01 X43.0767 Y29.9783 
G01 X43.1863 Y29.8687 
G01 X43.3152 Y29.7826 
G01 X43.4584 Y29.7232 
G01 X43.6105 Y29.6930 
G01 X45.2895 Y29.6930 
G01 X45.4416 Y29.7232 
G01 X45.5848 Y29.7826 
G01 X45.7137 Y29.8687 
G01 X45.8233 Y29.9783 
G01 X45.9094 Y30.1072 
G01 X45.9688 Y30.2504 
G01 X45.9990 Y30.4025 
G01 X45.9990 Y30.5575 
G01 X45.9688 Y30.7096 
G01 X45.9094 Y30.8528 
G01 X45.8233 Y30.9817 
G01 X45.7137 Y31.0913 
G01 X45.5848 Y31.1774 
G01 X45.4416 Y31.2368 
G01 X45.2895 Y31.2670 
G00 Z2.0000 
G00 X56.6670 Y32.6940 
G01 Z-0.3000 F100.00 
G01 X56.6670 Y33.3460 F250.00 
G01 X56.2060 Y33.8070 
G01 X55.5540 Y33.8070 
G01 X55.0930 Y33.3460 
G01 X55.0930 Y32.6940 
G01 X55.5540 Y32.2330 
G01 X56.2060 Y32.2330 
G01 X56.6670 Y32.6940 
G00 Z2.0000 
G00 X54.1270 Y35.2340 
G01 Z-0.3000 F100.00 
G01 X54.1270 Y35.8860 F250.00 
G01 X53.6660 Y36.3470 
G01 X53.0140 Y36.3470 
G01 X52.5530 Y35.8860 
G01 X52.5530 Y35.2340 
G01 X53.0140 Y34.7730 
G01 X53.6660 Y34.7730 
G01 X54.1270 Y35.2340 
G00 Z2.0000 
G00 X56.6670 Y6.0240 
G01 Z-0.3000 F100.00 
G01 X56.6670 Y6.6760 F250.00 
G01 X56.2060 Y7.1370 
G01 X55.5540 Y7.1370 
G01 X55.0930 Y6.6760 
G01 X55.0930 Y6.0240 
G01 X55.5540 Y5.5630 
G01 X56.2060 Y5.5630 
G01 X56.6670 Y6.0240 
G00 Z2.0000 
G00 X61.6454 Y26.3861 
G01 Z-0.3000 F100.00 
G01 X61.6454 Y26.9539 F250.00 
G01 X61.2439 Y27.3554 
G01 X60.6761 Y27.3554 
G01 X60.2746 Y26.9539 
G01 X60.2746 Y26.3861 
G01 X60.6761 Y25.9846 
G01 X61.2439 Y25.9846 
G01 X61.6454 Y26.3861 
G00 Z2.0000 
G00 X54.0254 Y26.3861 
G01 Z-0.3000 F100.00 
G01 X54.0254 Y26.9539 F250.00 
G01 X53.6239 Y27.3554 
G01 X53.0561 Y27.3554 
G01 X52.6546 Y26.9539 
G01 X52.6546 Y26.3861 
G01 X53.0561 Y25.9846 
G01 X53.6239 Y25.9846 
G01 X54.0254 Y26.3861 
G00 Z2.0000 
G00 X61.7640 Y22.7966 
G01 Z-0.3000 F100.00 
G01 X61.7640 Y22.9234 F250.00 
G01 X61.7392 Y23.0478 
G01 X61.6907 Y23.1650 
G01 X61.6202 Y23.2705 
G01 X61.5305 Y23.3602 
G01 X61.4250 Y23.4307 
G01 X61.3078 Y23.4792 
G01 X61.1834 Y23.5040 
G01 X61.0566 Y23.5040 
G01 X60.9322 Y23.4792 
G01 X60.8150 Y23.4307 
G01 X60.7095 Y23.3602 
G01 X60.6198 Y23.2705 
G01 X60.5493 Y23.1650 
G01 X60.5008 Y23.0478 
G01 X60.4760 Y22.9234 
G01 X60.4760 Y22.7966 
G01 X60.5008 Y22.6722 
G01 X60.5493 Y22.5550 
G01 X60.6198 Y22.4495 
G01 X60.7095 Y22.3598 
G01 X60.8150 Y22.2893 
G01 X60.9322 Y22.2408 
G01 X61.0566 Y22.2160 
G01 X61.1834 Y22.2160 
G01 X61.3078 Y22.2408 
G01 X61.4250 Y22.2893 
G01 X61.5305 Y22.3598 
G01 X61.6202 Y22.4495 
G01 X61.6907 Y22.5550 
G01 X61.7392 Y22.6722 
G01 X61.7640 Y22.7966 
G00 Z2.0000 
G00 X61.7640 Y17.7166 
G01 Z-0.3000 F100.00 
G01 X61.7640 Y17.8434 F250.00 
G01 X61.7392 Y17.9678 
G01 X61.6907 Y18.0850 
G01 X61.6202 Y18.1905 
G01 X61.5305 Y18.2802 
G01 X61.4250 Y18.3507 
G01 X61.3078 Y18.3992 
G01 X61.1834 Y18.4240 
G01 X61.0566 Y18.4240 
G01 X60.9322 Y18.3992 
G01 X60.8150 Y18.3507 
G01 X60.7095 Y18.2802 
G01 X60.6198 Y18.1905 
G01 X60.5493 Y18.0850 
G01 X60.5008 Y17.9678 
G01 X60.4760 Y17.8434 
G01 X60.4760 Y17.7166 
G01 X60.5008 Y17.5922 
G01 X60.5493 Y17.4749 
G01 X60.6198 Y17.3695 
G01 X60.7095 Y17.2798 
G01 X60.8150 Y17.2093 
G01 X60.9322 Y17.1608 
G01 X61.0566 Y17.1360 
G01 X61.1834 Y17.1360 
G01 X61.3078 Y17.1608 
G01 X61.4250 Y17.2093 
G01 X61.5305 Y17.2798 
G01 X61.6202 Y17.3695 
G01 X61.6907 Y17.4749 
G01 X61.7392 Y17.5922 
G01 X61.7640 Y17.7166 
G00 Z2.0000 
G00 X61.7640 Y15.1766 
G01 Z-0.3000 F100.00 
G01 X61.7640 Y15.3034 F250.00 
G01 X61.7392 Y15.4278 
G01 X61.6907 Y15.5450 
G01 X61.6202 Y15.6505 
G01 X61.5305 Y15.7402 
G01 X61.4250 Y15.8107 
G01 X61.3078 Y15.8592 
G01 X61.1834 Y15.8840 
G01 X61.0566 Y15.8840 
G01 X60.9322 Y15.8592 
G01 X60.8150 Y15.8107 
G01 X60.7095 Y15.7402 
G01 X60.6198 Y15.6505 
G01 X60.5493 Y15.5450 
G01 X60.5008 Y15.4278 
G01 X60.4760 Y15.3034 
G01 X60.4760 Y15.1766 
G01 X60.5008 Y15.0522 
G01 X60.5493 Y14.9350 
G01 X60.6198 Y14.8295 
G01 X60.7095 Y14.7398 
G01 X60.8150 Y14.6693 
G01 X60.9322 Y14.6208 
G01 X61.0566 Y14.5960 
G01 X61.1834 Y14.5960 
G01 X61.3078 Y14.6208 
G01 X61.4250 Y14.6693 
G01 X61.5305 Y14.7398 
G01 X61.6202 Y14.8295 
G01 X61.6907 Y14.9350 
G01 X61.7392 Y15.0522 
G01 X61.7640 Y15.1766 
G00 Z2.0000 
G00 X53.8240 Y20.2566 
G01 Z-0.3000 F100.00 
G01 X53.8240 Y20.3834 F250.00 
G01 X53.7992 Y20.5078 
G01 X53.7507 Y20.6250 
G01 X53.6802 Y20.7305 
G01 X53.5905 Y20.8202 
G01 X53.4850 Y20.8907 
G01 X53.3678 Y20.9392 
G01 X53.2434 Y20.9640 
G01 X53.1166 Y20.9640 
G01 X52.9922 Y20.9392 
G01 X52.8750 Y20.8907 
G01 X52.7695 Y20.8202 
G01 X52.6798 Y20.7305 
G01 X52.6093 Y20.6250 
G01 X52.5608 Y20.5078 
G01 X52.5360 Y20.3834 
G01 X52.5360 Y20.2566 
G01 X52.5608 Y20.1321 
G01 X52.6093 Y20.0150 
G01 X52.6798 Y19.9095 
G01 X52.7695 Y19.8198 
G01 X52.8750 Y19.7493 
G01 X52.9922 Y19.7007 
G01 X53.1166 Y19.6760 
G01 X53.2434 Y19.6760 
G01 X53.3678 Y19.7007 
G01 X53.4850 Y19.7493 
G01 X53.5905 Y19.8198 
G01 X53.6802 Y19.9095 
G01 X53.7507 Y20.0150 
G01 X53.7992 Y20.1321 
G01 X53.8240 Y20.2566 
G00 Z2.0000 
G00 X53.8240 Y22.2306 
G01 Z-0.3000 F100.00 
G01 X53.8240 Y23.4894 F250.00 
G01 X53.8094 Y23.5040 
G01 X52.5506 Y23.5040 
G01 X52.5360 Y23.4894 
G01 X52.5360 Y22.2306 
G01 X52.5506 Y22.2160 
G01 X53.8094 Y22.2160 
G01 X53.8240 Y22.2306 
G00 Z2.0000 
G00 X50.2154 Y13.6861 
G01 Z-0.3000 F100.00 
G01 X50.2154 Y14.2539 F250.00 
G01 X49.8139 Y14.6554 
G01 X49.2461 Y14.6554 
G01 X48.8446 Y14.2539 
G01 X48.8446 Y13.6861 
G01 X49.2461 Y13.2846 
G01 X49.8139 Y13.2846 
G01 X50.2154 Y13.6861 
G00 Z2.0000 
G00 X50.2154 Y23.8461 
G01 Z-0.3000 F100.00 
G01 X50.2154 Y24.4139 F250.00 
G01 X49.8139 Y24.8154 
G01 X49.2461 Y24.8154 
G01 X48.8446 Y24.4139 
G01 X48.8446 Y23.8461 
G01 X49.2461 Y23.4446 
G01 X49.8139 Y23.4446 
G01 X50.2154 Y23.8461 
G00 Z2.0000 
G00 X50.2154 Y16.2261 
G01 Z-0.3000 F100.00 
G01 X50.2154 Y16.7939 F250.00 
G01 X49.8139 Y17.1954 
G01 X49.2461 Y17.1954 
G01 X48.8446 Y16.7939 
G01 X48.8446 Y16.2261 
G01 X49.2461 Y15.8246 
G01 X49.8139 Y15.8246 
G01 X50.2154 Y16.2261 
G00 Z2.0000 
G00 X50.2154 Y26.3861 
G01 Z-0.3000 F100.00 
G01 X50.2154 Y26.9539 F250.00 
G01 X49.8139 Y27.3554 
G01 X49.2461 Y27.3554 
G01 X48.8446 Y26.9539 
G01 X48.8446 Y26.3861 
G01 X49.2461 Y25.9846 
G01 X49.8139 Y25.9846 
G01 X50.2154 Y26.3861 
G00 Z2.0000 
G00 X50.2154 Y34.0061 
G01 Z-0.3000 F100.00 
G01 X50.2154 Y34.5739 F250.00 
G01 X49.8139 Y34.9754 
G01 X49.2461 Y34.9754 
G01 X48.8446 Y34.5739 
G01 X48.8446 Y34.0061 
G01 X49.2461 Y33.6046 
G01 X49.8139 Y33.6046 
G01 X50.2154 Y34.0061 
G00 Z2.0000 
G00 X4.4954 Y23.8461 
G01 Z-0.3000 F100.00 
G01 X4.4954 Y24.4139 F250.00 
G01 X4.0939 Y24.8154 
G01 X3.5261 Y24.8154 
G01 X3.1246 Y24.4139 
G01 X3.1246 Y23.8461 
G01 X3.5261 Y23.4446 
G01 X4.0939 Y23.4446 
G01 X4.4954 Y23.8461 
G00 Z2.0000 
G00 X12.1154 Y23.8461 
G01 Z-0.3000 F100.00 
G01 X12.1154 Y24.4139 F250.00 
G01 X11.7139 Y24.8154 
G01 X11.1461 Y24.8154 
G01 X10.7446 Y24.4139 
G01 X10.7446 Y24.3780 
G01 X9.1139 Y22.7473 
G01 X9.0417 Y22.6392 
G01 X8.9920 Y22.5191 
G01 X8.9666 Y22.3916 
G01 X8.9666 Y5.5380 
G01 X8.9920 Y5.4105 
G01 X9.0417 Y5.2904 
G01 X9.1139 Y5.1823 
G01 X11.6720 Y2.6242 
G01 X11.7801 Y2.5520 
G01 X11.9002 Y2.5023 
G01 X12.0277 Y2.4769 
G01 X28.3269 Y2.4769 
G01 X28.4544 Y2.5023 
G01 X28.5745 Y2.5520 
G01 X28.6826 Y2.6242 
G01 X28.7746 Y2.7162 
G01 X33.0416 Y6.9832 
G01 X33.0525 Y6.9854 
G01 X33.0619 Y6.9892 
G01 X33.0675 Y6.9904 
G01 X33.1059 Y7.0063 
G01 X33.1454 Y7.0194 
G01 X33.1659 Y7.0311 
G01 X33.1876 Y7.0401 
G01 X33.2222 Y7.0632 
G01 X33.2583 Y7.0838 
G01 X33.2761 Y7.0993 
G01 X33.2957 Y7.1123 
G01 X33.3251 Y7.1418 
G01 X33.3565 Y7.1690 
G01 X33.3710 Y7.1876 
G01 X34.2941 Y8.1107 
G01 X34.3175 Y8.1154 
G01 X34.4376 Y8.1651 
G01 X34.5457 Y8.2373 
G01 X35.1707 Y8.8623 
G01 X35.2627 Y8.9543 
G01 X35.3349 Y9.0624 
G01 X35.3846 Y9.1825 
G01 X35.4100 Y9.3100 
G01 X35.4100 Y13.8400 
G01 X42.1016 Y13.8400 
G01 X46.2043 Y9.7373 
G01 X46.3124 Y9.6651 
G01 X46.4325 Y9.6154 
G01 X46.5600 Y9.5900 
G01 X52.9407 Y9.5900 
G01 X53.0561 Y9.4746 
G01 X53.6239 Y9.4746 
G01 X54.0254 Y9.8761 
G01 X54.0254 Y10.4439 
G01 X53.6239 Y10.8454 
G01 X53.5372 Y10.8454 
G01 X53.4425 Y10.8846 
G01 X53.3150 Y10.9100 
G01 X46.8984 Y10.9100 
G01 X42.8877 Y14.9207 
G01 X42.7957 Y15.0127 
G01 X42.6876 Y15.0849 
G01 X42.5675 Y15.1346 
G01 X42.4400 Y15.1600 
G01 X35.4100 Y15.1600 
G01 X35.4100 Y17.1900 
G01 X35.3846 Y17.3175 
G01 X35.3349 Y17.4376 
G01 X35.2627 Y17.5457 
G01 X33.4362 Y19.3722 
G01 X33.4126 Y19.4168 
G01 X33.3304 Y19.5175 
G01 X33.2301 Y19.6003 
G01 X33.1157 Y19.6619 
G01 X32.9914 Y19.7000 
G01 X32.8620 Y19.7132 
G01 X32.7326 Y19.7008 
G01 X32.6081 Y19.6635 
G01 X32.4932 Y19.6026 
G01 X32.3925 Y19.5204 
G01 X32.3097 Y19.4201 
G01 X32.2481 Y19.3057 
G01 X32.2099 Y19.1814 
G01 X32.1968 Y19.0520 
G01 X32.2092 Y18.9226 
G01 X32.2338 Y18.8404 
G01 X32.2404 Y18.8075 
G01 X32.2524 Y18.7783 
G01 X32.2615 Y18.7481 
G01 X32.2773 Y18.7184 
G01 X32.2901 Y18.6874 
G01 X32.3077 Y18.6611 
G01 X32.3224 Y18.6332 
G01 X32.3437 Y18.6072 
G01 X32.3623 Y18.5793 
G01 X32.3847 Y18.5569 
G01 X32.4046 Y18.5325 
G01 X32.4305 Y18.5111 
G01 X34.0900 Y16.8516 
G01 X34.0900 Y9.6484 
G01 X33.8309 Y9.3893 
G01 X33.8075 Y9.3846 
G01 X33.6874 Y9.3349 
G01 X33.5793 Y9.2627 
G01 X33.4873 Y9.1707 
G01 X32.5759 Y8.2593 
G01 X32.5525 Y8.2546 
G01 X32.4324 Y8.2049 
G01 X32.3243 Y8.1327 
G01 X27.9885 Y3.7969 
G01 X12.3661 Y3.7969 
G01 X10.2866 Y5.8764 
G01 X10.2866 Y22.0532 
G01 X11.6780 Y23.4446 
G01 X11.7139 Y23.4446 
G01 X12.1154 Y23.8461 
G00 Z2.0000 
G00 X11.7139 Y7.0354 
G01 Z-0.3000 F100.00 
G01 X11.1461 Y7.0354 F250.00 
G01 X10.7446 Y6.6339 
G01 X10.7446 Y6.0661 
G01 X11.1461 Y5.6646 
G01 X11.7139 Y5.6646 
G01 X11.7393 Y5.6900 
G01 X23.8566 Y5.6900 
G01 X24.9793 Y4.5673 
G01 X25.0874 Y4.4951 
G01 X25.2075 Y4.4454 
G01 X25.3350 Y4.4200 
G01 X26.1726 Y4.4200 
G01 X26.2792 Y4.3488 
G01 X26.4293 Y4.2866 
G01 X26.5887 Y4.2549 
G01 X26.7513 Y4.2549 
G01 X26.9107 Y4.2866 
G01 X27.0608 Y4.3488 
G01 X27.1960 Y4.4391 
G01 X27.3109 Y4.5540 
G01 X27.4012 Y4.6892 
G01 X27.4634 Y4.8393 
G01 X27.4951 Y4.9987 
G01 X27.4951 Y5.1613 
G01 X27.4634 Y5.3207 
G01 X27.4012 Y5.4708 
G01 X27.3109 Y5.6060 
G01 X27.1960 Y5.7209 
G01 X27.0608 Y5.8112 
G01 X26.9107 Y5.8734 
G01 X26.7513 Y5.9051 
G01 X26.5887 Y5.9051 
G01 X26.4293 Y5.8734 
G01 X26.2792 Y5.8112 
G01 X26.1726 Y5.7400 
G01 X25.6734 Y5.7400 
G01 X24.6427 Y6.7707 
G01 X24.5507 Y6.8627 
G01 X24.4426 Y6.9349 
G01 X24.3225 Y6.9846 
G01 X24.1950 Y7.0100 
G01 X11.7393 Y7.0100 
G01 X11.7139 Y7.0354 
G00 Z2.0000 
G00 X4.4954 Y6.0661 
G01 Z-0.3000 F100.00 
G01 X4.4954 Y6.6339 F250.00 
G01 X4.0939 Y7.0354 
G01 X3.5261 Y7.0354 
G01 X3.1246 Y6.6339 
G01 X3.1246 Y6.0661 
G01 X3.5261 Y5.6646 
G01 X4.0939 Y5.6646 
G01 X4.4954 Y6.0661 
G00 Z2.0000 
G00 X9.6770 Y32.6940 
G01 Z-0.3000 F100.00 
G01 X9.6770 Y33.3460 F250.00 
G01 X9.2160 Y33.8070 
G01 X8.5640 Y33.8070 
G01 X8.1030 Y33.3460 
G01 X8.1030 Y32.6940 
G01 X8.5640 Y32.2330 
G01 X9.2160 Y32.2330 
G01 X9.6770 Y32.6940 
G00 Z2.0000 
G00 X4.4954 Y28.9261 
G01 Z-0.3000 F100.00 
G01 X4.4954 Y29.4939 F250.00 
G01 X4.0939 Y29.8954 
G01 X3.5261 Y29.8954 
G01 X3.1246 Y29.4939 
G01 X3.1246 Y28.9261 
G01 X3.5261 Y28.5246 
G01 X4.0939 Y28.5246 
G01 X4.4954 Y28.9261 
G00 Z2.0000 
G00 X12.1154 Y28.9261 
G01 Z-0.3000 F100.00 
G01 X12.1154 Y29.4939 F250.00 
G01 X11.7139 Y29.8954 
G01 X11.5284 Y29.8954 
G01 X11.4550 Y29.9100 
G01 X10.2393 Y29.9100 
G01 X7.1370 Y33.0123 
G01 X7.1370 Y33.3460 
G01 X6.6760 Y33.8070 
G01 X6.0240 Y33.8070 
G01 X5.5630 Y33.3460 
G01 X5.5630 Y32.6940 
G01 X6.0240 Y32.2330 
G01 X6.0495 Y32.2330 
G01 X9.4533 Y28.8293 
G01 X9.5452 Y28.7373 
G01 X9.6533 Y28.6651 
G01 X9.7734 Y28.6154 
G01 X9.9009 Y28.5900 
G01 X11.0807 Y28.5900 
G01 X11.1461 Y28.5246 
G01 X11.7139 Y28.5246 
G01 X12.1154 Y28.9261 
G00 Z2.0000 
G00 X4.4954 Y26.3861 
G01 Z-0.3000 F100.00 
G01 X4.4954 Y26.9539 F250.00 
G01 X4.0939 Y27.3554 
G01 X3.5261 Y27.3554 
G01 X3.1246 Y26.9539 
G01 X3.1246 Y26.3861 
G01 X3.5261 Y25.9846 
G01 X4.0939 Y25.9846 
G01 X4.4954 Y26.3861 
G00 Z2.0000 
G00 X12.1154 Y26.3861 
G01 Z-0.3000 F100.00 
G01 X12.1154 Y26.9539 F250.00 
G01 X11.7139 Y27.3554 
G01 X11.1461 Y27.3554 
G01 X10.7446 Y26.9539 
G01 X10.7446 Y26.3861 
G01 X11.1461 Y25.9846 
G01 X11.7139 Y25.9846 
G01 X12.1154 Y26.3861 
G00 Z2.0000 
G00 X12.1154 Y8.6061 
G01 Z-0.3000 F100.00 
G01 X12.1154 Y9.1739 F250.00 
G01 X11.7139 Y9.5754 
G01 X11.1461 Y9.5754 
G01 X10.7446 Y9.1739 
G01 X10.7446 Y8.6061 
G01 X11.1461 Y8.2046 
G01 X11.7139 Y8.2046 
G01 X12.1154 Y8.6061 
G00 Z2.0000 
G00 X4.4954 Y8.6061 
G01 Z-0.3000 F100.00 
G01 X4.4954 Y9.1739 F250.00 
G01 X4.0939 Y9.5754 
G01 X3.5261 Y9.5754 
G01 X3.1246 Y9.1739 
G01 X3.1246 Y8.6061 
G01 X3.5261 Y8.2046 
G01 X4.0939 Y8.2046 
G01 X4.4954 Y8.6061 
G00 Z2.0000 
G00 X12.2340 Y20.2566 
G01 Z-0.3000 F100.00 
G01 X12.2340 Y20.3834 F250.00 
G01 X12.2092 Y20.5078 
G01 X12.1607 Y20.6250 
G01 X12.0902 Y20.7305 
G01 X12.0005 Y20.8202 
G01 X11.8950 Y20.8907 
G01 X11.7778 Y20.9392 
G01 X11.6534 Y20.9640 
G01 X11.5266 Y20.9640 
G01 X11.4022 Y20.9392 
G01 X11.2850 Y20.8907 
G01 X11.1795 Y20.8202 
G01 X11.0898 Y20.7305 
G01 X11.0193 Y20.6250 
G01 X10.9708 Y20.5078 
G01 X10.9460 Y20.3834 
G01 X10.9460 Y20.2566 
G01 X10.9708 Y20.1321 
G01 X11.0193 Y20.0150 
G01 X11.0898 Y19.9095 
G01 X11.1795 Y19.8198 
G01 X11.2850 Y19.7493 
G01 X11.4022 Y19.7007 
G01 X11.5266 Y19.6760 
G01 X11.6534 Y19.6760 
G01 X11.7778 Y19.7007 
G01 X11.8950 Y19.7493 
G01 X12.0005 Y19.8198 
G01 X12.0902 Y19.9095 
G01 X12.1607 Y20.0150 
G01 X12.2092 Y20.1321 
G01 X12.2340 Y20.2566 
G00 Z2.0000 
G00 X11.1693 Y18.3408 
G01 Z-0.3000 F100.00 
G01 X11.0773 Y18.2489 F250.00 
G01 X11.0051 Y18.1408 
G01 X10.9554 Y18.0207 
G01 X10.9300 Y17.8932 
G01 X10.9300 Y17.7150 
G01 X10.9554 Y17.5875 
G01 X11.0051 Y17.4674 
G01 X11.0773 Y17.3593 
G01 X11.1693 Y17.2673 
G01 X11.2774 Y17.1951 
G01 X11.3975 Y17.1454 
G01 X11.5250 Y17.1200 
G01 X11.6550 Y17.1200 
G01 X11.7825 Y17.1454 
G01 X11.9026 Y17.1951 
G01 X12.0107 Y17.2673 
G01 X12.1027 Y17.3593 
G01 X12.1749 Y17.4674 
G01 X12.1836 Y17.4883 
G01 X15.0457 Y20.3505 
G01 X15.1377 Y20.4424 
G01 X15.2099 Y20.5505 
G01 X15.2596 Y20.6706 
G01 X15.2850 Y20.7981 
G01 X15.2850 Y29.6020 
G01 X22.3450 Y36.6620 
G01 X36.1546 Y36.6620 
G01 X40.3093 Y32.5073 
G01 X40.4174 Y32.4351 
G01 X40.5375 Y32.3854 
G01 X40.6650 Y32.3600 
G01 X40.8650 Y32.3600 
G01 X40.9925 Y32.3854 
G01 X41.1126 Y32.4351 
G01 X41.2207 Y32.5073 
G01 X42.9811 Y34.2677 
G01 X45.7989 Y34.2677 
G01 X49.8293 Y30.2373 
G01 X49.9374 Y30.1651 
G01 X50.0575 Y30.1154 
G01 X50.1850 Y30.0900 
G01 X57.6970 Y30.0900 
G01 X57.8400 Y29.9470 
G01 X57.8400 Y22.8750 
G01 X57.8654 Y22.7475 
G01 X57.9151 Y22.6274 
G01 X57.9873 Y22.5193 
G01 X60.6993 Y19.8073 
G01 X60.8074 Y19.7351 
G01 X60.9275 Y19.6854 
G01 X61.0550 Y19.6600 
G01 X61.1850 Y19.6600 
G01 X61.3125 Y19.6854 
G01 X61.4326 Y19.7351 
G01 X61.5407 Y19.8073 
G01 X61.6327 Y19.8993 
G01 X61.7049 Y20.0074 
G01 X61.7546 Y20.1275 
G01 X61.7800 Y20.2550 
G01 X61.7800 Y20.3850 
G01 X61.7546 Y20.5125 
G01 X61.7049 Y20.6326 
G01 X61.6327 Y20.7407 
G01 X59.1600 Y23.2134 
G01 X59.1600 Y30.1070 
G01 X59.2070 Y30.1540 
G01 X59.2070 Y30.8060 
G01 X58.7460 Y31.2670 
G01 X58.5642 Y31.2670 
G01 X58.4626 Y31.3349 
G01 X58.3425 Y31.3846 
G01 X58.2150 Y31.4100 
G01 X50.5234 Y31.4100 
G01 X46.4930 Y35.4404 
G01 X46.3849 Y35.5126 
G01 X46.2648 Y35.5624 
G01 X46.1373 Y35.5877 
G01 X42.6427 Y35.5877 
G01 X42.5152 Y35.5624 
G01 X42.3951 Y35.5126 
G01 X42.2870 Y35.4404 
G01 X42.1951 Y35.3485 
G01 X40.7650 Y33.9184 
G01 X36.9407 Y37.7427 
G01 X36.8487 Y37.8347 
G01 X36.7406 Y37.9069 
G01 X36.6205 Y37.9566 
G01 X36.4930 Y37.9820 
G01 X22.0066 Y37.9820 
G01 X21.8791 Y37.9566 
G01 X21.7590 Y37.9069 
G01 X21.6509 Y37.8347 
G01 X14.2043 Y30.3880 
G01 X14.1123 Y30.2961 
G01 X14.0401 Y30.1880 
G01 X13.9904 Y30.0679 
G01 X13.9650 Y29.9404 
G01 X13.9650 Y21.1365 
G01 X11.1693 Y18.3408 
G00 Z2.0000 
G00 X12.2340 Y15.1766 
G01 Z-0.3000 F100.00 
G01 X12.2340 Y15.3034 F250.00 
G01 X12.2092 Y15.4278 
G01 X12.1607 Y15.5450 
G01 X12.0902 Y15.6505 
G01 X12.0005 Y15.7402 
G01 X11.8950 Y15.8107 
G01 X11.7778 Y15.8592 
G01 X11.6534 Y15.8840 
G01 X11.5266 Y15.8840 
G01 X11.4022 Y15.8592 
G01 X11.2850 Y15.8107 
G01 X11.1795 Y15.7402 
G01 X11.0898 Y15.6505 
G01 X11.0193 Y15.5450 
G01 X10.9708 Y15.4278 
G01 X10.9460 Y15.3034 
G01 X10.9460 Y15.1766 
G01 X10.9708 Y15.0522 
G01 X11.0193 Y14.9350 
G01 X11.0898 Y14.8295 
G01 X11.1795 Y14.7398 
G01 X11.2850 Y14.6693 
G01 X11.4022 Y14.6208 
G01 X11.5266 Y14.5960 
G01 X11.6534 Y14.5960 
G01 X11.7778 Y14.6208 
G01 X11.8950 Y14.6693 
G01 X12.0005 Y14.7398 
G01 X12.0902 Y14.8295 
G01 X12.1607 Y14.9350 
G01 X12.2092 Y15.0522 
G01 X12.2340 Y15.1766 
G00 Z2.0000 
G00 X12.2340 Y12.6366 
G01 Z-0.3000 F100.00 
G01 X12.2340 Y12.7634 F250.00 
G01 X12.2092 Y12.8878 
G01 X12.1607 Y13.0050 
G01 X12.0902 Y13.1105 
G01 X12.0005 Y13.2002 
G01 X11.8950 Y13.2707 
G01 X11.7778 Y13.3192 
G01 X11.6534 Y13.3440 
G01 X11.5266 Y13.3440 
G01 X11.4022 Y13.3192 
G01 X11.2850 Y13.2707 
G01 X11.1795 Y13.2002 
G01 X11.0898 Y13.1105 
G01 X11.0193 Y13.0050 
G01 X10.9708 Y12.8878 
G01 X10.9460 Y12.7634 
G01 X10.9460 Y12.6366 
G01 X10.9708 Y12.5122 
G01 X11.0193 Y12.3950 
G01 X11.0898 Y12.2895 
G01 X11.1795 Y12.1998 
G01 X11.2850 Y12.1293 
G01 X11.4022 Y12.0808 
G01 X11.5266 Y12.0560 
G01 X11.6534 Y12.0560 
G01 X11.7778 Y12.0808 
G01 X11.8950 Y12.1293 
G01 X12.0005 Y12.1998 
G01 X12.0902 Y12.2895 
G01 X12.1607 Y12.3950 
G01 X12.2092 Y12.5122 
G01 X12.2340 Y12.6366 
G00 Z2.0000 
G00 X4.2940 Y15.1766 
G01 Z-0.3000 F100.00 
G01 X4.2940 Y15.3034 F250.00 
G01 X4.2692 Y15.4278 
G01 X4.2207 Y15.5450 
G01 X4.1502 Y15.6505 
G01 X4.0605 Y15.7402 
G01 X3.9550 Y15.8107 
G01 X3.8378 Y15.8592 
G01 X3.7134 Y15.8840 
G01 X3.5866 Y15.8840 
G01 X3.4622 Y15.8592 
G01 X3.3450 Y15.8107 
G01 X3.2395 Y15.7402 
G01 X3.1498 Y15.6505 
G01 X3.0793 Y15.5450 
G01 X3.0308 Y15.4278 
G01 X3.0060 Y15.3034 
G01 X3.0060 Y15.1766 
G01 X3.0308 Y15.0522 
G01 X3.0793 Y14.9350 
G01 X3.1498 Y14.8295 
G01 X3.2395 Y14.7398 
G01 X3.3450 Y14.6693 
G01 X3.4622 Y14.6208 
G01 X3.5866 Y14.5960 
G01 X3.7134 Y14.5960 
G01 X3.8378 Y14.6208 
G01 X3.9550 Y14.6693 
G01 X4.0605 Y14.7398 
G01 X4.1502 Y14.8295 
G01 X4.2207 Y14.9350 
G01 X4.2692 Y15.0522 
G01 X4.2940 Y15.1766 
G00 Z2.0000 
G00 X4.2940 Y17.7166 
G01 Z-0.3000 F100.00 
G01 X4.2940 Y17.8434 F250.00 
G01 X4.2692 Y17.9678 
G01 X4.2207 Y18.0850 
G01 X4.1502 Y18.1905 
G01 X4.0605 Y18.2802 
G01 X3.9550 Y18.3507 
G01 X3.8378 Y18.3992 
G01 X3.7134 Y18.4240 
G01 X3.5866 Y18.4240 
G01 X3.4622 Y18.3992 
G01 X3.3450 Y18.3507 
G01 X3.2395 Y18.2802 
G01 X3.1498 Y18.1905 
G01 X3.0793 Y18.0850 
G01 X3.0308 Y17.9678 
G01 X3.0060 Y17.8434 
G01 X3.0060 Y17.7166 
G01 X3.0308 Y17.5922 
G01 X3.0793 Y17.4749 
G01 X3.1498 Y17.3695 
G01 X3.2395 Y17.2798 
G01 X3.3450 Y17.2093 
G01 X3.4622 Y17.1608 
G01 X3.5866 Y17.1360 
G01 X3.7134 Y17.1360 
G01 X3.8378 Y17.1608 
G01 X3.9550 Y17.2093 
G01 X4.0605 Y17.2798 
G01 X4.1502 Y17.3695 
G01 X4.2207 Y17.4749 
G01 X4.2692 Y17.5922 
G01 X4.2940 Y17.7166 
G00 Z2.0000 
G00 X4.2940 Y19.6906 
G01 Z-0.3000 F100.00 
G01 X4.2940 Y20.9494 F250.00 
G01 X4.2794 Y20.9640 
G01 X3.0206 Y20.9640 
G01 X3.0060 Y20.9494 
G01 X3.0060 Y19.6906 
G01 X3.0206 Y19.6760 
G01 X4.2794 Y19.6760 
G01 X4.2940 Y19.6906 
G00 Z2.0000 
G00 X27.4951 Y7.2782 
G01 Z-0.3000 F100.00 
G01 X27.4951 Y7.9618 F250.00 
G01 X27.3300 Y8.1269 
G01 X27.3300 Y10.9231 
G01 X27.4951 Y11.0882 
G01 X27.4951 Y11.7718 
G01 X27.0118 Y12.2551 
G01 X26.3282 Y12.2551 
G01 X25.8449 Y11.7718 
G01 X25.8449 Y11.0882 
G01 X26.0100 Y10.9231 
G01 X26.0100 Y8.1269 
G01 X25.8449 Y7.9618 
G01 X25.8449 Y7.2782 
G01 X26.3282 Y6.7949 
G01 X27.0118 Y6.7949 
G01 X27.4951 Y7.2782 
G00 Z2.0000 
G00 X22.2890 Y8.8212 
G01 Z-0.3000 F100.00 
G01 X22.2890 Y8.9588 F250.00 
G01 X22.2621 Y9.0939 
G01 X22.2094 Y9.2211 
G01 X22.1329 Y9.3356 
G01 X22.0356 Y9.4329 
G01 X21.9211 Y9.5094 
G01 X21.7939 Y9.5621 
G01 X21.6588 Y9.5890 
G01 X21.5212 Y9.5890 
G01 X21.3861 Y9.5621 
G01 X21.2589 Y9.5094 
G01 X21.1444 Y9.4329 
G01 X21.0471 Y9.3356 
G01 X20.9706 Y9.2211 
G01 X20.9179 Y9.0939 
G01 X20.8910 Y8.9588 
G01 X20.8910 Y8.8212 
G01 X20.9179 Y8.6861 
G01 X20.9706 Y8.5589 
G01 X21.0471 Y8.4444 
G01 X21.1444 Y8.3471 
G01 X21.2589 Y8.2706 
G01 X21.3861 Y8.2179 
G01 X21.5212 Y8.1910 
G01 X21.6588 Y8.1910 
G01 X21.7939 Y8.2179 
G01 X21.9211 Y8.2706 
G01 X22.0356 Y8.3471 
G01 X22.1329 Y8.4444 
G01 X22.2094 Y8.5589 
G01 X22.2621 Y8.6861 
G01 X22.2890 Y8.8212 
G00 Z2.0000 
G00 X16.1789 Y9.5094 
G01 Z-0.3000 F100.00 
G01 X16.0644 Y9.4329 F250.00 
G01 X15.9671 Y9.3356 
G01 X15.8906 Y9.2211 
G01 X15.8379 Y9.0939 
G01 X15.8110 Y8.9588 
G01 X15.8110 Y8.8212 
G01 X15.8379 Y8.6861 
G01 X15.8906 Y8.5589 
G01 X15.9671 Y8.4444 
G01 X16.0644 Y8.3471 
G01 X16.1789 Y8.2706 
G01 X16.3061 Y8.2179 
G01 X16.4412 Y8.1910 
G01 X16.5788 Y8.1910 
G01 X16.7139 Y8.2179 
G01 X16.8411 Y8.2706 
G01 X16.9556 Y8.3471 
G01 X17.0529 Y8.4444 
G01 X17.1294 Y8.5589 
G01 X17.1416 Y8.5882 
G01 X19.3518 Y10.7984 
G01 X19.3811 Y10.8106 
G01 X19.4956 Y10.8871 
G01 X19.5929 Y10.9844 
G01 X19.6694 Y11.0989 
G01 X19.6816 Y11.1282 
G01 X21.8634 Y13.3100 
G01 X26.1726 Y13.3100 
G01 X26.2792 Y13.2388 
G01 X26.4293 Y13.1766 
G01 X26.5887 Y13.1449 
G01 X26.7513 Y13.1449 
G01 X26.7892 Y13.1524 
G01 X30.1123 Y9.8293 
G01 X30.2043 Y9.7373 
G01 X30.3124 Y9.6651 
G01 X30.4325 Y9.6154 
G01 X30.5600 Y9.5900 
G01 X32.5251 Y9.5900 
G01 X32.5474 Y9.5751 
G01 X32.6675 Y9.5254 
G01 X32.7950 Y9.5000 
G01 X32.9250 Y9.5000 
G01 X33.0525 Y9.5254 
G01 X33.1726 Y9.5751 
G01 X33.2807 Y9.6473 
G01 X33.3727 Y9.7393 
G01 X33.4449 Y9.8474 
G01 X33.4946 Y9.9675 
G01 X33.5200 Y10.0950 
G01 X33.5200 Y10.2250 
G01 X33.4946 Y10.3525 
G01 X33.4449 Y10.4726 
G01 X33.3727 Y10.5807 
G01 X33.1907 Y10.7627 
G01 X33.0826 Y10.8349 
G01 X32.9625 Y10.8846 
G01 X32.8350 Y10.9100 
G01 X30.8984 Y10.9100 
G01 X27.5127 Y14.2957 
G01 X27.4207 Y14.3877 
G01 X27.3531 Y14.4329 
G01 X27.3109 Y14.4960 
G01 X27.1960 Y14.6109 
G01 X27.0608 Y14.7012 
G01 X26.9107 Y14.7634 
G01 X26.7513 Y14.7951 
G01 X26.5887 Y14.7951 
G01 X26.4293 Y14.7634 
G01 X26.2792 Y14.7012 
G01 X26.1726 Y14.6300 
G01 X21.5250 Y14.6300 
G01 X21.3975 Y14.6046 
G01 X21.2774 Y14.5549 
G01 X21.1693 Y14.4827 
G01 X18.7482 Y12.0616 
G01 X18.7189 Y12.0494 
G01 X18.6044 Y11.9729 
G01 X18.5070 Y11.8756 
G01 X18.4306 Y11.7611 
G01 X18.4184 Y11.7318 
G01 X16.2082 Y9.5216 
G01 X16.1789 Y9.5094 
G00 Z2.0000 
G00 X41.4440 Y12.6366 
G01 Z-0.3000 F100.00 
G01 X41.4440 Y12.7634 F250.00 
G01 X41.4192 Y12.8878 
G01 X41.3707 Y13.0050 
G01 X41.3002 Y13.1105 
G01 X41.2105 Y13.2002 
G01 X41.1050 Y13.2707 
G01 X40.9878 Y13.3192 
G01 X40.8634 Y13.3440 
G01 X40.7366 Y13.3440 
G01 X40.6121 Y13.3192 
G01 X40.4950 Y13.2707 
G01 X40.3895 Y13.2002 
G01 X40.2998 Y13.1105 
G01 X40.2293 Y13.0050 
G01 X40.1808 Y12.8878 
G01 X40.1560 Y12.7634 
G01 X40.1560 Y12.6366 
G01 X40.1808 Y12.5122 
G01 X40.2293 Y12.3950 
G01 X40.2998 Y12.2895 
G01 X40.3895 Y12.1998 
G01 X40.4950 Y12.1293 
G01 X40.6121 Y12.0808 
G01 X40.7366 Y12.0560 
G01 X40.8634 Y12.0560 
G01 X40.9878 Y12.0808 
G01 X41.1050 Y12.1293 
G01 X41.2105 Y12.1998 
G01 X41.3002 Y12.2895 
G01 X41.3707 Y12.3950 
G01 X41.4192 Y12.5122 
G01 X41.4440 Y12.6366 
G00 Z2.0000 
G00 X41.4440 Y10.0966 
G01 Z-0.3000 F100.00 
G01 X41.4440 Y10.2234 F250.00 
G01 X41.4192 Y10.3478 
G01 X41.3707 Y10.4650 
G01 X41.3002 Y10.5705 
G01 X41.2105 Y10.6602 
G01 X41.1050 Y10.7307 
G01 X40.9878 Y10.7792 
G01 X40.8634 Y10.8040 
G01 X40.7366 Y10.8040 
G01 X40.6121 Y10.7792 
G01 X40.4950 Y10.7307 
G01 X40.3895 Y10.6602 
G01 X40.2998 Y10.5705 
G01 X40.2293 Y10.4650 
G01 X40.1808 Y10.3478 
G01 X40.1560 Y10.2234 
G01 X40.1560 Y10.0966 
G01 X40.1808 Y9.9722 
G01 X40.2293 Y9.8550 
G01 X40.2998 Y9.7495 
G01 X40.3895 Y9.6598 
G01 X40.4950 Y9.5893 
G01 X40.6121 Y9.5408 
G01 X40.7366 Y9.5160 
G01 X40.8634 Y9.5160 
G01 X40.9878 Y9.5408 
G01 X41.1050 Y9.5893 
G01 X41.2105 Y9.6598 
G01 X41.3002 Y9.7495 
G01 X41.3707 Y9.8550 
G01 X41.4192 Y9.9722 
G01 X41.4440 Y10.0966 
G00 Z2.0000 
G00 X41.4440 Y5.0166 
G01 Z-0.3000 F100.00 
G01 X41.4440 Y5.1434 F250.00 
G01 X41.4192 Y5.2678 
G01 X41.3707 Y5.3850 
G01 X41.3002 Y5.4905 
G01 X41.2105 Y5.5802 
G01 X41.1050 Y5.6507 
G01 X40.9878 Y5.6992 
G01 X40.8634 Y5.7240 
G01 X40.7366 Y5.7240 
G01 X40.6121 Y5.6992 
G01 X40.4950 Y5.6507 
G01 X40.3895 Y5.5802 
G01 X40.2998 Y5.4905 
G01 X40.2293 Y5.3850 
G01 X40.1808 Y5.2678 
G01 X40.1560 Y5.1434 
G01 X40.1560 Y5.0166 
G01 X40.1808 Y4.8921 
G01 X40.2293 Y4.7750 
G01 X40.2998 Y4.6695 
G01 X40.3895 Y4.5798 
G01 X40.4950 Y4.5093 
G01 X40.6121 Y4.4607 
G01 X40.7366 Y4.4360 
G01 X40.8634 Y4.4360 
G01 X40.9878 Y4.4607 
G01 X41.1050 Y4.5093 
G01 X41.2105 Y4.5798 
G01 X41.3002 Y4.6695 
G01 X41.3707 Y4.7750 
G01 X41.4192 Y4.8921 
G01 X41.4440 Y5.0166 
G00 Z2.0000 
G00 X33.5040 Y12.0706 
G01 Z-0.3000 F100.00 
G01 X33.5040 Y13.3294 F250.00 
G01 X33.4894 Y13.3440 
G01 X32.2306 Y13.3440 
G01 X32.2160 Y13.3294 
G01 X32.2160 Y12.0706 
G01 X32.2306 Y12.0560 
G01 X33.4894 Y12.0560 
G01 X33.5040 Y12.0706 
G00 Z2.0000 
G00 X27.4634 Y26.9107 
G01 Z-0.3000 F100.00 
G01 X27.4012 Y27.0608 F250.00 
G01 X27.3109 Y27.1960 
G01 X27.1960 Y27.3109 
G01 X27.0608 Y27.4012 
G01 X26.9107 Y27.4634 
G01 X26.7513 Y27.4951 
G01 X26.5887 Y27.4951 
G01 X26.4293 Y27.4634 
G01 X26.2792 Y27.4012 
G01 X26.1440 Y27.3109 
G01 X26.0291 Y27.1960 
G01 X25.9388 Y27.0608 
G01 X25.8766 Y26.9107 
G01 X25.8449 Y26.7513 
G01 X25.8449 Y26.5887 
G01 X25.8766 Y26.4293 
G01 X25.9388 Y26.2792 
G01 X26.0291 Y26.1440 
G01 X26.1440 Y26.0291 
G01 X26.2792 Y25.9388 
G01 X26.4293 Y25.8766 
G01 X26.5887 Y25.8449 
G01 X26.5967 Y25.8449 
G01 X26.7373 Y25.7043 
G01 X26.8293 Y25.6123 
G01 X26.9374 Y25.5401 
G01 X27.0575 Y25.4904 
G01 X27.1850 Y25.4650 
G01 X33.4516 Y25.4650 
G01 X40.3793 Y18.5373 
G01 X40.4874 Y18.4651 
G01 X40.6075 Y18.4154 
G01 X40.7350 Y18.3900 
G01 X40.8650 Y18.3900 
G01 X40.9925 Y18.4154 
G01 X41.1126 Y18.4651 
G01 X41.2207 Y18.5373 
G01 X41.3127 Y18.6293 
G01 X43.5070 Y20.8236 
G01 X43.6105 Y20.8030 
G01 X45.2895 Y20.8030 
G01 X45.4416 Y20.8332 
G01 X45.5848 Y20.8926 
G01 X45.7137 Y20.9787 
G01 X45.8233 Y21.0883 
G01 X45.9094 Y21.2172 
G01 X45.9688 Y21.3604 
G01 X45.9990 Y21.5125 
G01 X45.9990 Y21.6675 
G01 X45.9688 Y21.8196 
G01 X45.9094 Y21.9628 
G01 X45.8233 Y22.0917 
G01 X45.7137 Y22.2013 
G01 X45.5848 Y22.2874 
G01 X45.4416 Y22.3468 
G01 X45.2895 Y22.3770 
G01 X43.6105 Y22.3770 
G01 X43.4584 Y22.3468 
G01 X43.3152 Y22.2874 
G01 X43.1863 Y22.2013 
G01 X43.1351 Y22.1501 
G01 X43.0575 Y22.1346 
G01 X42.9374 Y22.0849 
G01 X42.8293 Y22.0127 
G01 X42.7373 Y21.9207 
G01 X40.8000 Y19.9834 
G01 X34.1457 Y26.6377 
G01 X34.0376 Y26.7099 
G01 X33.9175 Y26.7596 
G01 X33.7900 Y26.7850 
G01 X27.5234 Y26.7850 
G01 X27.4797 Y26.8287 
G01 X27.4634 Y26.9107 
G00 Z2.0000 
G00 X27.4951 Y23.7882 
G01 Z-0.3000 F100.00 
G01 X27.4951 Y24.4718 F250.00 
G01 X27.0118 Y24.9551 
G01 X26.3282 Y24.9551 
G01 X25.8449 Y24.4718 
G01 X25.8449 Y23.7882 
G01 X26.0100 Y23.6231 
G01 X26.0100 Y20.8269 
G01 X25.8449 Y20.6618 
G01 X25.8449 Y19.9782 
G01 X26.3282 Y19.4949 
G01 X27.0118 Y19.4949 
G01 X27.4951 Y19.9782 
G01 X27.4951 Y20.6618 
G01 X27.3300 Y20.8269 
G01 X27.3300 Y23.6231 
G01 X27.4951 Y23.7882 
G00 Z2.0000 
G00 X19.7490 Y20.2512 
G01 Z-0.3000 F100.00 
G01 X19.7490 Y20.3888 F250.00 
G01 X19.7221 Y20.5239 
G01 X19.6694 Y20.6511 
G01 X19.5929 Y20.7656 
G01 X19.4956 Y20.8629 
G01 X19.3811 Y20.9394 
G01 X19.2539 Y20.9921 
G01 X19.1188 Y21.0190 
G01 X18.9812 Y21.0190 
G01 X18.8461 Y20.9921 
G01 X18.7189 Y20.9394 
G01 X18.6044 Y20.8629 
G01 X18.5070 Y20.7656 
G01 X18.4306 Y20.6511 
G01 X18.3779 Y20.5239 
G01 X18.3510 Y20.3888 
G01 X18.3510 Y20.2512 
G01 X18.3779 Y20.1161 
G01 X18.4306 Y19.9889 
G01 X18.5070 Y19.8744 
G01 X18.6044 Y19.7771 
G01 X18.7189 Y19.7006 
G01 X18.8461 Y19.6479 
G01 X18.9812 Y19.6210 
G01 X19.1188 Y19.6210 
G01 X19.2539 Y19.6479 
G01 X19.3811 Y19.7006 
G01 X19.4956 Y19.7771 
G01 X19.5929 Y19.8744 
G01 X19.6694 Y19.9889 
G01 X19.7221 Y20.1161 
G01 X19.7490 Y20.2512 
G00 Z2.0000 
G00 X17.2090 Y17.7112 
G01 Z-0.3000 F100.00 
G01 X17.2090 Y17.8488 F250.00 
G01 X17.1821 Y17.9839 
G01 X17.1294 Y18.1111 
G01 X17.0529 Y18.2256 
G01 X16.9556 Y18.3229 
G01 X16.8411 Y18.3994 
G01 X16.7139 Y18.4521 
G01 X16.5788 Y18.4790 
G01 X16.4412 Y18.4790 
G01 X16.3061 Y18.4521 
G01 X16.1789 Y18.3994 
G01 X16.0644 Y18.3229 
G01 X15.9671 Y18.2256 
G01 X15.8906 Y18.1111 
G01 X15.8379 Y17.9839 
G01 X15.8110 Y17.8488 
G01 X15.8110 Y17.7112 
G01 X15.8379 Y17.5761 
G01 X15.8906 Y17.4489 
G01 X15.9671 Y17.3344 
G01 X16.0644 Y17.2370 
G01 X16.1789 Y17.1606 
G01 X16.3061 Y17.1079 
G01 X16.4412 Y17.0810 
G01 X16.5788 Y17.0810 
G01 X16.7139 Y17.1079 
G01 X16.8411 Y17.1606 
G01 X16.9556 Y17.2370 
G01 X17.0529 Y17.3344 
G01 X17.1294 Y17.4489 
G01 X17.1821 Y17.5761 
G01 X17.2090 Y17.7112 
G00 Z2.0000 
G00 X41.4440 Y24.0666 
G01 Z-0.3000 F100.00 
G01 X41.4440 Y24.1934 F250.00 
G01 X41.4192 Y24.3178 
G01 X41.3707 Y24.4350 
G01 X41.3002 Y24.5405 
G01 X41.2105 Y24.6302 
G01 X41.1050 Y24.7007 
G01 X40.9878 Y24.7492 
G01 X40.8634 Y24.7740 
G01 X40.7366 Y24.7740 
G01 X40.6121 Y24.7492 
G01 X40.4950 Y24.7007 
G01 X40.3895 Y24.6302 
G01 X40.2998 Y24.5405 
G01 X40.2293 Y24.4350 
G01 X40.1808 Y24.3178 
G01 X40.1560 Y24.1934 
G01 X40.1560 Y24.0666 
G01 X40.1808 Y23.9422 
G01 X40.2293 Y23.8250 
G01 X40.2998 Y23.7195 
G01 X40.3895 Y23.6298 
G01 X40.4950 Y23.5593 
G01 X40.6121 Y23.5108 
G01 X40.7366 Y23.4860 
G01 X40.8634 Y23.4860 
G01 X40.9878 Y23.5108 
G01 X41.1050 Y23.5593 
G01 X41.2105 Y23.6298 
G01 X41.3002 Y23.7195 
G01 X41.3707 Y23.8250 
G01 X41.4192 Y23.9422 
G01 X41.4440 Y24.0666 
G00 Z2.0000 
G00 X41.4440 Y21.5266 
G01 Z-0.3000 F100.00 
G01 X41.4440 Y21.6534 F250.00 
G01 X41.4192 Y21.7778 
G01 X41.3707 Y21.8950 
G01 X41.3002 Y22.0005 
G01 X41.2105 Y22.0902 
G01 X41.1050 Y22.1607 
G01 X40.9878 Y22.2092 
G01 X40.8634 Y22.2340 
G01 X40.7366 Y22.2340 
G01 X40.6121 Y22.2092 
G01 X40.4950 Y22.1607 
G01 X40.3895 Y22.0902 
G01 X40.2998 Y22.0005 
G01 X40.2293 Y21.8950 
G01 X40.1808 Y21.7778 
G01 X40.1560 Y21.6534 
G01 X40.1560 Y21.5266 
G01 X40.1808 Y21.4022 
G01 X40.2293 Y21.2850 
G01 X40.2998 Y21.1795 
G01 X40.3895 Y21.0898 
G01 X40.4950 Y21.0193 
G01 X40.6121 Y20.9708 
G01 X40.7366 Y20.9460 
G01 X40.8634 Y20.9460 
G01 X40.9878 Y20.9708 
G01 X41.1050 Y21.0193 
G01 X41.2105 Y21.0898 
G01 X41.3002 Y21.1795 
G01 X41.3707 Y21.2850 
G01 X41.4192 Y21.4022 
G01 X41.4440 Y21.5266 
G00 Z2.0000 
G00 X41.4440 Y16.4466 
G01 Z-0.3000 F100.00 
G01 X41.4440 Y16.5734 F250.00 
G01 X41.4192 Y16.6978 
G01 X41.3707 Y16.8150 
G01 X41.3002 Y16.9205 
G01 X41.2105 Y17.0102 
G01 X41.1050 Y17.0807 
G01 X40.9878 Y17.1292 
G01 X40.8634 Y17.1540 
G01 X40.7366 Y17.1540 
G01 X40.6121 Y17.1292 
G01 X40.4950 Y17.0807 
G01 X40.3895 Y17.0102 
G01 X40.2998 Y16.9205 
G01 X40.2293 Y16.8150 
G01 X40.1808 Y16.6978 
G01 X40.1560 Y16.5734 
G01 X40.1560 Y16.4466 
G01 X40.1808 Y16.3222 
G01 X40.2293 Y16.2050 
G01 X40.2998 Y16.0995 
G01 X40.3895 Y16.0098 
G01 X40.4950 Y15.9393 
G01 X40.6121 Y15.8908 
G01 X40.7366 Y15.8660 
G01 X40.8634 Y15.8660 
G01 X40.9878 Y15.8908 
G01 X41.1050 Y15.9393 
G01 X41.2105 Y16.0098 
G01 X41.3002 Y16.0995 
G01 X41.3707 Y16.2050 
G01 X41.4192 Y16.3222 
G01 X41.4440 Y16.4466 
G00 Z2.0000 
G00 X33.5040 Y16.4466 
G01 Z-0.3000 F100.00 
G01 X33.5040 Y16.5734 F250.00 
G01 X33.4792 Y16.6978 
G01 X33.4307 Y16.8150 
G01 X33.3602 Y16.9205 
G01 X33.2705 Y17.0102 
G01 X33.1650 Y17.0807 
G01 X33.0478 Y17.1292 
G01 X32.9234 Y17.1540 
G01 X32.7966 Y17.1540 
G01 X32.6722 Y17.1292 
G01 X32.5549 Y17.0807 
G01 X32.4495 Y17.0102 
G01 X32.3598 Y16.9205 
G01 X32.2893 Y16.8150 
G01 X32.2407 Y16.6978 
G01 X32.2160 Y16.5734 
G01 X32.2160 Y16.4466 
G01 X32.2407 Y16.3222 
G01 X32.2893 Y16.2050 
G01 X32.3598 Y16.0995 
G01 X32.4495 Y16.0098 
G01 X32.5549 Y15.9393 
G01 X32.6722 Y15.8908 
G01 X32.7966 Y15.8660 
G01 X32.9234 Y15.8660 
G01 X33.0478 Y15.8908 
G01 X33.1650 Y15.9393 
G01 X33.2705 Y16.0098 
G01 X33.3602 Y16.0995 
G01 X33.4307 Y16.2050 
G01 X33.4792 Y16.3222 
G01 X33.5040 Y16.4466 
G00 Z2.0000 
G00 X33.5040 Y23.5006 
G01 Z-0.3000 F100.00 
G01 X33.5040 Y24.7594 F250.00 
G01 X33.4894 Y24.7740 
G01 X32.2306 Y24.7740 
G01 X32.2160 Y24.7594 
G01 X32.2160 Y23.5006 
G01 X32.2306 Y23.4860 
G01 X33.4894 Y23.4860 
G01 X33.5040 Y23.5006 
G00 Z2.0000 
G00 X22.2890 Y26.6012 
G01 Z-0.3000 F100.00 
G01 X22.2890 Y26.7388 F250.00 
G01 X22.2621 Y26.8739 
G01 X22.2094 Y27.0011 
G01 X22.1329 Y27.1156 
G01 X22.0356 Y27.2129 
G01 X21.9211 Y27.2894 
G01 X21.7939 Y27.3421 
G01 X21.6588 Y27.3690 
G01 X21.5212 Y27.3690 
G01 X21.3861 Y27.3421 
G01 X21.2589 Y27.2894 
G01 X21.1444 Y27.2129 
G01 X21.0471 Y27.1156 
G01 X20.9706 Y27.0011 
G01 X20.9179 Y26.8739 
G01 X20.8910 Y26.7388 
G01 X20.8910 Y26.6012 
G01 X20.9179 Y26.4661 
G01 X20.9706 Y26.3389 
G01 X21.0471 Y26.2244 
G01 X21.1444 Y26.1271 
G01 X21.2589 Y26.0506 
G01 X21.3861 Y25.9979 
G01 X21.5212 Y25.9710 
G01 X21.6588 Y25.9710 
G01 X21.7939 Y25.9979 
G01 X21.9211 Y26.0506 
G01 X22.0356 Y26.1271 
G01 X22.1329 Y26.2244 
G01 X22.2094 Y26.3389 
G01 X22.2621 Y26.4661 
G01 X22.2890 Y26.6012 
G00 Z2.0000 
G00 X20.6039 Y33.7054 
G01 Z-0.3000 F100.00 
G01 X20.0361 Y33.7054 F250.00 
G01 X19.6346 Y33.3039 
G01 X19.6346 Y33.0680 
G01 X18.9543 Y32.3877 
G01 X18.8623 Y32.2957 
G01 X18.7901 Y32.1876 
G01 X18.7404 Y32.0675 
G01 X18.7150 Y31.9400 
G01 X18.7150 Y29.8268 
G01 X18.6044 Y29.7529 
G01 X18.5070 Y29.6556 
G01 X18.4306 Y29.5411 
G01 X18.3937 Y29.4520 
G01 X16.2679 Y27.3263 
G01 X16.1789 Y27.2894 
G01 X16.0644 Y27.2129 
G01 X15.9671 Y27.1156 
G01 X15.8906 Y27.0011 
G01 X15.8379 Y26.8739 
G01 X15.8110 Y26.7388 
G01 X15.8110 Y26.6012 
G01 X15.8379 Y26.4661 
G01 X15.8906 Y26.3389 
G01 X15.9671 Y26.2244 
G01 X16.0644 Y26.1271 
G01 X16.1789 Y26.0506 
G01 X16.3061 Y25.9979 
G01 X16.4412 Y25.9710 
G01 X16.5788 Y25.9710 
G01 X16.7139 Y25.9979 
G01 X16.8411 Y26.0506 
G01 X16.9556 Y26.1271 
G01 X17.0529 Y26.2244 
G01 X17.0933 Y26.2848 
G01 X17.0960 Y26.2876 
G01 X19.4342 Y28.6258 
G01 X19.4367 Y28.6277 
G01 X19.4956 Y28.6670 
G01 X19.5929 Y28.7644 
G01 X19.6694 Y28.8789 
G01 X19.6816 Y28.9082 
G01 X19.8877 Y29.1143 
G01 X19.9599 Y29.2224 
G01 X20.0096 Y29.3425 
G01 X20.0350 Y29.4700 
G01 X20.0350 Y31.6016 
G01 X20.7934 Y32.3600 
G01 X32.9250 Y32.3600 
G01 X33.0525 Y32.3854 
G01 X33.1726 Y32.4351 
G01 X33.2807 Y32.5073 
G01 X33.3727 Y32.5993 
G01 X33.4449 Y32.7074 
G01 X33.4946 Y32.8275 
G01 X33.5200 Y32.9550 
G01 X33.5200 Y33.0850 
G01 X33.4946 Y33.2125 
G01 X33.4449 Y33.3326 
G01 X33.3727 Y33.4407 
G01 X33.2807 Y33.5327 
G01 X33.1726 Y33.6049 
G01 X33.0525 Y33.6546 
G01 X32.9250 Y33.6800 
G01 X20.6293 Y33.6800 
G01 X20.6039 Y33.7054 
G00 Z2.0000 
G00 X13.3854 Y32.7361 
G01 Z-0.3000 F100.00 
G01 X13.3854 Y33.3039 F250.00 
G01 X12.9839 Y33.7054 
G01 X12.4161 Y33.7054 
G01 X12.0146 Y33.3039 
G01 X12.0146 Y32.7361 
G01 X12.4161 Y32.3346 
G01 X12.9839 Y32.3346 
G01 X13.3854 Y32.7361 
G00 Z2.0000 
G00 X41.4440 Y35.4966 
G01 Z-0.3000 F100.00 
G01 X41.4440 Y35.6234 F250.00 
G01 X41.4192 Y35.7478 
G01 X41.3707 Y35.8650 
G01 X41.3002 Y35.9705 
G01 X41.2105 Y36.0602 
G01 X41.1050 Y36.1307 
G01 X40.9878 Y36.1792 
G01 X40.8634 Y36.2040 
G01 X40.7366 Y36.2040 
G01 X40.6121 Y36.1792 
G01 X40.4950 Y36.1307 
G01 X40.3895 Y36.0602 
G01 X40.2998 Y35.9705 
G01 X40.2293 Y35.8650 
G01 X40.1808 Y35.7478 
G01 X40.1560 Y35.6234 
G01 X40.1560 Y35.4966 
G01 X40.1808 Y35.3722 
G01 X40.2293 Y35.2550 
G01 X40.2998 Y35.1495 
G01 X40.3895 Y35.0598 
G01 X40.4950 Y34.9893 
G01 X40.6121 Y34.9408 
G01 X40.7366 Y34.9160 
G01 X40.8634 Y34.9160 
G01 X40.9878 Y34.9408 
G01 X41.1050 Y34.9893 
G01 X41.2105 Y35.0598 
G01 X41.3002 Y35.1495 
G01 X41.3707 Y35.2550 
G01 X41.4192 Y35.3722 
G01 X41.4440 Y35.4966 
G00 Z2.0000 
G00 X43.5528 Y32.2445 
G01 Z-0.3000 F100.00 
G01 X43.6105 Y32.2330 F250.00 
G01 X45.2895 Y32.2330 
G01 X45.4416 Y32.2632 
G01 X45.5848 Y32.3226 
G01 X45.7137 Y32.4087 
G01 X45.8233 Y32.5183 
G01 X45.9094 Y32.6472 
G01 X45.9688 Y32.7904 
G01 X45.9990 Y32.9425 
G01 X45.9990 Y33.0975 
G01 X45.9688 Y33.2496 
G01 X45.9094 Y33.3928 
G01 X45.8233 Y33.5217 
G01 X45.7137 Y33.6313 
G01 X45.5848 Y33.7174 
G01 X45.4416 Y33.7768 
G01 X45.2895 Y33.8070 
G01 X43.6105 Y33.8070 
G01 X43.4584 Y33.7768 
G01 X43.3152 Y33.7174 
G01 X43.1950 Y33.6371 
G01 X43.1825 Y33.6346 
G01 X43.0624 Y33.5849 
G01 X42.9543 Y33.5127 
G01 X40.5200 Y31.0784 
G01 X40.4874 Y31.0649 
G01 X40.3793 Y30.9927 
G01 X40.2873 Y30.9007 
G01 X40.2151 Y30.7926 
G01 X40.1654 Y30.6725 
G01 X40.1400 Y30.5450 
G01 X40.1400 Y30.4150 
G01 X40.1654 Y30.2875 
G01 X40.2151 Y30.1674 
G01 X40.2873 Y30.0593 
G01 X40.3793 Y29.9673 
G01 X40.4874 Y29.8951 
G01 X40.6075 Y29.8454 
G01 X40.7350 Y29.8200 
G01 X40.9200 Y29.8200 
G01 X41.0475 Y29.8454 
G01 X41.1676 Y29.8951 
G01 X41.2757 Y29.9673 
G01 X41.3677 Y30.0593 
G01 X43.5528 Y32.2445 
G00 Z2.0000 
G00 X41.4440 Y27.8766 
G01 Z-0.3000 F100.00 
G01 X41.4440 Y28.0034 F250.00 
G01 X41.4192 Y28.1278 
G01 X41.3707 Y28.2450 
G01 X41.3002 Y28.3505 
G01 X41.2105 Y28.4402 
G01 X41.1050 Y28.5107 
G01 X40.9878 Y28.5592 
G01 X40.8634 Y28.5840 
G01 X40.7366 Y28.5840 
G01 X40.6121 Y28.5592 
G01 X40.4950 Y28.5107 
G01 X40.3895 Y28.4402 
G01 X40.2998 Y28.3505 
G01 X40.2293 Y28.2450 
G01 X40.1808 Y28.1278 
G01 X40.1560 Y28.0034 
G01 X40.1560 Y27.8766 
G01 X40.1808 Y27.7522 
G01 X40.2293 Y27.6349 
G01 X40.2998 Y27.5295 
G01 X40.3895 Y27.4398 
G01 X40.4950 Y27.3693 
G01 X40.6121 Y27.3208 
G01 X40.7366 Y27.2960 
G01 X40.8634 Y27.2960 
G01 X40.9878 Y27.3208 
G01 X41.1050 Y27.3693 
G01 X41.2105 Y27.4398 
G01 X41.3002 Y27.5295 
G01 X41.3707 Y27.6349 
G01 X41.4192 Y27.7522 
G01 X41.4440 Y27.8766 
G00 Z2.0000 
G00 X33.5040 Y30.4166 
G01 Z-0.3000 F100.00 
G01 X33.5040 Y30.5434 F250.00 
G01 X33.4792 Y30.6678 
G01 X33.4307 Y30.7850 
G01 X33.3602 Y30.8905 
G01 X33.2705 Y30.9802 
G01 X33.1650 Y31.0507 
G01 X33.0478 Y31.0992 
G01 X32.9234 Y31.1240 
G01 X32.7966 Y31.1240 
G01 X32.6722 Y31.0992 
G01 X32.5549 Y31.0507 
G01 X32.4495 Y30.9802 
G01 X32.3598 Y30.8905 
G01 X32.2893 Y30.7850 
G01 X32.2407 Y30.6678 
G01 X32.2160 Y30.5434 
G01 X32.2160 Y30.4166 
G01 X32.2407 Y30.2922 
G01 X32.2893 Y30.1750 
G01 X32.3598 Y30.0695 
G01 X32.4495 Y29.9798 
G01 X32.5549 Y29.9093 
G01 X32.6722 Y29.8608 
G01 X32.7966 Y29.8360 
G01 X32.9234 Y29.8360 
G01 X33.0478 Y29.8608 
G01 X33.1650 Y29.9093 
G01 X33.2705 Y29.9798 
G01 X33.3602 Y30.0695 
G01 X33.4307 Y30.1750 
G01 X33.4792 Y30.2922 
G01 X33.5040 Y30.4166 
G00 Z2.0000 
G00 X33.5040 Y34.9306 
G01 Z-0.3000 F100.00 
G01 X33.5040 Y36.1894 F250.00 
G01 X33.4894 Y36.2040 
G01 X32.2306 Y36.2040 
G01 X32.2160 Y36.1894 
G01 X32.2160 Y34.9306 
G01 X32.2306 Y34.9160 
G01 X33.4894 Y34.9160 
G01 X33.5040 Y34.9306 
G00 Z2.0000 
G00 X53.6927 Y15.6607 
G01 Z-0.3000 F100.00 
G01 X52.0350 Y17.3184 F250.00 
G01 X52.0350 Y18.1861 
G01 X52.0096 Y18.3136 
G01 X51.9599 Y18.4337 
G01 X51.8877 Y18.5418 
G01 X51.7957 Y18.6337 
G01 X43.7918 Y26.6377 
G01 X43.6837 Y26.7099 
G01 X43.5636 Y26.7596 
G01 X43.4361 Y26.7850 
G01 X36.6484 Y26.7850 
G01 X34.9807 Y28.4527 
G01 X34.8726 Y28.5249 
G01 X34.7525 Y28.5746 
G01 X34.6250 Y28.6000 
G01 X32.7950 Y28.6000 
G01 X32.6675 Y28.5746 
G01 X32.5474 Y28.5249 
G01 X32.4393 Y28.4527 
G01 X32.3473 Y28.3607 
G01 X32.2751 Y28.2526 
G01 X32.2254 Y28.1325 
G01 X32.2000 Y28.0050 
G01 X32.2000 Y27.8750 
G01 X32.2254 Y27.7475 
G01 X32.2751 Y27.6274 
G01 X32.3473 Y27.5193 
G01 X32.4393 Y27.4273 
G01 X32.5474 Y27.3551 
G01 X32.6675 Y27.3054 
G01 X32.7950 Y27.2800 
G01 X34.2866 Y27.2800 
G01 X35.8623 Y25.7043 
G01 X35.9543 Y25.6123 
G01 X36.0624 Y25.5401 
G01 X36.1825 Y25.4904 
G01 X36.3100 Y25.4650 
G01 X43.0977 Y25.4650 
G01 X50.7150 Y17.8477 
G01 X50.7150 Y16.9800 
G01 X50.7404 Y16.8525 
G01 X50.7901 Y16.7324 
G01 X50.8623 Y16.6243 
G01 X50.9543 Y16.5323 
G01 X52.7593 Y14.7273 
G01 X52.8674 Y14.6551 
G01 X52.9875 Y14.6054 
G01 X53.1150 Y14.5800 
G01 X53.2450 Y14.5800 
G01 X53.3725 Y14.6054 
G01 X53.4926 Y14.6551 
G01 X53.6007 Y14.7273 
G01 X53.6927 Y14.8193 
G01 X53.7649 Y14.9274 
G01 X53.8146 Y15.0475 
G01 X53.8400 Y15.1750 
G01 X53.8400 Y15.3050 
G01 X53.8146 Y15.4325 
G01 X53.7649 Y15.5526 
G01 X53.6927 Y15.6607 
G00 Z2.0000 
G00 X53.1150 Y18.4400 
G01 Z-0.3000 F100.00 
G01 X52.9875 Y18.4146 F250.00 
G01 X52.8674 Y18.3649 
G01 X52.7593 Y18.2927 
G01 X52.6673 Y18.2007 
G01 X52.5951 Y18.0926 
G01 X52.5454 Y17.9725 
G01 X52.5200 Y17.8450 
G01 X52.5200 Y17.7150 
G01 X52.5454 Y17.5875 
G01 X52.5951 Y17.4674 
G01 X52.6673 Y17.3593 
G01 X52.7593 Y17.2673 
G01 X52.8674 Y17.1951 
G01 X52.9875 Y17.1454 
G01 X53.0546 Y17.1320 
G01 X60.2746 Y9.9120 
G01 X60.2746 Y9.8761 
G01 X60.6761 Y9.4746 
G01 X61.2439 Y9.4746 
G01 X61.6454 Y9.8761 
G01 X61.6454 Y10.4439 
G01 X61.2439 Y10.8454 
G01 X61.2080 Y10.8454 
G01 X53.7607 Y18.2927 
G01 X53.6526 Y18.3649 
G01 X53.5325 Y18.4146 
G01 X53.4050 Y18.4400 
G01 X53.2750 Y18.4400 
G01 X53.1150 Y18.4400 
G00 Z2.0000 
G00 X24.8199 Y4.3732 
G01 Z-0.3000 F100.00 
G01 X24.9690 Y4.2736 F250.00 
G01 X25.1346 Y4.2050 
G01 X25.3104 Y4.1700 
G01 X26.0934 Y4.1700 
G01 X26.1065 Y4.1605 
G01 X26.2573 Y4.0837 
G01 X26.3705 Y4.0469 
G01 X12.4696 Y4.0469 
G01 X11.1019 Y5.4146 
G01 X11.8175 Y5.4146 
G01 X11.8429 Y5.4400 
G01 X23.7531 Y5.4400 
G01 X24.8199 Y4.3732 
G00 Z2.0000 
G00 X11.8103 Y2.2689 
G01 Z-0.3000 F100.00 
G01 X11.7332 Y2.2689 F250.00 
G01 X11.6786 Y2.3234 
G01 X11.8103 Y2.2689 
G00 Z2.0000 
G00 X40.3765 Y20.7977 
G01 Z-0.3000 F100.00 
G01 X40.5392 Y20.7304 F250.00 
G01 X40.7119 Y20.6960 
G01 X40.8880 Y20.6960 
G01 X41.0608 Y20.7304 
G01 X41.2235 Y20.7977 
G01 X41.3360 Y20.8730 
G01 X40.8000 Y20.3369 
G01 X40.2640 Y20.8730 
G01 X40.3765 Y20.7977 
G00 Z2.0000 
G00 X34.1831 Y27.0300 
G01 Z-0.3000 F100.00 
G01 X35.6682 Y25.5449 F250.00 
G01 X35.6682 Y25.5449 
G01 X35.7949 Y25.4182 
G01 X35.9440 Y25.3186 
G01 X36.1096 Y25.2500 
G01 X36.2854 Y25.2150 
G01 X42.9941 Y25.2150 
G01 X45.7081 Y22.5011 
G01 X45.6101 Y22.5510 
G01 X45.4548 Y22.6015 
G01 X45.2936 Y22.6270 
G01 X43.6064 Y22.6270 
G01 X43.4452 Y22.6015 
G01 X43.2899 Y22.5510 
G01 X43.1445 Y22.4769 
G01 X43.0124 Y22.3810 
G01 X42.9846 Y22.3750 
G01 X42.8190 Y22.3064 
G01 X42.6699 Y22.2068 
G01 X42.5432 Y22.0801 
G01 X41.5170 Y21.0540 
G01 X41.5922 Y21.1665 
G01 X41.6596 Y21.3292 
G01 X41.6940 Y21.5019 
G01 X41.6940 Y21.6781 
G01 X41.6596 Y21.8508 
G01 X41.5922 Y22.0135 
G01 X41.4944 Y22.1599 
G01 X41.3699 Y22.2844 
G01 X41.2235 Y22.3823 
G01 X41.0608 Y22.4496 
G01 X40.8880 Y22.4840 
G01 X40.7119 Y22.4840 
G01 X40.5392 Y22.4496 
G01 X40.3765 Y22.3823 
G01 X40.2301 Y22.2844 
G01 X40.1056 Y22.1599 
G01 X40.0077 Y22.0135 
G01 X39.9404 Y21.8508 
G01 X39.9060 Y21.6781 
G01 X39.9060 Y21.5019 
G01 X39.9404 Y21.3292 
G01 X40.0077 Y21.1665 
G01 X40.0830 Y21.0540 
G01 X34.3051 Y26.8318 
G01 X34.1560 Y26.9314 
G01 X33.9904 Y27.0000 
G01 X33.8397 Y27.0300 
G01 X34.1831 Y27.0300 
G00 Z2.0000 
G00 X41.6940 Y24.0419 
G01 Z-0.3000 F100.00 
G01 X41.6940 Y24.2181 F250.00 
G01 X41.6596 Y24.3908 
G01 X41.5922 Y24.5535 
G01 X41.4944 Y24.6999 
G01 X41.3699 Y24.8244 
G01 X41.2235 Y24.9223 
G01 X41.0608 Y24.9896 
G01 X40.8880 Y25.0240 
G01 X40.7119 Y25.0240 
G01 X40.5392 Y24.9896 
G01 X40.3765 Y24.9223 
G01 X40.2301 Y24.8244 
G01 X40.1056 Y24.6999 
G01 X40.0077 Y24.5535 
G01 X39.9404 Y24.3908 
G01 X39.9060 Y24.2181 
G01 X39.9060 Y24.0419 
G01 X39.9404 Y23.8692 
G01 X40.0077 Y23.7065 
G01 X40.1056 Y23.5601 
G01 X40.2301 Y23.4356 
G01 X40.3765 Y23.3377 
G01 X40.5392 Y23.2704 
G01 X40.7119 Y23.2360 
G01 X40.8880 Y23.2360 
G01 X41.0608 Y23.2704 
G01 X41.2235 Y23.3377 
G01 X41.3699 Y23.4356 
G01 X41.4944 Y23.5601 
G01 X41.5922 Y23.7065 
G01 X41.6596 Y23.8692 
G01 X41.6940 Y24.0419 
G00 Z2.0000 
G00 X52.2850 Y17.4219 
G01 Z-0.3000 F100.00 
G01 X52.2850 Y17.6150 F250.00 
G01 X52.3050 Y17.5146 
G01 X52.3736 Y17.3490 
G01 X52.4050 Y17.3020 
G01 X52.2850 Y17.4219 
G00 Z2.0000 
G00 X33.7540 Y30.3919 
G01 Z-0.3000 F100.00 
G01 X33.7540 Y30.5681 F250.00 
G01 X33.7196 Y30.7408 
G01 X33.6523 Y30.9035 
G01 X33.5544 Y31.0499 
G01 X33.4299 Y31.1744 
G01 X33.2835 Y31.2723 
G01 X33.1208 Y31.3396 
G01 X32.9481 Y31.3740 
G01 X32.7719 Y31.3740 
G01 X32.5992 Y31.3396 
G01 X32.4365 Y31.2723 
G01 X32.2901 Y31.1744 
G01 X32.1656 Y31.0499 
G01 X32.0677 Y30.9035 
G01 X32.0004 Y30.7408 
G01 X31.9660 Y30.5681 
G01 X31.9660 Y30.3919 
G01 X32.0004 Y30.2192 
G01 X32.0677 Y30.0565 
G01 X32.1656 Y29.9101 
G01 X32.2901 Y29.7856 
G01 X32.4365 Y29.6877 
G01 X32.5992 Y29.6204 
G01 X32.7719 Y29.5860 
G01 X32.9481 Y29.5860 
G01 X33.1208 Y29.6204 
G01 X33.2835 Y29.6877 
G01 X33.4299 Y29.7856 
G01 X33.5544 Y29.9101 
G01 X33.6523 Y30.0565 
G01 X33.7196 Y30.2192 
G01 X33.7540 Y30.3919 
G00 Z2.0000 
G00 X41.6940 Y27.8519 
G01 Z-0.3000 F100.00 
G01 X41.6940 Y28.0281 F250.00 
G01 X41.6596 Y28.2008 
G01 X41.5922 Y28.3635 
G01 X41.4944 Y28.5099 
G01 X41.3699 Y28.6344 
G01 X41.2235 Y28.7323 
G01 X41.0608 Y28.7996 
G01 X40.8880 Y28.8340 
G01 X40.7119 Y28.8340 
G01 X40.5392 Y28.7996 
G01 X40.3765 Y28.7323 
G01 X40.2301 Y28.6344 
G01 X40.1056 Y28.5099 
G01 X40.0077 Y28.3635 
G01 X39.9404 Y28.2008 
G01 X39.9060 Y28.0281 
G01 X39.9060 Y27.8519 
G01 X39.9404 Y27.6792 
G01 X40.0077 Y27.5165 
G01 X40.1056 Y27.3701 
G01 X40.2301 Y27.2456 
G01 X40.3765 Y27.1477 
G01 X40.5392 Y27.0804 
G01 X40.7119 Y27.0460 
G01 X40.8880 Y27.0460 
G01 X41.0608 Y27.0804 
G01 X41.2235 Y27.1477 
G01 X41.3699 Y27.2456 
G01 X41.4944 Y27.3701 
G01 X41.5922 Y27.5165 
G01 X41.6596 Y27.6792 
G01 X41.6940 Y27.8519 
G00 Z2.0000 
G00 X43.6449 Y31.9830 
G01 Z-0.3000 F100.00 
G01 X45.2936 Y31.9830 F250.00 
G01 X45.4548 Y32.0085 
G01 X45.6101 Y32.0590 
G01 X45.7555 Y32.1331 
G01 X45.8876 Y32.2290 
G01 X46.0030 Y32.3444 
G01 X46.0989 Y32.4765 
G01 X46.1730 Y32.6219 
G01 X46.2235 Y32.7772 
G01 X46.2490 Y32.9384 
G01 X46.2490 Y33.1016 
G01 X46.2235 Y33.2628 
G01 X46.1730 Y33.4181 
G01 X46.0989 Y33.5635 
G01 X46.0030 Y33.6956 
G01 X45.8876 Y33.8110 
G01 X45.7555 Y33.9069 
G01 X45.6101 Y33.9810 
G01 X45.4971 Y34.0177 
G01 X45.6953 Y34.0177 
G01 X49.6699 Y30.0432 
G01 X49.8190 Y29.9436 
G01 X49.9846 Y29.8750 
G01 X50.1604 Y29.8400 
G01 X57.5900 Y29.8400 
G01 X57.5900 Y22.8504 
G01 X57.6250 Y22.6746 
G01 X57.6936 Y22.5090 
G01 X57.7932 Y22.3599 
G01 X60.5399 Y19.6132 
G01 X60.6890 Y19.5136 
G01 X60.8546 Y19.4450 
G01 X61.0304 Y19.4100 
G01 X61.2096 Y19.4100 
G01 X61.3854 Y19.4450 
G01 X61.5510 Y19.5136 
G01 X61.7001 Y19.6132 
G01 X61.8268 Y19.7399 
G01 X61.9264 Y19.8890 
G01 X61.9950 Y20.0546 
G01 X62.0300 Y20.2304 
G01 X62.0300 Y20.4096 
G01 X61.9950 Y20.5854 
G01 X61.9264 Y20.7510 
G01 X61.8268 Y20.9001 
G01 X60.5840 Y22.1430 
G01 X60.6965 Y22.0677 
G01 X60.8592 Y22.0004 
G01 X61.0319 Y21.9660 
G01 X61.2081 Y21.9660 
G01 X61.3808 Y22.0004 
G01 X61.5435 Y22.0677 
G01 X61.6899 Y22.1656 
G01 X61.8144 Y22.2901 
G01 X61.9123 Y22.4365 
G01 X61.9796 Y22.5992 
G01 X62.0140 Y22.7719 
G01 X62.0140 Y22.9481 
G01 X61.9796 Y23.1208 
G01 X61.9123 Y23.2835 
G01 X61.8144 Y23.4299 
G01 X61.6899 Y23.5544 
G01 X61.5435 Y23.6523 
G01 X61.3808 Y23.7196 
G01 X61.2081 Y23.7540 
G01 X61.0319 Y23.7540 
G01 X60.8592 Y23.7196 
G01 X60.6965 Y23.6523 
G01 X60.5501 Y23.5544 
G01 X60.4256 Y23.4299 
G01 X60.3277 Y23.2835 
G01 X60.2604 Y23.1208 
G01 X60.2260 Y22.9481 
G01 X60.2260 Y22.7719 
G01 X60.2604 Y22.5992 
G01 X60.3277 Y22.4365 
G01 X60.4030 Y22.3240 
G01 X59.4100 Y23.3169 
G01 X59.4100 Y30.0035 
G01 X59.4570 Y30.0505 
G01 X59.4570 Y30.9095 
G01 X58.8495 Y31.5170 
G01 X58.6401 Y31.5170 
G01 X58.5810 Y31.5564 
G01 X58.4154 Y31.6250 
G01 X58.2396 Y31.6600 
G01 X50.6269 Y31.6600 
G01 X46.6524 Y35.6346 
G01 X46.5033 Y35.7342 
G01 X46.3377 Y35.8028 
G01 X46.1619 Y35.8377 
G01 X42.6181 Y35.8377 
G01 X42.4423 Y35.8028 
G01 X42.2767 Y35.7342 
G01 X42.1276 Y35.6346 
G01 X42.0009 Y35.5078 
G01 X41.5170 Y35.0240 
G01 X41.5922 Y35.1365 
G01 X41.6596 Y35.2992 
G01 X41.6940 Y35.4719 
G01 X41.6940 Y35.6481 
G01 X41.6596 Y35.8208 
G01 X41.5922 Y35.9835 
G01 X41.4944 Y36.1299 
G01 X41.3699 Y36.2544 
G01 X41.2235 Y36.3523 
G01 X41.0608 Y36.4196 
G01 X40.8880 Y36.4540 
G01 X40.7119 Y36.4540 
G01 X40.5392 Y36.4196 
G01 X40.3765 Y36.3523 
G01 X40.2301 Y36.2544 
G01 X40.1056 Y36.1299 
G01 X40.0077 Y35.9835 
G01 X39.9404 Y35.8208 
G01 X39.9060 Y35.6481 
G01 X39.9060 Y35.4719 
G01 X39.9404 Y35.2992 
G01 X40.0077 Y35.1365 
G01 X40.1056 Y34.9901 
G01 X40.2301 Y34.8656 
G01 X40.3765 Y34.7677 
G01 X40.5392 Y34.7004 
G01 X40.7119 Y34.6660 
G01 X40.8880 Y34.6660 
G01 X41.0608 Y34.7004 
G01 X41.2235 Y34.7677 
G01 X41.3360 Y34.8430 
G01 X40.7650 Y34.2719 
G01 X37.1348 Y37.9021 
G01 X37.0081 Y38.0288 
G01 X36.8590 Y38.1284 
G01 X36.6934 Y38.1970 
G01 X36.5176 Y38.2320 
G01 X21.9820 Y38.2320 
G01 X21.8062 Y38.1970 
G01 X21.6406 Y38.1284 
G01 X21.4915 Y38.0288 
G01 X14.0449 Y30.5822 
G01 X13.9182 Y30.4555 
G01 X13.8186 Y30.3064 
G01 X13.7500 Y30.1408 
G01 X13.7150 Y29.9650 
G01 X13.7150 Y21.2401 
G01 X12.3899 Y19.9150 
G01 X12.4496 Y20.0592 
G01 X12.4840 Y20.2319 
G01 X12.4840 Y20.4080 
G01 X12.4496 Y20.5808 
G01 X12.3823 Y20.7435 
G01 X12.2844 Y20.8899 
G01 X12.1599 Y21.0144 
G01 X12.0135 Y21.1122 
G01 X11.8508 Y21.1796 
G01 X11.6781 Y21.2140 
G01 X11.5019 Y21.2140 
G01 X11.3292 Y21.1796 
G01 X11.1665 Y21.1122 
G01 X11.0201 Y21.0144 
G01 X10.8956 Y20.8899 
G01 X10.7977 Y20.7435 
G01 X10.7304 Y20.5808 
G01 X10.6960 Y20.4080 
G01 X10.6960 Y20.2319 
G01 X10.7304 Y20.0592 
G01 X10.7977 Y19.8965 
G01 X10.8956 Y19.7501 
G01 X11.0201 Y19.6256 
G01 X11.1665 Y19.5277 
G01 X11.3292 Y19.4604 
G01 X11.5019 Y19.4260 
G01 X11.6781 Y19.4260 
G01 X11.8508 Y19.4604 
G01 X11.9950 Y19.5201 
G01 X11.0099 Y18.5350 
G01 X10.8832 Y18.4082 
G01 X10.7836 Y18.2592 
G01 X10.7150 Y18.0936 
G01 X10.6800 Y17.9178 
G01 X10.6800 Y17.6904 
G01 X10.7150 Y17.5146 
G01 X10.7836 Y17.3490 
G01 X10.8832 Y17.1999 
G01 X11.0099 Y17.0732 
G01 X11.1590 Y16.9736 
G01 X11.3246 Y16.9050 
G01 X11.5004 Y16.8700 
G01 X11.6796 Y16.8700 
G01 X11.8554 Y16.9050 
G01 X12.0210 Y16.9736 
G01 X12.1701 Y17.0732 
G01 X12.2968 Y17.1999 
G01 X12.3938 Y17.3450 
G01 X15.2051 Y20.1563 
G01 X15.3318 Y20.2831 
G01 X15.4314 Y20.4321 
G01 X15.5000 Y20.5977 
G01 X15.5350 Y20.7735 
G01 X15.5350 Y29.4985 
G01 X19.3846 Y33.3481 
G01 X19.3846 Y33.1715 
G01 X18.7949 Y32.5818 
G01 X18.6682 Y32.4551 
G01 X18.5686 Y32.3060 
G01 X18.5000 Y32.1404 
G01 X18.4650 Y31.9646 
G01 X18.4650 Y29.9605 
G01 X18.4450 Y29.9471 
G01 X18.3129 Y29.8150 
G01 X18.2090 Y29.6595 
G01 X18.1817 Y29.5937 
G01 X16.1263 Y27.5383 
G01 X16.0605 Y27.5110 
G01 X15.9050 Y27.4071 
G01 X15.7729 Y27.2750 
G01 X15.6690 Y27.1195 
G01 X15.5975 Y26.9468 
G01 X15.5610 Y26.7635 
G01 X15.5610 Y26.5765 
G01 X15.5975 Y26.3932 
G01 X15.6690 Y26.2205 
G01 X15.7729 Y26.0650 
G01 X15.9050 Y25.9329 
G01 X16.0605 Y25.8290 
G01 X16.2332 Y25.7575 
G01 X16.4165 Y25.7210 
G01 X16.6035 Y25.7210 
G01 X16.7868 Y25.7575 
G01 X16.9595 Y25.8290 
G01 X17.1150 Y25.9329 
G01 X17.2471 Y26.0650 
G01 X17.2877 Y26.1258 
G01 X19.5942 Y28.4323 
G01 X19.6549 Y28.4729 
G01 X19.7871 Y28.6050 
G01 X19.8910 Y28.7605 
G01 X19.8935 Y28.7666 
G01 X20.0818 Y28.9549 
G01 X20.1814 Y29.1040 
G01 X20.2500 Y29.2696 
G01 X20.2850 Y29.4454 
G01 X20.2850 Y31.4981 
G01 X20.8969 Y32.1100 
G01 X32.9496 Y32.1100 
G01 X33.1254 Y32.1450 
G01 X33.2910 Y32.2136 
G01 X33.4401 Y32.3132 
G01 X33.5668 Y32.4399 
G01 X33.6664 Y32.5890 
G01 X33.7350 Y32.7546 
G01 X33.7700 Y32.9304 
G01 X33.7700 Y33.1096 
G01 X33.7350 Y33.2854 
G01 X33.6664 Y33.4510 
G01 X33.5668 Y33.6001 
G01 X33.4401 Y33.7268 
G01 X33.2910 Y33.8264 
G01 X33.1254 Y33.8950 
G01 X32.9496 Y33.9300 
G01 X20.7329 Y33.9300 
G01 X20.7075 Y33.9554 
G01 X19.9919 Y33.9554 
G01 X22.4485 Y36.4120 
G01 X32.0946 Y36.4120 
G01 X32.0721 Y36.3991 
G01 X32.0209 Y36.3479 
G01 X31.9847 Y36.2851 
G01 X31.9660 Y36.2152 
G01 X31.9660 Y34.9048 
G01 X31.9847 Y34.8349 
G01 X32.0209 Y34.7721 
G01 X32.0721 Y34.7209 
G01 X32.1349 Y34.6847 
G01 X32.2048 Y34.6660 
G01 X33.5152 Y34.6660 
G01 X33.5851 Y34.6847 
G01 X33.6479 Y34.7209 
G01 X33.6991 Y34.7721 
G01 X33.7353 Y34.8349 
G01 X33.7540 Y34.9048 
G01 X33.7540 Y36.2152 
G01 X33.7353 Y36.2851 
G01 X33.6991 Y36.3479 
G01 X33.6479 Y36.3991 
G01 X33.6254 Y36.4120 
G01 X36.0511 Y36.4120 
G01 X40.1499 Y32.3132 
G01 X40.2990 Y32.2136 
G01 X40.4646 Y32.1450 
G01 X40.6404 Y32.1100 
G01 X40.8896 Y32.1100 
G01 X41.0654 Y32.1450 
G01 X41.2310 Y32.2136 
G01 X41.3801 Y32.3132 
G01 X43.0847 Y34.0177 
G01 X43.4029 Y34.0177 
G01 X43.2899 Y33.9810 
G01 X43.1445 Y33.9069 
G01 X43.0887 Y33.8664 
G01 X42.9440 Y33.8064 
G01 X42.7949 Y33.7068 
G01 X40.3784 Y31.2903 
G01 X40.3690 Y31.2864 
G01 X40.2199 Y31.1868 
G01 X40.0932 Y31.0601 
G01 X39.9936 Y30.9110 
G01 X39.9250 Y30.7454 
G01 X39.8900 Y30.5696 
G01 X39.8900 Y30.3904 
G01 X39.9250 Y30.2146 
G01 X39.9936 Y30.0490 
G01 X40.0932 Y29.8999 
G01 X40.2199 Y29.7732 
G01 X40.3690 Y29.6736 
G01 X40.5346 Y29.6050 
G01 X40.7104 Y29.5700 
G01 X40.9446 Y29.5700 
G01 X41.1204 Y29.6050 
G01 X41.2860 Y29.6736 
G01 X41.4351 Y29.7732 
G01 X41.5618 Y29.8999 
G01 X43.6449 Y31.9830 
G00 Z2.0000 
G00 X13.6354 Y32.6325 
G01 Z-0.3000 F100.00 
G01 X13.6354 Y33.4075 F250.00 
G01 X13.0875 Y33.9554 
G01 X12.3125 Y33.9554 
G01 X11.7646 Y33.4075 
G01 X11.7646 Y32.6325 
G01 X12.3125 Y32.0846 
G01 X13.0875 Y32.0846 
G01 X13.6354 Y32.6325 
G00 Z2.0000 
G00 X22.5390 Y26.5765 
G01 Z-0.3000 F100.00 
G01 X22.5390 Y26.7635 F250.00 
G01 X22.5025 Y26.9468 
G01 X22.4310 Y27.1195 
G01 X22.3271 Y27.2750 
G01 X22.1950 Y27.4071 
G01 X22.0395 Y27.5110 
G01 X21.8668 Y27.5825 
G01 X21.6835 Y27.6190 
G01 X21.4965 Y27.6190 
G01 X21.3132 Y27.5825 
G01 X21.1405 Y27.5110 
G01 X20.9850 Y27.4071 
G01 X20.8529 Y27.2750 
G01 X20.7490 Y27.1195 
G01 X20.6775 Y26.9468 
G01 X20.6410 Y26.7635 
G01 X20.6410 Y26.5765 
G01 X20.6775 Y26.3932 
G01 X20.7490 Y26.2205 
G01 X20.8529 Y26.0650 
G01 X20.9850 Y25.9329 
G01 X21.1405 Y25.8290 
G01 X21.3132 Y25.7575 
G01 X21.4965 Y25.7210 
G01 X21.6835 Y25.7210 
G01 X21.8668 Y25.7575 
G01 X22.0395 Y25.8290 
G01 X22.1950 Y25.9329 
G01 X22.3271 Y26.0650 
G01 X22.4310 Y26.2205 
G01 X22.5025 Y26.3932 
G01 X22.5390 Y26.5765 
G00 Z2.0000 
G00 X41.6940 Y16.4219 
G01 Z-0.3000 F100.00 
G01 X41.6940 Y16.5981 F250.00 
G01 X41.6596 Y16.7708 
G01 X41.5922 Y16.9335 
G01 X41.4944 Y17.0799 
G01 X41.3699 Y17.2044 
G01 X41.2235 Y17.3023 
G01 X41.0608 Y17.3696 
G01 X40.8880 Y17.4040 
G01 X40.7119 Y17.4040 
G01 X40.5392 Y17.3696 
G01 X40.3765 Y17.3023 
G01 X40.2301 Y17.2044 
G01 X40.1056 Y17.0799 
G01 X40.0077 Y16.9335 
G01 X39.9404 Y16.7708 
G01 X39.9060 Y16.5981 
G01 X39.9060 Y16.4219 
G01 X39.9404 Y16.2492 
G01 X40.0077 Y16.0865 
G01 X40.1056 Y15.9401 
G01 X40.2301 Y15.8156 
G01 X40.3765 Y15.7177 
G01 X40.5392 Y15.6504 
G01 X40.7119 Y15.6160 
G01 X40.8880 Y15.6160 
G01 X41.0608 Y15.6504 
G01 X41.2235 Y15.7177 
G01 X41.3699 Y15.8156 
G01 X41.4944 Y15.9401 
G01 X41.5922 Y16.0865 
G01 X41.6596 Y16.2492 
G01 X41.6940 Y16.4219 
G00 Z2.0000 
G00 X17.4590 Y17.6865 
G01 Z-0.3000 F100.00 
G01 X17.4590 Y17.8735 F250.00 
G01 X17.4225 Y18.0568 
G01 X17.3510 Y18.2295 
G01 X17.2471 Y18.3849 
G01 X17.1150 Y18.5171 
G01 X16.9595 Y18.6210 
G01 X16.7868 Y18.6925 
G01 X16.6035 Y18.7290 
G01 X16.4165 Y18.7290 
G01 X16.2332 Y18.6925 
G01 X16.0605 Y18.6210 
G01 X15.9050 Y18.5171 
G01 X15.7729 Y18.3849 
G01 X15.6690 Y18.2295 
G01 X15.5975 Y18.0568 
G01 X15.5610 Y17.8735 
G01 X15.5610 Y17.6865 
G01 X15.5975 Y17.5032 
G01 X15.6690 Y17.3305 
G01 X15.7729 Y17.1750 
G01 X15.9050 Y17.0429 
G01 X16.0605 Y16.9390 
G01 X16.2332 Y16.8675 
G01 X16.4165 Y16.8310 
G01 X16.6035 Y16.8310 
G01 X16.7868 Y16.8675 
G01 X16.9595 Y16.9390 
G01 X17.1150 Y17.0429 
G01 X17.2471 Y17.1750 
G01 X17.3510 Y17.3305 
G01 X17.4225 Y17.5032 
G01 X17.4590 Y17.6865 
G00 Z2.0000 
G00 X19.9990 Y20.2265 
G01 Z-0.3000 F100.00 
G01 X19.9990 Y20.4135 F250.00 
G01 X19.9625 Y20.5968 
G01 X19.8910 Y20.7695 
G01 X19.7871 Y20.9250 
G01 X19.6549 Y21.0571 
G01 X19.4995 Y21.1610 
G01 X19.3268 Y21.2325 
G01 X19.1435 Y21.2690 
G01 X18.9565 Y21.2690 
G01 X18.7732 Y21.2325 
G01 X18.6005 Y21.1610 
G01 X18.4450 Y21.0571 
G01 X18.3129 Y20.9250 
G01 X18.2090 Y20.7695 
G01 X18.1375 Y20.5968 
G01 X18.1010 Y20.4135 
G01 X18.1010 Y20.2265 
G01 X18.1375 Y20.0432 
G01 X18.2090 Y19.8705 
G01 X18.3129 Y19.7150 
G01 X18.4450 Y19.5829 
G01 X18.6005 Y19.4790 
G01 X18.7732 Y19.4075 
G01 X18.9565 Y19.3710 
G01 X19.1435 Y19.3710 
G01 X19.3268 Y19.4075 
G01 X19.4995 Y19.4790 
G01 X19.6549 Y19.5829 
G01 X19.7871 Y19.7150 
G01 X19.8910 Y19.8705 
G01 X19.9625 Y20.0432 
G01 X19.9990 Y20.2265 
G00 Z2.0000 
G00 X27.7451 Y23.6847 
G01 Z-0.3000 F100.00 
G01 X27.7451 Y24.5753 F250.00 
G01 X27.1153 Y25.2051 
G01 X26.2247 Y25.2051 
G01 X25.5949 Y24.5753 
G01 X25.5949 Y23.6847 
G01 X25.7600 Y23.5196 
G01 X25.7600 Y20.9304 
G01 X25.5949 Y20.7653 
G01 X25.5949 Y19.8747 
G01 X26.2247 Y19.2449 
G01 X27.1153 Y19.2449 
G01 X27.7451 Y19.8747 
G01 X27.7451 Y20.7653 
G01 X27.5800 Y20.9304 
G01 X27.5800 Y23.5196 
G01 X27.7451 Y23.6847 
G00 Z2.0000 
G00 X33.7540 Y12.0448 
G01 Z-0.3000 F100.00 
G01 X33.7540 Y13.3552 F250.00 
G01 X33.7353 Y13.4251 
G01 X33.6991 Y13.4879 
G01 X33.6479 Y13.5391 
G01 X33.5851 Y13.5753 
G01 X33.5152 Y13.5940 
G01 X32.2048 Y13.5940 
G01 X32.1349 Y13.5753 
G01 X32.0721 Y13.5391 
G01 X32.0209 Y13.4879 
G01 X31.9847 Y13.4251 
G01 X31.9660 Y13.3552 
G01 X31.9660 Y12.0448 
G01 X31.9847 Y11.9749 
G01 X32.0209 Y11.9121 
G01 X32.0721 Y11.8609 
G01 X32.1349 Y11.8247 
G01 X32.2048 Y11.8060 
G01 X33.5152 Y11.8060 
G01 X33.5851 Y11.8247 
G01 X33.6479 Y11.8609 
G01 X33.6991 Y11.9121 
G01 X33.7353 Y11.9749 
G01 X33.7540 Y12.0448 
G00 Z2.0000 
G00 X41.6940 Y4.9919 
G01 Z-0.3000 F100.00 
G01 X41.6940 Y5.1681 F250.00 
G01 X41.6596 Y5.3408 
G01 X41.5922 Y5.5035 
G01 X41.4944 Y5.6499 
G01 X41.3699 Y5.7744 
G01 X41.2235 Y5.8723 
G01 X41.0608 Y5.9396 
G01 X40.8880 Y5.9740 
G01 X40.7119 Y5.9740 
G01 X40.5392 Y5.9396 
G01 X40.3765 Y5.8723 
G01 X40.2301 Y5.7744 
G01 X40.1056 Y5.6499 
G01 X40.0077 Y5.5035 
G01 X39.9404 Y5.3408 
G01 X39.9060 Y5.1681 
G01 X39.9060 Y4.9919 
G01 X39.9404 Y4.8192 
G01 X40.0077 Y4.6565 
G01 X40.1056 Y4.5101 
G01 X40.2301 Y4.3856 
G01 X40.3765 Y4.2877 
G01 X40.5392 Y4.2204 
G01 X40.7119 Y4.1860 
G01 X40.8880 Y4.1860 
G01 X41.0608 Y4.2204 
G01 X41.2235 Y4.2877 
G01 X41.3699 Y4.3856 
G01 X41.4944 Y4.5101 
G01 X41.5922 Y4.6565 
G01 X41.6596 Y4.8192 
G01 X41.6940 Y4.9919 
G00 Z2.0000 
G00 X22.5390 Y8.7965 
G01 Z-0.3000 F100.00 
G01 X22.5390 Y8.9835 F250.00 
G01 X22.5025 Y9.1668 
G01 X22.4310 Y9.3395 
G01 X22.3271 Y9.4950 
G01 X22.1950 Y9.6271 
G01 X22.0395 Y9.7310 
G01 X21.8668 Y9.8025 
G01 X21.6835 Y9.8390 
G01 X21.4965 Y9.8390 
G01 X21.3132 Y9.8025 
G01 X21.1405 Y9.7310 
G01 X20.9850 Y9.6271 
G01 X20.8529 Y9.4950 
G01 X20.7490 Y9.3395 
G01 X20.6775 Y9.1668 
G01 X20.6410 Y8.9835 
G01 X20.6410 Y8.7965 
G01 X20.6775 Y8.6132 
G01 X20.7490 Y8.4405 
G01 X20.8529 Y8.2850 
G01 X20.9850 Y8.1529 
G01 X21.1405 Y8.0490 
G01 X21.3132 Y7.9775 
G01 X21.4965 Y7.9410 
G01 X21.6835 Y7.9410 
G01 X21.8668 Y7.9775 
G01 X22.0395 Y8.0490 
G01 X22.1950 Y8.1529 
G01 X22.3271 Y8.2850 
G01 X22.4310 Y8.4405 
G01 X22.5025 Y8.6132 
G01 X22.5390 Y8.7965 
G00 Z2.0000 
G00 X4.5440 Y19.6648 
G01 Z-0.3000 F100.00 
G01 X4.5440 Y20.9752 F250.00 
G01 X4.5253 Y21.0451 
G01 X4.4891 Y21.1079 
G01 X4.4379 Y21.1591 
G01 X4.3751 Y21.1953 
G01 X4.3052 Y21.2140 
G01 X2.9948 Y21.2140 
G01 X2.9249 Y21.1953 
G01 X2.8621 Y21.1591 
G01 X2.8109 Y21.1079 
G01 X2.7747 Y21.0451 
G01 X2.7560 Y20.9752 
G01 X2.7560 Y19.6648 
G01 X2.7747 Y19.5949 
G01 X2.8109 Y19.5321 
G01 X2.8621 Y19.4809 
G01 X2.9249 Y19.4447 
G01 X2.9948 Y19.4260 
G01 X4.3052 Y19.4260 
G01 X4.3751 Y19.4447 
G01 X4.4379 Y19.4809 
G01 X4.4891 Y19.5321 
G01 X4.5253 Y19.5949 
G01 X4.5440 Y19.6648 
G00 Z2.0000 
G00 X4.5440 Y17.6919 
G01 Z-0.3000 F100.00 
G01 X4.5440 Y17.8681 F250.00 
G01 X4.5096 Y18.0408 
G01 X4.4423 Y18.2035 
G01 X4.3444 Y18.3499 
G01 X4.2199 Y18.4744 
G01 X4.0735 Y18.5723 
G01 X3.9108 Y18.6396 
G01 X3.7381 Y18.6740 
G01 X3.5619 Y18.6740 
G01 X3.3892 Y18.6396 
G01 X3.2265 Y18.5723 
G01 X3.0801 Y18.4744 
G01 X2.9556 Y18.3499 
G01 X2.8577 Y18.2035 
G01 X2.7904 Y18.0408 
G01 X2.7560 Y17.8681 
G01 X2.7560 Y17.6919 
G01 X2.7904 Y17.5192 
G01 X2.8577 Y17.3565 
G01 X2.9556 Y17.2101 
G01 X3.0801 Y17.0856 
G01 X3.2265 Y16.9877 
G01 X3.3892 Y16.9204 
G01 X3.5619 Y16.8860 
G01 X3.7381 Y16.8860 
G01 X3.9108 Y16.9204 
G01 X4.0735 Y16.9877 
G01 X4.2199 Y17.0856 
G01 X4.3444 Y17.2101 
G01 X4.4423 Y17.3565 
G01 X4.5096 Y17.5192 
G01 X4.5440 Y17.6919 
G00 Z2.0000 
G00 X4.5440 Y15.1519 
G01 Z-0.3000 F100.00 
G01 X4.5440 Y15.3281 F250.00 
G01 X4.5096 Y15.5008 
G01 X4.4423 Y15.6635 
G01 X4.3444 Y15.8099 
G01 X4.2199 Y15.9344 
G01 X4.0735 Y16.0323 
G01 X3.9108 Y16.0996 
G01 X3.7381 Y16.1340 
G01 X3.5619 Y16.1340 
G01 X3.3892 Y16.0996 
G01 X3.2265 Y16.0323 
G01 X3.0801 Y15.9344 
G01 X2.9556 Y15.8099 
G01 X2.8577 Y15.6635 
G01 X2.7904 Y15.5008 
G01 X2.7560 Y15.3281 
G01 X2.7560 Y15.1519 
G01 X2.7904 Y14.9792 
G01 X2.8577 Y14.8165 
G01 X2.9556 Y14.6701 
G01 X3.0801 Y14.5456 
G01 X3.2265 Y14.4477 
G01 X3.3892 Y14.3804 
G01 X3.5619 Y14.3460 
G01 X3.7381 Y14.3460 
G01 X3.9108 Y14.3804 
G01 X4.0735 Y14.4477 
G01 X4.2199 Y14.5456 
G01 X4.3444 Y14.6701 
G01 X4.4423 Y14.8165 
G01 X4.5096 Y14.9792 
G01 X4.5440 Y15.1519 
G00 Z2.0000 
G00 X12.4840 Y12.6119 
G01 Z-0.3000 F100.00 
G01 X12.4840 Y12.7881 F250.00 
G01 X12.4496 Y12.9608 
G01 X12.3823 Y13.1235 
G01 X12.2844 Y13.2699 
G01 X12.1599 Y13.3944 
G01 X12.0135 Y13.4923 
G01 X11.8508 Y13.5596 
G01 X11.6781 Y13.5940 
G01 X11.5019 Y13.5940 
G01 X11.3292 Y13.5596 
G01 X11.1665 Y13.4923 
G01 X11.0201 Y13.3944 
G01 X10.8956 Y13.2699 
G01 X10.7977 Y13.1235 
G01 X10.7304 Y12.9608 
G01 X10.6960 Y12.7881 
G01 X10.6960 Y12.6119 
G01 X10.7304 Y12.4392 
G01 X10.7977 Y12.2765 
G01 X10.8956 Y12.1301 
G01 X11.0201 Y12.0056 
G01 X11.1665 Y11.9077 
G01 X11.3292 Y11.8404 
G01 X11.5019 Y11.8060 
G01 X11.6781 Y11.8060 
G01 X11.8508 Y11.8404 
G01 X12.0135 Y11.9077 
G01 X12.1599 Y12.0056 
G01 X12.2844 Y12.1301 
G01 X12.3823 Y12.2765 
G01 X12.4496 Y12.4392 
G01 X12.4840 Y12.6119 
G00 Z2.0000 
G00 X12.4840 Y15.1519 
G01 Z-0.3000 F100.00 
G01 X12.4840 Y15.3281 F250.00 
G01 X12.4496 Y15.5008 
G01 X12.3823 Y15.6635 
G01 X12.2844 Y15.8099 
G01 X12.1599 Y15.9344 
G01 X12.0135 Y16.0323 
G01 X11.8508 Y16.0996 
G01 X11.6781 Y16.1340 
G01 X11.5019 Y16.1340 
G01 X11.3292 Y16.0996 
G01 X11.1665 Y16.0323 
G01 X11.0201 Y15.9344 
G01 X10.8956 Y15.8099 
G01 X10.7977 Y15.6635 
G01 X10.7304 Y15.5008 
G01 X10.6960 Y15.3281 
G01 X10.6960 Y15.1519 
G01 X10.7304 Y14.9792 
G01 X10.7977 Y14.8165 
G01 X10.8956 Y14.6701 
G01 X11.0201 Y14.5456 
G01 X11.1665 Y14.4477 
G01 X11.3292 Y14.3804 
G01 X11.5019 Y14.3460 
G01 X11.6781 Y14.3460 
G01 X11.8508 Y14.3804 
G01 X12.0135 Y14.4477 
G01 X12.1599 Y14.5456 
G01 X12.2844 Y14.6701 
G01 X12.3823 Y14.8165 
G01 X12.4496 Y14.9792 
G01 X12.4840 Y15.1519 
G00 Z2.0000 
G00 X4.7454 Y8.5025 
G01 Z-0.3000 F100.00 
G01 X4.7454 Y9.2775 F250.00 
G01 X4.1975 Y9.8254 
G01 X3.4225 Y9.8254 
G01 X2.8746 Y9.2775 
G01 X2.8746 Y8.5025 
G01 X3.4225 Y7.9546 
G01 X4.1975 Y7.9546 
G01 X4.7454 Y8.5025 
G00 Z2.0000 
G00 X12.3654 Y26.2825 
G01 Z-0.3000 F100.00 
G01 X12.3654 Y27.0575 F250.00 
G01 X11.8175 Y27.6054 
G01 X11.0425 Y27.6054 
G01 X10.4946 Y27.0575 
G01 X10.4946 Y26.2825 
G01 X11.0425 Y25.7346 
G01 X11.8175 Y25.7346 
G01 X12.3654 Y26.2825 
G00 Z2.0000 
G00 X4.7454 Y26.2825 
G01 Z-0.3000 F100.00 
G01 X4.7454 Y27.0575 F250.00 
G01 X4.1975 Y27.6054 
G01 X3.4225 Y27.6054 
G01 X2.8746 Y27.0575 
G01 X2.8746 Y26.2825 
G01 X3.4225 Y25.7346 
G01 X4.1975 Y25.7346 
G01 X4.7454 Y26.2825 
G00 Z2.0000 
G00 X12.3654 Y28.8225 
G01 Z-0.3000 F100.00 
G01 X12.3654 Y29.5975 F250.00 
G01 X11.8175 Y30.1454 
G01 X11.5530 Y30.1454 
G01 X11.4796 Y30.1600 
G01 X10.3429 Y30.1600 
G01 X8.5198 Y31.9830 
G01 X9.3195 Y31.9830 
G01 X9.9270 Y32.5905 
G01 X9.9270 Y33.4495 
G01 X9.3195 Y34.0570 
G01 X8.4605 Y34.0570 
G01 X7.8530 Y33.4495 
G01 X7.8530 Y32.6498 
G01 X7.3870 Y33.1159 
G01 X7.3870 Y33.4495 
G01 X6.7795 Y34.0570 
G01 X5.9205 Y34.0570 
G01 X5.3130 Y33.4495 
G01 X5.3130 Y32.5905 
G01 X5.9205 Y31.9830 
G01 X5.9460 Y31.9830 
G01 X9.2591 Y28.6699 
G01 X9.3858 Y28.5432 
G01 X9.5349 Y28.4436 
G01 X9.7005 Y28.3750 
G01 X9.8763 Y28.3400 
G01 X10.9771 Y28.3400 
G01 X11.0425 Y28.2746 
G01 X11.8175 Y28.2746 
G01 X12.3654 Y28.8225 
G00 Z2.0000 
G00 X4.7454 Y28.8225 
G01 Z-0.3000 F100.00 
G01 X4.7454 Y29.5975 F250.00 
G01 X4.1975 Y30.1454 
G01 X3.4225 Y30.1454 
G01 X2.8746 Y29.5975 
G01 X2.8746 Y28.8225 
G01 X3.4225 Y28.2746 
G01 X4.1975 Y28.2746 
G01 X4.7454 Y28.8225 
G00 Z2.0000 
G00 X4.7454 Y5.9625 
G01 Z-0.3000 F100.00 
G01 X4.7454 Y6.7375 F250.00 
G01 X4.1975 Y7.2854 
G01 X3.4225 Y7.2854 
G01 X2.8746 Y6.7375 
G01 X2.8746 Y5.9625 
G01 X3.4225 Y5.4146 
G01 X4.1975 Y5.4146 
G01 X4.7454 Y5.9625 
G00 Z2.0000 
G00 X4.7454 Y23.7425 
G01 Z-0.3000 F100.00 
G01 X4.7454 Y24.5175 F250.00 
G01 X4.1975 Y25.0654 
G01 X3.4225 Y25.0654 
G01 X2.8746 Y24.5175 
G01 X2.8746 Y23.7425 
G01 X3.4225 Y23.1946 
G01 X4.1975 Y23.1946 
G01 X4.7454 Y23.7425 
G00 Z2.0000 
G00 X50.4654 Y33.9025 
G01 Z-0.3000 F100.00 
G01 X50.4654 Y34.6775 F250.00 
G01 X49.9175 Y35.2254 
G01 X49.1425 Y35.2254 
G01 X48.5946 Y34.6775 
G01 X48.5946 Y33.9025 
G01 X49.1425 Y33.3546 
G01 X49.9175 Y33.3546 
G01 X50.4654 Y33.9025 
G00 Z2.0000 
G00 X50.4654 Y26.2825 
G01 Z-0.3000 F100.00 
G01 X50.4654 Y27.0575 F250.00 
G01 X49.9175 Y27.6054 
G01 X49.1425 Y27.6054 
G01 X48.5946 Y27.0575 
G01 X48.5946 Y26.2825 
G01 X49.1425 Y25.7346 
G01 X49.9175 Y25.7346 
G01 X50.4654 Y26.2825 
G00 Z2.0000 
G00 X50.4654 Y16.1225 
G01 Z-0.3000 F100.00 
G01 X50.4654 Y16.8975 F250.00 
G01 X49.9175 Y17.4454 
G01 X49.1425 Y17.4454 
G01 X48.5946 Y16.8975 
G01 X48.5946 Y16.1225 
G01 X49.1425 Y15.5746 
G01 X49.9175 Y15.5746 
G01 X50.4654 Y16.1225 
G00 Z2.0000 
G00 X50.4654 Y23.7425 
G01 Z-0.3000 F100.00 
G01 X50.4654 Y24.5175 F250.00 
G01 X49.9175 Y25.0654 
G01 X49.1425 Y25.0654 
G01 X48.5946 Y24.5175 
G01 X48.5946 Y23.7425 
G01 X49.1425 Y23.1946 
G01 X49.9175 Y23.1946 
G01 X50.4654 Y23.7425 
G00 Z2.0000 
G00 X50.4654 Y5.9625 
G01 Z-0.3000 F100.00 
G01 X50.4654 Y6.7375 F250.00 
G01 X49.9175 Y7.2854 
G01 X49.1425 Y7.2854 
G01 X49.1171 Y7.2600 
G01 X45.7102 Y7.2600 
G01 X45.6101 Y7.3110 
G01 X45.4548 Y7.3615 
G01 X45.2936 Y7.3870 
G01 X43.6064 Y7.3870 
G01 X43.4452 Y7.3615 
G01 X43.2899 Y7.3110 
G01 X43.1445 Y7.2369 
G01 X43.0124 Y7.1410 
G01 X42.8970 Y7.0256 
G01 X42.8011 Y6.8935 
G01 X42.7270 Y6.7481 
G01 X42.6765 Y6.5928 
G01 X42.6510 Y6.4316 
G01 X42.6510 Y6.2684 
G01 X42.6765 Y6.1072 
G01 X42.7270 Y5.9519 
G01 X42.8011 Y5.8065 
G01 X42.8970 Y5.6744 
G01 X43.0124 Y5.5590 
G01 X43.1445 Y5.4631 
G01 X43.2899 Y5.3890 
G01 X43.4452 Y5.3385 
G01 X43.6064 Y5.3130 
G01 X45.2936 Y5.3130 
G01 X45.4548 Y5.3385 
G01 X45.6101 Y5.3890 
G01 X45.7102 Y5.4400 
G01 X49.1171 Y5.4400 
G01 X49.1425 Y5.4146 
G01 X49.9175 Y5.4146 
G01 X50.4654 Y5.9625 
G00 Z2.0000 
G00 X50.4654 Y13.5825 
G01 Z-0.3000 F100.00 
G01 X50.4654 Y14.3575 F250.00 
G01 X49.9175 Y14.9054 
G01 X49.1425 Y14.9054 
G01 X48.5946 Y14.3575 
G01 X48.5946 Y13.5825 
G01 X49.1425 Y13.0346 
G01 X49.9175 Y13.0346 
G01 X50.4654 Y13.5825 
G00 Z2.0000 
G00 X54.0740 Y22.2048 
G01 Z-0.3000 F100.00 
G01 X54.0740 Y23.5152 F250.00 
G01 X54.0553 Y23.5851 
G01 X54.0191 Y23.6479 
G01 X53.9679 Y23.6991 
G01 X53.9051 Y23.7353 
G01 X53.8352 Y23.7540 
G01 X52.5248 Y23.7540 
G01 X52.4549 Y23.7353 
G01 X52.3921 Y23.6991 
G01 X52.3409 Y23.6479 
G01 X52.3047 Y23.5851 
G01 X52.2860 Y23.5152 
G01 X52.2860 Y22.2048 
G01 X52.3047 Y22.1349 
G01 X52.3409 Y22.0721 
G01 X52.3921 Y22.0209 
G01 X52.4549 Y21.9847 
G01 X52.5248 Y21.9660 
G01 X53.8352 Y21.9660 
G01 X53.9051 Y21.9847 
G01 X53.9679 Y22.0209 
G01 X54.0191 Y22.0721 
G01 X54.0553 Y22.1349 
G01 X54.0740 Y22.2048 
G00 Z2.0000 
G00 X54.0740 Y20.2319 
G01 Z-0.3000 F100.00 
G01 X54.0740 Y20.4080 F250.00 
G01 X54.0396 Y20.5808 
G01 X53.9723 Y20.7435 
G01 X53.8744 Y20.8899 
G01 X53.7499 Y21.0144 
G01 X53.6035 Y21.1122 
G01 X53.4408 Y21.1796 
G01 X53.2681 Y21.2140 
G01 X53.0919 Y21.2140 
G01 X52.9192 Y21.1796 
G01 X52.7565 Y21.1122 
G01 X52.6101 Y21.0144 
G01 X52.4856 Y20.8899 
G01 X52.3877 Y20.7435 
G01 X52.3204 Y20.5808 
G01 X52.2860 Y20.4080 
G01 X52.2860 Y20.2319 
G01 X52.3204 Y20.0592 
G01 X52.3877 Y19.8965 
G01 X52.4856 Y19.7501 
G01 X52.6101 Y19.6256 
G01 X52.7565 Y19.5277 
G01 X52.9192 Y19.4604 
G01 X53.0919 Y19.4260 
G01 X53.2681 Y19.4260 
G01 X53.4408 Y19.4604 
G01 X53.6035 Y19.5277 
G01 X53.7499 Y19.6256 
G01 X53.8744 Y19.7501 
G01 X53.9723 Y19.8965 
G01 X54.0396 Y20.0592 
G01 X54.0740 Y20.2319 
G00 Z2.0000 
G00 X62.0140 Y15.1519 
G01 Z-0.3000 F100.00 
G01 X62.0140 Y15.3281 F250.00 
G01 X61.9796 Y15.5008 
G01 X61.9123 Y15.6635 
G01 X61.8144 Y15.8099 
G01 X61.6899 Y15.9344 
G01 X61.5435 Y16.0323 
G01 X61.3808 Y16.0996 
G01 X61.2081 Y16.1340 
G01 X61.0319 Y16.1340 
G01 X60.8592 Y16.0996 
G01 X60.6965 Y16.0323 
G01 X60.5501 Y15.9344 
G01 X60.4256 Y15.8099 
G01 X60.3277 Y15.6635 
G01 X60.2604 Y15.5008 
G01 X60.2260 Y15.3281 
G01 X60.2260 Y15.1519 
G01 X60.2604 Y14.9792 
G01 X60.3277 Y14.8165 
G01 X60.4256 Y14.6701 
G01 X60.5501 Y14.5456 
G01 X60.6965 Y14.4477 
G01 X60.8592 Y14.3804 
G01 X61.0319 Y14.3460 
G01 X61.2081 Y14.3460 
G01 X61.3808 Y14.3804 
G01 X61.5435 Y14.4477 
G01 X61.6899 Y14.5456 
G01 X61.8144 Y14.6701 
G01 X61.9123 Y14.8165 
G01 X61.9796 Y14.9792 
G01 X62.0140 Y15.1519 
G00 Z2.0000 
G00 X62.0140 Y17.6919 
G01 Z-0.3000 F100.00 
G01 X62.0140 Y17.8681 F250.00 
G01 X61.9796 Y18.0408 
G01 X61.9123 Y18.2035 
G01 X61.8144 Y18.3499 
G01 X61.6899 Y18.4744 
G01 X61.5435 Y18.5723 
G01 X61.3808 Y18.6396 
G01 X61.2081 Y18.6740 
G01 X61.0319 Y18.6740 
G01 X60.8592 Y18.6396 
G01 X60.6965 Y18.5723 
G01 X60.5501 Y18.4744 
G01 X60.4256 Y18.3499 
G01 X60.3277 Y18.2035 
G01 X60.2604 Y18.0408 
G01 X60.2260 Y17.8681 
G01 X60.2260 Y17.6919 
G01 X60.2604 Y17.5192 
G01 X60.3277 Y17.3565 
G01 X60.4256 Y17.2101 
G01 X60.5501 Y17.0856 
G01 X60.6965 Y16.9877 
G01 X60.8592 Y16.9204 
G01 X61.0319 Y16.8860 
G01 X61.2081 Y16.8860 
G01 X61.3808 Y16.9204 
G01 X61.5435 Y16.9877 
G01 X61.6899 Y17.0856 
G01 X61.8144 Y17.2101 
G01 X61.9123 Y17.3565 
G01 X61.9796 Y17.5192 
G01 X62.0140 Y17.6919 
G00 Z2.0000 
G00 X54.2754 Y26.2825 
G01 Z-0.3000 F100.00 
G01 X54.2754 Y27.0575 F250.00 
G01 X53.7275 Y27.6054 
G01 X52.9525 Y27.6054 
G01 X52.4046 Y27.0575 
G01 X52.4046 Y26.2825 
G01 X52.9525 Y25.7346 
G01 X53.7275 Y25.7346 
G01 X54.2754 Y26.2825 
G00 Z2.0000 
G00 X61.8954 Y26.2825 
G01 Z-0.3000 F100.00 
G01 X61.8954 Y27.0575 F250.00 
G01 X61.3475 Y27.6054 
G01 X60.5725 Y27.6054 
G01 X60.0246 Y27.0575 
G01 X60.0246 Y26.2825 
G01 X60.5725 Y25.7346 
G01 X61.3475 Y25.7346 
G01 X61.8954 Y26.2825 
G00 Z2.0000 
G00 X61.8954 Y9.7725 
G01 Z-0.3000 F100.00 
G01 X61.8954 Y10.5475 F250.00 
G01 X61.3475 Y11.0954 
G01 X61.3115 Y11.0954 
G01 X53.9201 Y18.4868 
G01 X53.7710 Y18.5864 
G01 X53.6054 Y18.6550 
G01 X53.4296 Y18.6900 
G01 X53.0904 Y18.6900 
G01 X52.9146 Y18.6550 
G01 X52.7490 Y18.5864 
G01 X52.5999 Y18.4868 
G01 X52.4732 Y18.3601 
G01 X52.3736 Y18.2110 
G01 X52.3050 Y18.0454 
G01 X52.2850 Y17.9450 
G01 X52.2850 Y18.2107 
G01 X52.2500 Y18.3865 
G01 X52.1814 Y18.5521 
G01 X52.0818 Y18.7012 
G01 X51.9551 Y18.8279 
G01 X43.9512 Y26.8318 
G01 X43.8021 Y26.9314 
G01 X43.6365 Y27.0000 
G01 X43.4607 Y27.0350 
G01 X36.7519 Y27.0350 
G01 X35.1401 Y28.6468 
G01 X34.9910 Y28.7464 
G01 X34.8254 Y28.8150 
G01 X34.6496 Y28.8500 
G01 X32.7704 Y28.8500 
G01 X32.5946 Y28.8150 
G01 X32.4290 Y28.7464 
G01 X32.2799 Y28.6468 
G01 X32.1532 Y28.5201 
G01 X32.0536 Y28.3710 
G01 X31.9850 Y28.2054 
G01 X31.9500 Y28.0296 
G01 X31.9500 Y27.8504 
G01 X31.9850 Y27.6746 
G01 X32.0536 Y27.5090 
G01 X32.1532 Y27.3599 
G01 X32.2799 Y27.2332 
G01 X32.4290 Y27.1336 
G01 X32.5946 Y27.0650 
G01 X32.7453 Y27.0350 
G01 X27.6818 Y27.0350 
G01 X27.6663 Y27.0827 
G01 X27.5895 Y27.2335 
G01 X27.4900 Y27.3704 
G01 X27.3704 Y27.4900 
G01 X27.2335 Y27.5895 
G01 X27.0827 Y27.6663 
G01 X26.9218 Y27.7186 
G01 X26.7546 Y27.7451 
G01 X26.5854 Y27.7451 
G01 X26.4182 Y27.7186 
G01 X26.2573 Y27.6663 
G01 X26.1065 Y27.5895 
G01 X25.9696 Y27.4900 
G01 X25.8500 Y27.3704 
G01 X25.7505 Y27.2335 
G01 X25.6737 Y27.0827 
G01 X25.6214 Y26.9218 
G01 X25.5949 Y26.7546 
G01 X25.5949 Y26.5854 
G01 X25.6214 Y26.4182 
G01 X25.6737 Y26.2573 
G01 X25.7505 Y26.1065 
G01 X25.8500 Y25.9696 
G01 X25.9696 Y25.8500 
G01 X26.1065 Y25.7505 
G01 X26.2573 Y25.6737 
G01 X26.4182 Y25.6214 
G01 X26.4758 Y25.6123 
G01 X26.5432 Y25.5449 
G01 X26.6699 Y25.4182 
G01 X26.8190 Y25.3186 
G01 X26.9846 Y25.2500 
G01 X27.1604 Y25.2150 
G01 X33.3481 Y25.2150 
G01 X33.5478 Y25.0153 
G01 X33.5152 Y25.0240 
G01 X32.2048 Y25.0240 
G01 X32.1349 Y25.0053 
G01 X32.0721 Y24.9691 
G01 X32.0209 Y24.9179 
G01 X31.9847 Y24.8551 
G01 X31.9660 Y24.7852 
G01 X31.9660 Y23.4748 
G01 X31.9847 Y23.4049 
G01 X32.0209 Y23.3421 
G01 X32.0721 Y23.2909 
G01 X32.1349 Y23.2547 
G01 X32.2048 Y23.2360 
G01 X33.5152 Y23.2360 
G01 X33.5851 Y23.2547 
G01 X33.6479 Y23.2909 
G01 X33.6991 Y23.3421 
G01 X33.7353 Y23.4049 
G01 X33.7540 Y23.4748 
G01 X33.7540 Y24.7852 
G01 X33.7453 Y24.8178 
G01 X40.2199 Y18.3432 
G01 X40.3690 Y18.2436 
G01 X40.5346 Y18.1750 
G01 X40.7104 Y18.1400 
G01 X40.8896 Y18.1400 
G01 X41.0654 Y18.1750 
G01 X41.2310 Y18.2436 
G01 X41.3801 Y18.3432 
G01 X41.5068 Y18.4699 
G01 X43.5922 Y20.5553 
G01 X43.6064 Y20.5530 
G01 X45.2936 Y20.5530 
G01 X45.4548 Y20.5785 
G01 X45.6101 Y20.6290 
G01 X45.7555 Y20.7031 
G01 X45.8876 Y20.7990 
G01 X46.0030 Y20.9144 
G01 X46.0989 Y21.0465 
G01 X46.1730 Y21.1919 
G01 X46.2235 Y21.3472 
G01 X46.2490 Y21.5084 
G01 X46.2490 Y21.6716 
G01 X46.2235 Y21.8328 
G01 X46.1730 Y21.9881 
G01 X46.1231 Y22.0861 
G01 X50.4650 Y17.7441 
G01 X50.4650 Y16.9554 
G01 X50.5000 Y16.7796 
G01 X50.5686 Y16.6140 
G01 X50.6682 Y16.4649 
G01 X50.7949 Y16.3382 
G01 X52.5999 Y14.5332 
G01 X52.7490 Y14.4336 
G01 X52.9146 Y14.3650 
G01 X53.0904 Y14.3300 
G01 X53.2696 Y14.3300 
G01 X53.4454 Y14.3650 
G01 X53.6110 Y14.4336 
G01 X53.7601 Y14.5332 
G01 X53.8868 Y14.6599 
G01 X53.9864 Y14.8090 
G01 X54.0550 Y14.9746 
G01 X54.0900 Y15.1504 
G01 X54.0900 Y15.3296 
G01 X54.0550 Y15.5054 
G01 X53.9864 Y15.6710 
G01 X53.8868 Y15.8201 
G01 X52.7020 Y17.0050 
G01 X52.7490 Y16.9736 
G01 X52.9146 Y16.9050 
G01 X52.9315 Y16.9016 
G01 X60.0246 Y9.8085 
G01 X60.0246 Y9.7725 
G01 X60.5725 Y9.2246 
G01 X61.3475 Y9.2246 
G01 X61.8954 Y9.7725 
G00 Z2.0000 
G00 X56.9170 Y5.9205 
G01 Z-0.3000 F100.00 
G01 X56.9170 Y6.7795 F250.00 
G01 X56.3095 Y7.3870 
G01 X55.4505 Y7.3870 
G01 X54.8430 Y6.7795 
G01 X54.8430 Y5.9205 
G01 X55.4505 Y5.3130 
G01 X56.3095 Y5.3130 
G01 X56.9170 Y5.9205 
G00 Z2.0000 
G00 X54.3770 Y35.1305 
G01 Z-0.3000 F100.00 
G01 X54.3770 Y35.9895 F250.00 
G01 X53.7695 Y36.5970 
G01 X52.9105 Y36.5970 
G01 X52.3030 Y35.9895 
G01 X52.3030 Y35.1305 
G01 X52.9105 Y34.5230 
G01 X53.7695 Y34.5230 
G01 X54.3770 Y35.1305 
G00 Z2.0000 
G00 X56.9170 Y32.5905 
G01 Z-0.3000 F100.00 
G01 X56.9170 Y33.4495 F250.00 
G01 X56.3095 Y34.0570 
G01 X55.4505 Y34.0570 
G01 X54.8430 Y33.4495 
G01 X54.8430 Y32.5905 
G01 X55.4505 Y31.9830 
G01 X56.3095 Y31.9830 
G01 X56.9170 Y32.5905 
G00 Z2.0000 
G00 X45.2936 Y31.5170 
G01 Z-0.3000 F100.00 
G01 X43.6064 Y31.5170 F250.00 
G01 X43.4452 Y31.4915 
G01 X43.2899 Y31.4410 
G01 X43.1445 Y31.3669 
G01 X43.0124 Y31.2710 
G01 X42.8970 Y31.1556 
G01 X42.8011 Y31.0235 
G01 X42.7270 Y30.8781 
G01 X42.6765 Y30.7228 
G01 X42.6510 Y30.5616 
G01 X42.6510 Y30.3984 
G01 X42.6765 Y30.2372 
G01 X42.7270 Y30.0819 
G01 X42.8011 Y29.9365 
G01 X42.8970 Y29.8044 
G01 X43.0124 Y29.6890 
G01 X43.1445 Y29.5931 
G01 X43.2899 Y29.5190 
G01 X43.4452 Y29.4685 
G01 X43.6064 Y29.4430 
G01 X45.2936 Y29.4430 
G01 X45.4548 Y29.4685 
G01 X45.6101 Y29.5190 
G01 X45.7555 Y29.5931 
G01 X45.8876 Y29.6890 
G01 X46.0030 Y29.8044 
G01 X46.0989 Y29.9365 
G01 X46.1730 Y30.0819 
G01 X46.2235 Y30.2372 
G01 X46.2490 Y30.3984 
G01 X46.2490 Y30.5616 
G01 X46.2235 Y30.7228 
G01 X46.1730 Y30.8781 
G01 X46.0989 Y31.0235 
G01 X46.0030 Y31.1556 
G01 X45.8876 Y31.2710 
G01 X45.7555 Y31.3669 
G01 X45.6101 Y31.4410 
G01 X45.4548 Y31.4915 
G01 X45.2936 Y31.5170 
G00 Z2.0000 
G00 X45.2936 Y20.0870 
G01 Z-0.3000 F100.00 
G01 X43.6064 Y20.0870 F250.00 
G01 X43.4452 Y20.0615 
G01 X43.2899 Y20.0110 
G01 X43.1445 Y19.9369 
G01 X43.0124 Y19.8410 
G01 X42.8970 Y19.7256 
G01 X42.8011 Y19.5935 
G01 X42.7270 Y19.4481 
G01 X42.6765 Y19.2928 
G01 X42.6510 Y19.1316 
G01 X42.6510 Y18.9684 
G01 X42.6765 Y18.8072 
G01 X42.7270 Y18.6519 
G01 X42.8011 Y18.5065 
G01 X42.8970 Y18.3744 
G01 X43.0124 Y18.2590 
G01 X43.1445 Y18.1631 
G01 X43.2899 Y18.0890 
G01 X43.4452 Y18.0385 
G01 X43.6064 Y18.0130 
G01 X45.2936 Y18.0130 
G01 X45.4548 Y18.0385 
G01 X45.6101 Y18.0890 
G01 X45.7555 Y18.1631 
G01 X45.8876 Y18.2590 
G01 X46.0030 Y18.3744 
G01 X46.0989 Y18.5065 
G01 X46.1730 Y18.6519 
G01 X46.2235 Y18.8072 
G01 X46.2490 Y18.9684 
G01 X46.2490 Y19.1316 
G01 X46.2235 Y19.2928 
G01 X46.1730 Y19.4481 
G01 X46.0989 Y19.5935 
G01 X46.0030 Y19.7256 
G01 X45.8876 Y19.8410 
G01 X45.7555 Y19.9369 
G01 X45.6101 Y20.0110 
G01 X45.4548 Y20.0615 
G01 X45.2936 Y20.0870 
G00 Z2.0000 
G00 X45.2936 Y9.9270 
G01 Z-0.3000 F100.00 
G01 X43.6064 Y9.9270 F250.00 
G01 X43.4452 Y9.9015 
G01 X43.2899 Y9.8510 
G01 X43.1603 Y9.7850 
G01 X41.9654 Y9.7850 
G01 X41.7896 Y9.7500 
G01 X41.6240 Y9.6814 
G01 X41.5002 Y9.5987 
G01 X41.5922 Y9.7365 
G01 X41.6596 Y9.8992 
G01 X41.6940 Y10.0719 
G01 X41.6940 Y10.2481 
G01 X41.6596 Y10.4208 
G01 X41.5922 Y10.5835 
G01 X41.4944 Y10.7299 
G01 X41.3699 Y10.8544 
G01 X41.2235 Y10.9523 
G01 X41.0608 Y11.0196 
G01 X40.8880 Y11.0540 
G01 X40.7119 Y11.0540 
G01 X40.5392 Y11.0196 
G01 X40.3765 Y10.9523 
G01 X40.2301 Y10.8544 
G01 X40.1056 Y10.7299 
G01 X40.0077 Y10.5835 
G01 X39.9404 Y10.4208 
G01 X39.9060 Y10.2481 
G01 X39.9060 Y10.0719 
G01 X39.9404 Y9.8992 
G01 X40.0077 Y9.7365 
G01 X40.1056 Y9.5901 
G01 X40.2301 Y9.4656 
G01 X40.3765 Y9.3677 
G01 X40.5392 Y9.3004 
G01 X40.7119 Y9.2660 
G01 X40.8880 Y9.2660 
G01 X41.0608 Y9.3004 
G01 X41.2235 Y9.3677 
G01 X41.3360 Y9.4430 
G01 X40.0932 Y8.2001 
G01 X39.9936 Y8.0510 
G01 X39.9250 Y7.8854 
G01 X39.8900 Y7.7096 
G01 X39.8900 Y7.5304 
G01 X39.9250 Y7.3546 
G01 X39.9936 Y7.1890 
G01 X40.0932 Y7.0399 
G01 X40.2199 Y6.9132 
G01 X40.3690 Y6.8136 
G01 X40.5346 Y6.7450 
G01 X40.7104 Y6.7100 
G01 X40.8896 Y6.7100 
G01 X41.0654 Y6.7450 
G01 X41.2310 Y6.8136 
G01 X41.3801 Y6.9132 
G01 X42.4319 Y7.9650 
G01 X43.2192 Y7.9650 
G01 X43.2899 Y7.9290 
G01 X43.4452 Y7.8785 
G01 X43.6064 Y7.8530 
G01 X45.2936 Y7.8530 
G01 X45.4548 Y7.8785 
G01 X45.6101 Y7.9290 
G01 X45.7555 Y8.0031 
G01 X45.8876 Y8.0990 
G01 X46.0030 Y8.2144 
G01 X46.0989 Y8.3465 
G01 X46.1730 Y8.4919 
G01 X46.2235 Y8.6472 
G01 X46.2490 Y8.8084 
G01 X46.2490 Y8.9716 
G01 X46.2235 Y9.1328 
G01 X46.1730 Y9.2881 
G01 X46.0989 Y9.4335 
G01 X46.0030 Y9.5656 
G01 X45.8876 Y9.6810 
G01 X45.7555 Y9.7769 
G01 X45.6101 Y9.8510 
G01 X45.4548 Y9.9015 
G01 X45.2936 Y9.9270 
G00 Z2.0000 
G00 X22.5254 Y30.8675 
G01 Z-0.3000 F100.00 
G01 X21.9775 Y31.4154 F250.00 
G01 X21.2025 Y31.4154 
G01 X20.6546 Y30.8675 
G01 X20.6546 Y30.0925 
G01 X21.2025 Y29.5446 
G01 X21.2681 Y29.5446 
G01 X23.1320 Y27.6807 
G01 X23.1320 Y26.2943 
G01 X20.8832 Y24.0455 
G01 X20.7836 Y23.8964 
G01 X20.7150 Y23.7308 
G01 X20.6800 Y23.5550 
G01 X20.6800 Y18.0629 
G01 X20.6775 Y18.0568 
G01 X20.6410 Y17.8735 
G01 X20.6410 Y17.6865 
G01 X20.6775 Y17.5032 
G01 X20.7490 Y17.3305 
G01 X20.8529 Y17.1750 
G01 X20.9850 Y17.0429 
G01 X21.1405 Y16.9390 
G01 X21.3132 Y16.8675 
G01 X21.4965 Y16.8310 
G01 X21.6835 Y16.8310 
G01 X21.8668 Y16.8675 
G01 X21.8729 Y16.8700 
G01 X26.0934 Y16.8700 
G01 X26.1065 Y16.8605 
G01 X26.2573 Y16.7837 
G01 X26.4182 Y16.7314 
G01 X26.5854 Y16.7049 
G01 X26.7546 Y16.7049 
G01 X26.9218 Y16.7314 
G01 X27.0827 Y16.7837 
G01 X27.2335 Y16.8605 
G01 X27.3704 Y16.9600 
G01 X27.3754 Y16.9650 
G01 X28.3596 Y16.9650 
G01 X28.5354 Y17.0000 
G01 X28.7010 Y17.0686 
G01 X28.8501 Y17.1682 
G01 X28.9768 Y17.2949 
G01 X32.2719 Y20.5900 
G01 X32.8596 Y20.5900 
G01 X33.0354 Y20.6250 
G01 X33.2010 Y20.6936 
G01 X33.3501 Y20.7932 
G01 X33.5668 Y21.0099 
G01 X33.6664 Y21.1590 
G01 X33.7350 Y21.3246 
G01 X33.7700 Y21.5004 
G01 X33.7700 Y21.6796 
G01 X33.7350 Y21.8554 
G01 X33.6664 Y22.0210 
G01 X33.5668 Y22.1701 
G01 X33.4401 Y22.2968 
G01 X33.2910 Y22.3964 
G01 X33.1254 Y22.4650 
G01 X32.9496 Y22.5000 
G01 X32.7704 Y22.5000 
G01 X32.5946 Y22.4650 
G01 X32.4617 Y22.4100 
G01 X31.8054 Y22.4100 
G01 X31.6296 Y22.3750 
G01 X31.4640 Y22.3064 
G01 X31.3149 Y22.2068 
G01 X31.1882 Y22.0801 
G01 X27.8931 Y18.7850 
G01 X27.0560 Y18.7850 
G01 X26.9218 Y18.8286 
G01 X26.7546 Y18.8551 
G01 X26.5854 Y18.8551 
G01 X26.4182 Y18.8286 
G01 X26.2573 Y18.7763 
G01 X26.1065 Y18.6995 
G01 X26.0934 Y18.6900 
G01 X22.5000 Y18.6900 
G01 X22.5000 Y23.0884 
G01 X24.7488 Y25.3373 
G01 X24.8484 Y25.4863 
G01 X24.9170 Y25.6519 
G01 X24.9520 Y25.8277 
G01 X24.9520 Y28.1473 
G01 X24.9170 Y28.3231 
G01 X24.8484 Y28.4887 
G01 X24.7488 Y28.6377 
G01 X22.5254 Y30.8612 
G01 X22.5254 Y30.8675 
G00 Z2.0000 
G00 X30.1454 Y30.0925 
G01 Z-0.3000 F100.00 
G01 X30.1454 Y30.8675 F250.00 
G01 X29.5975 Y31.4154 
G01 X28.8225 Y31.4154 
G01 X28.2746 Y30.8675 
G01 X28.2746 Y30.0925 
G01 X28.8225 Y29.5446 
G01 X29.5975 Y29.5446 
G01 X30.1454 Y30.0925 
G00 Z2.0000 
G00 X2.9432 Y12.1199 
G01 Z-0.3000 F100.00 
G01 X6.7150 Y8.3481 F250.00 
G01 X6.7150 Y5.0005 
G01 X6.7500 Y4.8247 
G01 X6.8186 Y4.6591 
G01 X6.9182 Y4.5100 
G01 X7.0449 Y4.3833 
G01 X10.7761 Y0.6521 
G01 X10.9252 Y0.5525 
G01 X11.0908 Y0.4839 
G01 X11.2666 Y0.4489 
G01 X29.1985 Y0.4489 
G01 X29.3743 Y0.4839 
G01 X29.5399 Y0.5525 
G01 X29.6890 Y0.6521 
G01 X29.8157 Y0.7788 
G01 X33.3497 Y4.3128 
G01 X33.4401 Y4.3732 
G01 X33.5668 Y4.4999 
G01 X33.6664 Y4.6490 
G01 X33.7350 Y4.8146 
G01 X33.7700 Y4.9904 
G01 X33.7700 Y5.1696 
G01 X33.7350 Y5.3454 
G01 X33.6664 Y5.5110 
G01 X33.5668 Y5.6601 
G01 X33.4401 Y5.7868 
G01 X33.2910 Y5.8864 
G01 X33.1254 Y5.9550 
G01 X32.9496 Y5.9900 
G01 X32.7404 Y5.9900 
G01 X32.5646 Y5.9550 
G01 X32.3990 Y5.8864 
G01 X32.2499 Y5.7868 
G01 X28.7320 Y2.2689 
G01 X28.5443 Y2.2689 
G01 X28.6929 Y2.3305 
G01 X28.8420 Y2.4301 
G01 X28.9687 Y2.5568 
G01 X33.1771 Y6.7652 
G01 X33.1934 Y6.7719 
G01 X33.2478 Y6.7900 
G01 X33.2760 Y6.8061 
G01 X33.3060 Y6.8186 
G01 X33.3537 Y6.8504 
G01 X33.4035 Y6.8788 
G01 X33.4281 Y6.9001 
G01 X33.4551 Y6.9182 
G01 X33.4956 Y6.9587 
G01 X33.5389 Y6.9963 
G01 X33.5589 Y7.0219 
G01 X34.4271 Y7.8902 
G01 X34.5560 Y7.9436 
G01 X34.7051 Y8.0432 
G01 X35.3301 Y8.6682 
G01 X35.4568 Y8.7949 
G01 X35.5564 Y8.9440 
G01 X35.6250 Y9.1096 
G01 X35.6600 Y9.2854 
G01 X35.6600 Y13.5900 
G01 X40.6919 Y13.5900 
G01 X40.5392 Y13.5596 
G01 X40.3765 Y13.4923 
G01 X40.2301 Y13.3944 
G01 X40.1056 Y13.2699 
G01 X40.0077 Y13.1235 
G01 X39.9404 Y12.9608 
G01 X39.9060 Y12.7881 
G01 X39.9060 Y12.6119 
G01 X39.9404 Y12.4392 
G01 X40.0077 Y12.2765 
G01 X40.1056 Y12.1301 
G01 X40.2301 Y12.0056 
G01 X40.3765 Y11.9077 
G01 X40.5392 Y11.8404 
G01 X40.7119 Y11.8060 
G01 X40.8880 Y11.8060 
G01 X41.0608 Y11.8404 
G01 X41.2235 Y11.9077 
G01 X41.3699 Y12.0056 
G01 X41.4944 Y12.1301 
G01 X41.5922 Y12.2765 
G01 X41.6596 Y12.4392 
G01 X41.6940 Y12.6119 
G01 X41.6940 Y12.7881 
G01 X41.6596 Y12.9608 
G01 X41.5922 Y13.1235 
G01 X41.4944 Y13.2699 
G01 X41.3699 Y13.3944 
G01 X41.2235 Y13.4923 
G01 X41.0608 Y13.5596 
G01 X40.9081 Y13.5900 
G01 X41.9981 Y13.5900 
G01 X46.0449 Y9.5432 
G01 X46.1940 Y9.4436 
G01 X46.3596 Y9.3750 
G01 X46.5354 Y9.3400 
G01 X52.8371 Y9.3400 
G01 X52.9525 Y9.2246 
G01 X53.7275 Y9.2246 
G01 X54.2754 Y9.7725 
G01 X54.2754 Y10.5475 
G01 X53.7275 Y11.0954 
G01 X53.5870 Y11.0954 
G01 X53.5154 Y11.1250 
G01 X53.3396 Y11.1600 
G01 X47.0019 Y11.1600 
G01 X43.0818 Y15.0801 
G01 X42.9551 Y15.2068 
G01 X42.8060 Y15.3064 
G01 X42.6404 Y15.3750 
G01 X42.4646 Y15.4100 
G01 X35.6600 Y15.4100 
G01 X35.6600 Y17.2146 
G01 X35.6250 Y17.3904 
G01 X35.5564 Y17.5560 
G01 X35.4568 Y17.7051 
G01 X33.6395 Y19.5224 
G01 X33.6219 Y19.5557 
G01 X33.5086 Y19.6946 
G01 X33.3703 Y19.8087 
G01 X33.2125 Y19.8937 
G01 X33.0411 Y19.9463 
G01 X32.8628 Y19.9644 
G01 X32.6844 Y19.9474 
G01 X32.5127 Y19.8959 
G01 X32.3543 Y19.8118 
G01 X32.2154 Y19.6986 
G01 X32.1013 Y19.5603 
G01 X32.0163 Y19.4025 
G01 X31.9637 Y19.2311 
G01 X31.9456 Y19.0528 
G01 X31.9626 Y18.8744 
G01 X31.9909 Y18.7800 
G01 X32.0000 Y18.7346 
G01 X32.0166 Y18.6944 
G01 X32.0291 Y18.6527 
G01 X32.0508 Y18.6117 
G01 X32.0686 Y18.5690 
G01 X32.0927 Y18.5328 
G01 X32.1131 Y18.4943 
G01 X32.1424 Y18.4584 
G01 X32.1682 Y18.4199 
G01 X32.1989 Y18.3891 
G01 X32.2264 Y18.3554 
G01 X32.2621 Y18.3259 
G01 X33.2906 Y17.2975 
G01 X33.2835 Y17.3023 
G01 X33.1208 Y17.3696 
G01 X32.9481 Y17.4040 
G01 X32.7719 Y17.4040 
G01 X32.5992 Y17.3696 
G01 X32.4365 Y17.3023 
G01 X32.2901 Y17.2044 
G01 X32.1656 Y17.0799 
G01 X32.0677 Y16.9335 
G01 X32.0004 Y16.7708 
G01 X31.9660 Y16.5981 
G01 X31.9660 Y16.4219 
G01 X32.0004 Y16.2492 
G01 X32.0677 Y16.0865 
G01 X32.1656 Y15.9401 
G01 X32.2901 Y15.8156 
G01 X32.4365 Y15.7177 
G01 X32.5992 Y15.6504 
G01 X32.7719 Y15.6160 
G01 X32.9481 Y15.6160 
G01 X33.1208 Y15.6504 
G01 X33.2835 Y15.7177 
G01 X33.4299 Y15.8156 
G01 X33.5544 Y15.9401 
G01 X33.6523 Y16.0865 
G01 X33.7196 Y16.2492 
G01 X33.7540 Y16.4219 
G01 X33.7540 Y16.5981 
G01 X33.7196 Y16.7708 
G01 X33.6523 Y16.9335 
G01 X33.6475 Y16.9406 
G01 X33.8400 Y16.7481 
G01 X33.8400 Y9.7519 
G01 X33.6979 Y9.6098 
G01 X33.5690 Y9.5564 
G01 X33.4918 Y9.5049 
G01 X33.5668 Y9.5799 
G01 X33.6664 Y9.7290 
G01 X33.7350 Y9.8946 
G01 X33.7700 Y10.0704 
G01 X33.7700 Y10.2496 
G01 X33.7350 Y10.4254 
G01 X33.6664 Y10.5910 
G01 X33.5668 Y10.7401 
G01 X33.3501 Y10.9568 
G01 X33.2010 Y11.0564 
G01 X33.0354 Y11.1250 
G01 X32.8596 Y11.1600 
G01 X31.0019 Y11.1600 
G01 X27.7068 Y14.4551 
G01 X27.5801 Y14.5818 
G01 X27.5301 Y14.6152 
G01 X27.4900 Y14.6704 
G01 X27.3704 Y14.7900 
G01 X27.2335 Y14.8895 
G01 X27.0827 Y14.9663 
G01 X26.9218 Y15.0186 
G01 X26.7546 Y15.0451 
G01 X26.5854 Y15.0451 
G01 X26.4182 Y15.0186 
G01 X26.2573 Y14.9663 
G01 X26.1065 Y14.8895 
G01 X26.0934 Y14.8800 
G01 X21.5004 Y14.8800 
G01 X21.3246 Y14.8450 
G01 X21.1590 Y14.7764 
G01 X21.0099 Y14.6768 
G01 X18.6066 Y12.2735 
G01 X18.6005 Y12.2710 
G01 X18.4450 Y12.1671 
G01 X18.3129 Y12.0350 
G01 X18.2090 Y11.8795 
G01 X18.2065 Y11.8734 
G01 X16.0666 Y9.7335 
G01 X16.0605 Y9.7310 
G01 X15.9050 Y9.6271 
G01 X15.7729 Y9.4950 
G01 X15.6690 Y9.3395 
G01 X15.5975 Y9.1668 
G01 X15.5610 Y8.9835 
G01 X15.5610 Y8.7965 
G01 X15.5975 Y8.6132 
G01 X15.6690 Y8.4405 
G01 X15.7729 Y8.2850 
G01 X15.9050 Y8.1529 
G01 X16.0605 Y8.0490 
G01 X16.2332 Y7.9775 
G01 X16.4165 Y7.9410 
G01 X16.6035 Y7.9410 
G01 X16.7868 Y7.9775 
G01 X16.9595 Y8.0490 
G01 X17.1150 Y8.1529 
G01 X17.2471 Y8.2850 
G01 X17.3510 Y8.4405 
G01 X17.3535 Y8.4466 
G01 X19.4934 Y10.5865 
G01 X19.4995 Y10.5890 
G01 X19.6549 Y10.6929 
G01 X19.7871 Y10.8250 
G01 X19.8910 Y10.9805 
G01 X19.8935 Y10.9866 
G01 X21.9669 Y13.0600 
G01 X26.0934 Y13.0600 
G01 X26.1065 Y13.0505 
G01 X26.2573 Y12.9737 
G01 X26.4182 Y12.9214 
G01 X26.5854 Y12.8949 
G01 X26.6932 Y12.8949 
G01 X27.0830 Y12.5051 
G01 X26.2247 Y12.5051 
G01 X25.5949 Y11.8753 
G01 X25.5949 Y10.9847 
G01 X25.7600 Y10.8196 
G01 X25.7600 Y8.2304 
G01 X25.5949 Y8.0653 
G01 X25.5949 Y7.1747 
G01 X26.2247 Y6.5449 
G01 X27.1153 Y6.5449 
G01 X27.7451 Y7.1747 
G01 X27.7451 Y8.0653 
G01 X27.5800 Y8.2304 
G01 X27.5800 Y10.8196 
G01 X27.7451 Y10.9847 
G01 X27.7451 Y11.8430 
G01 X29.9182 Y9.6699 
G01 X30.0449 Y9.5432 
G01 X30.1940 Y9.4436 
G01 X30.3596 Y9.3750 
G01 X30.5354 Y9.3400 
G01 X32.4617 Y9.3400 
G01 X32.5946 Y9.2850 
G01 X32.7704 Y9.2500 
G01 X32.9496 Y9.2500 
G01 X33.1254 Y9.2850 
G01 X33.2910 Y9.3536 
G01 X33.3682 Y9.4051 
G01 X33.2932 Y9.3301 
G01 X32.4429 Y8.4798 
G01 X32.3140 Y8.4264 
G01 X32.1649 Y8.3268 
G01 X27.8850 Y4.0469 
G01 X26.9695 Y4.0469 
G01 X27.0827 Y4.0837 
G01 X27.2335 Y4.1605 
G01 X27.3704 Y4.2600 
G01 X27.4900 Y4.3796 
G01 X27.5895 Y4.5165 
G01 X27.6663 Y4.6673 
G01 X27.7186 Y4.8282 
G01 X27.7451 Y4.9954 
G01 X27.7451 Y5.1646 
G01 X27.7186 Y5.3318 
G01 X27.6663 Y5.4927 
G01 X27.5895 Y5.6435 
G01 X27.4900 Y5.7804 
G01 X27.3704 Y5.9000 
G01 X27.2335 Y5.9995 
G01 X27.0827 Y6.0763 
G01 X26.9218 Y6.1286 
G01 X26.7546 Y6.1551 
G01 X26.5854 Y6.1551 
G01 X26.4182 Y6.1286 
G01 X26.2573 Y6.0763 
G01 X26.1065 Y5.9995 
G01 X26.0934 Y5.9900 
G01 X25.7769 Y5.9900 
G01 X24.8368 Y6.9301 
G01 X24.7101 Y7.0568 
G01 X24.5610 Y7.1564 
G01 X24.3954 Y7.2250 
G01 X24.2196 Y7.2600 
G01 X11.8429 Y7.2600 
G01 X11.8175 Y7.2854 
G01 X11.0425 Y7.2854 
G01 X10.5366 Y6.7794 
G01 X10.5366 Y8.4605 
G01 X11.0425 Y7.9546 
G01 X11.8175 Y7.9546 
G01 X12.3654 Y8.5025 
G01 X12.3654 Y9.2775 
G01 X11.8175 Y9.8254 
G01 X11.0425 Y9.8254 
G01 X10.5366 Y9.3194 
G01 X10.5366 Y21.9497 
G01 X11.7815 Y23.1946 
G01 X11.8175 Y23.1946 
G01 X12.3654 Y23.7425 
G01 X12.3654 Y24.5175 
G01 X11.8175 Y25.0654 
G01 X11.0425 Y25.0654 
G01 X10.4946 Y24.5175 
G01 X10.4946 Y24.4815 
G01 X8.9198 Y22.9067 
G01 X8.8202 Y22.7576 
G01 X8.7516 Y22.5920 
G01 X8.7166 Y22.4162 
G01 X8.7166 Y5.5134 
G01 X8.7516 Y5.3376 
G01 X8.8131 Y5.1889 
G01 X8.5350 Y5.4671 
G01 X8.5350 Y8.8146 
G01 X8.5000 Y8.9904 
G01 X8.4314 Y9.1560 
G01 X8.3318 Y9.3051 
G01 X8.2051 Y9.4318 
G01 X4.2301 Y13.4068 
G01 X4.0810 Y13.5064 
G01 X3.9154 Y13.5750 
G01 X3.7396 Y13.6100 
G01 X3.5604 Y13.6100 
G01 X3.3846 Y13.5750 
G01 X3.2190 Y13.5064 
G01 X3.0699 Y13.4068 
G01 X2.9432 Y13.2801 
G01 X2.8436 Y13.1310 
G01 X2.7750 Y12.9654 
G01 X2.7400 Y12.7896 
G01 X2.7400 Y12.6104 
G01 X2.7750 Y12.4346 
G01 X2.8436 Y12.2690 
G01 X2.9432 Y12.1199 
G00 Z2.0000 
G00 X18.1355 Y29.9911 
G01 Z-0.3000 F100.00 
G01 X18.0245 Y29.8384 F250.00 
G01 X17.9742 Y29.7397 
G01 X15.9803 Y27.7458 
G01 X15.8816 Y27.6955 
G01 X15.7850 Y27.6253 
G01 X15.7850 Y29.3949 
G01 X18.2150 Y31.8249 
G01 X18.2150 Y30.0706 
G01 X18.1355 Y29.9911 
G00 Z2.0000 
G00 X32.3068 Y8.6973 
G01 Z-0.3000 F100.00 
G01 X32.2997 Y8.6950 F250.00 
G01 X32.1370 Y8.6121 
G01 X31.9893 Y8.5048 
G01 X27.7814 Y4.2969 
G01 X27.7390 Y4.2969 
G01 X27.8033 Y4.3855 
G01 X27.8980 Y4.5713 
G01 X27.9625 Y4.7697 
G01 X27.9951 Y4.9757 
G01 X27.9951 Y5.1843 
G01 X27.9625 Y5.3903 
G01 X27.8980 Y5.5887 
G01 X27.8033 Y5.7745 
G01 X27.6807 Y5.9432 
G01 X27.5332 Y6.0907 
G01 X27.3645 Y6.2133 
G01 X27.2044 Y6.2949 
G01 X27.2189 Y6.2949 
G01 X27.9951 Y7.0711 
G01 X27.9951 Y8.1689 
G01 X27.8300 Y8.3340 
G01 X27.8300 Y10.7160 
G01 X27.9951 Y10.8811 
G01 X27.9951 Y11.2394 
G01 X29.7402 Y9.4943 
G01 X29.8693 Y9.3652 
G01 X30.0170 Y9.2579 
G01 X30.1797 Y9.1750 
G01 X30.3534 Y9.1186 
G01 X30.5337 Y9.0900 
G01 X32.4049 Y9.0900 
G01 X32.4147 Y9.0850 
G01 X32.5884 Y9.0286 
G01 X32.6313 Y9.0218 
G01 X32.3068 Y8.6973 
G00 Z2.0000 
G00 X24.5426 Y4.2969 
G01 Z-0.3000 F100.00 
G01 X12.5732 Y4.2969 F250.00 
G01 X11.7055 Y5.1646 
G01 X11.9210 Y5.1646 
G01 X11.9464 Y5.1900 
G01 X23.6495 Y5.1900 
G01 X24.5426 Y4.2969 
G00 Z2.0000 
G00 X40.0171 Y24.9650 
G01 Z-0.3000 F100.00 
G01 X39.9274 Y24.8753 F250.00 
G01 X39.8216 Y24.7296 
G01 X39.7398 Y24.5691 
G01 X39.6842 Y24.3979 
G01 X39.6560 Y24.2200 
G01 X39.6560 Y24.0400 
G01 X39.6842 Y23.8621 
G01 X39.7398 Y23.6909 
G01 X39.8216 Y23.5304 
G01 X39.9274 Y23.3847 
G01 X40.0547 Y23.2574 
G01 X40.2004 Y23.1516 
G01 X40.3609 Y23.0698 
G01 X40.5321 Y23.0142 
G01 X40.7100 Y22.9860 
G01 X40.8900 Y22.9860 
G01 X41.0679 Y23.0142 
G01 X41.2391 Y23.0698 
G01 X41.3996 Y23.1516 
G01 X41.5453 Y23.2574 
G01 X41.6726 Y23.3847 
G01 X41.7784 Y23.5304 
G01 X41.8602 Y23.6909 
G01 X41.9158 Y23.8621 
G01 X41.9440 Y24.0400 
G01 X41.9440 Y24.2200 
G01 X41.9158 Y24.3979 
G01 X41.8602 Y24.5691 
G01 X41.7784 Y24.7296 
G01 X41.6726 Y24.8753 
G01 X41.5829 Y24.9650 
G01 X42.8906 Y24.9650 
G01 X44.9786 Y22.8770 
G01 X43.5867 Y22.8770 
G01 X43.3866 Y22.8453 
G01 X43.1940 Y22.7827 
G01 X43.0135 Y22.6907 
G01 X42.8942 Y22.6041 
G01 X42.8047 Y22.5750 
G01 X42.6420 Y22.4921 
G01 X42.4943 Y22.3848 
G01 X42.3652 Y22.2557 
G01 X41.9229 Y21.8134 
G01 X41.9158 Y21.8579 
G01 X41.8602 Y22.0291 
G01 X41.7784 Y22.1896 
G01 X41.6726 Y22.3353 
G01 X41.5453 Y22.4626 
G01 X41.3996 Y22.5684 
G01 X41.2391 Y22.6502 
G01 X41.0679 Y22.7058 
G01 X40.8900 Y22.7340 
G01 X40.7100 Y22.7340 
G01 X40.5321 Y22.7058 
G01 X40.3609 Y22.6502 
G01 X40.2004 Y22.5684 
G01 X40.0547 Y22.4626 
G01 X39.9274 Y22.3353 
G01 X39.8216 Y22.1896 
G01 X39.7398 Y22.0291 
G01 X39.6842 Y21.8579 
G01 X39.6771 Y21.8134 
G01 X36.5255 Y24.9650 
G01 X40.0171 Y24.9650 
G00 Z2.0000 
G00 X10.7866 Y19.5055 
G01 Z-0.3000 F100.00 
G01 X10.8447 Y19.4474 F250.00 
G01 X10.9904 Y19.3416 
G01 X11.1509 Y19.2598 
G01 X11.3221 Y19.2042 
G01 X11.3251 Y19.2037 
G01 X10.8343 Y18.7129 
G01 X10.7866 Y18.6652 
G01 X10.7866 Y19.5055 
G00 Z2.0000 
G00 X6.8831 Y34.3070 
G01 Z-0.3000 F100.00 
G01 X5.8169 Y34.3070 F250.00 
G01 X5.0630 Y33.5531 
G01 X5.0630 Y32.4869 
G01 X5.8169 Y31.7330 
G01 X5.8424 Y31.7330 
G01 X9.0811 Y28.4943 
G01 X9.2102 Y28.3652 
G01 X9.3579 Y28.2579 
G01 X9.5206 Y28.1750 
